<?xml version="1.0" encoding="UTF-8"?>
<map version="1.10" tiledversion="1.12.2-2-geb83ddb9" orientation="orthogonal" renderorder="right-down" width="128" height="128" tilewidth="32" tileheight="32" infinite="0" nextlayerid="7" nextobjectid="23">
 <tileset firstgid="1" source="spritesheet_tiles.tsx"/>
 <tileset firstgid="5185" source="spritesheet_objects.tsx"/>
 <layer id="1" name="background" width="128" height="128">
  <data encoding="csv">
577,578,579,580,577,578,579,580,577,578,579,580,577,578,579,580,577,578,579,580,577,578,579,580,577,578,579,580,577,578,579,580,577,578,579,580,577,578,579,580,577,578,579,580,577,578,579,580,577,578,579,580,577,578,579,580,577,578,579,580,577,578,579,580,577,578,579,580,577,578,579,580,577,578,579,580,577,578,579,580,577,578,579,580,577,578,579,580,577,578,579,580,577,578,579,580,577,578,579,580,577,578,579,580,577,578,579,580,577,578,579,580,577,578,579,580,577,578,579,580,577,578,579,580,577,578,579,580,
649,650,651,652,649,650,651,652,649,650,651,652,649,650,651,652,649,650,651,652,649,650,651,652,649,650,651,652,649,650,651,652,649,650,651,652,649,650,651,652,649,650,651,652,649,650,651,652,649,650,651,652,649,650,651,652,649,650,651,652,649,650,651,652,649,650,651,652,649,650,651,652,649,650,651,652,649,650,651,652,649,650,651,652,649,650,651,652,649,650,651,652,649,650,651,652,649,650,651,652,649,650,651,652,649,650,651,652,649,650,651,652,649,650,651,652,649,650,651,652,649,650,651,652,649,650,651,652,
721,722,723,724,721,722,723,724,721,722,723,724,721,722,723,724,721,722,723,724,721,722,723,724,721,722,723,724,721,722,723,724,721,722,723,724,721,722,723,724,721,722,723,724,721,722,723,724,721,722,723,724,721,722,723,724,721,722,723,724,721,722,723,724,721,722,723,724,721,722,723,724,721,722,723,724,721,722,723,724,721,722,723,724,721,722,723,724,721,722,723,724,721,722,723,724,721,722,723,724,721,722,723,724,721,722,723,724,721,722,723,724,721,722,723,724,721,722,723,724,721,722,723,724,721,722,723,724,
793,794,795,796,793,794,795,796,793,794,795,796,793,794,795,796,793,794,795,796,793,794,795,796,793,794,795,796,793,794,795,796,793,794,795,796,793,794,795,796,793,794,795,796,793,794,795,796,793,794,795,796,793,794,795,796,793,794,795,796,793,794,795,796,793,794,795,796,793,794,795,796,793,794,795,796,793,794,795,796,793,794,795,796,793,794,795,796,793,794,795,796,793,794,795,796,793,794,795,796,793,794,795,796,793,794,795,796,793,794,795,796,793,794,795,796,793,794,795,796,793,794,795,796,793,794,795,796,
577,578,579,580,577,578,579,580,577,578,579,580,577,578,579,580,577,578,579,580,577,578,579,580,577,578,579,580,577,578,579,580,577,578,579,580,577,578,579,580,577,578,579,580,577,578,579,580,577,578,579,580,577,578,579,580,577,578,579,580,577,578,579,580,577,578,579,580,577,578,579,580,577,578,579,580,577,578,579,580,577,578,579,580,577,578,579,580,577,578,579,580,577,578,579,580,577,578,579,580,577,578,579,580,577,578,579,580,577,578,579,580,577,578,579,580,577,578,579,580,577,578,579,580,577,578,579,580,
649,650,651,652,649,650,651,652,649,650,651,652,649,650,651,652,649,650,651,652,649,650,651,652,649,650,651,652,649,650,651,652,649,650,651,652,649,650,651,652,649,650,651,652,649,650,651,652,649,650,651,652,649,650,651,652,649,650,651,652,649,650,651,652,649,650,651,652,649,650,651,652,649,650,651,652,649,650,651,652,649,650,651,652,649,650,651,652,649,650,651,652,649,650,651,652,649,650,651,652,649,650,651,652,649,650,651,652,649,650,651,652,649,650,651,652,649,650,651,652,649,650,651,652,649,650,651,652,
721,722,723,724,721,722,723,724,721,722,723,724,721,722,723,724,721,722,723,724,721,722,723,724,721,722,723,724,721,722,723,724,721,722,723,724,721,722,723,724,721,722,723,724,721,722,723,724,721,722,723,724,721,722,723,724,721,722,723,724,721,722,723,724,721,722,723,724,721,722,723,724,721,722,723,724,721,722,723,724,721,722,723,724,721,722,723,724,721,722,723,724,721,722,723,724,721,722,723,724,721,722,723,724,721,722,723,724,721,722,723,724,721,722,723,724,721,722,723,724,721,722,723,724,721,722,723,724,
793,794,795,796,793,794,795,796,793,794,795,796,793,794,795,796,793,794,795,796,793,794,795,796,793,794,795,796,793,794,795,796,793,794,795,796,793,794,795,796,793,794,795,796,793,794,795,796,793,794,795,796,793,794,795,796,793,794,795,796,793,794,795,796,793,794,795,796,793,794,795,796,793,794,795,796,793,794,795,796,793,794,795,796,793,794,795,796,793,794,795,796,793,794,795,796,793,794,795,796,793,794,795,796,793,794,795,796,793,794,795,796,793,794,795,796,793,794,795,796,793,794,795,796,793,794,795,796,
577,578,579,580,577,578,579,580,577,578,579,580,577,578,579,580,577,578,579,580,577,578,579,580,577,578,579,580,577,578,579,580,577,578,579,580,577,578,579,580,577,578,579,580,577,578,579,580,577,578,579,580,577,578,579,580,577,578,579,580,577,578,579,580,577,578,579,580,577,578,579,580,577,578,579,580,577,578,579,580,577,578,579,580,577,578,579,580,577,578,579,580,577,578,579,580,577,578,579,580,577,578,579,580,577,578,579,580,577,578,579,580,577,578,579,580,577,578,579,580,577,578,579,580,577,578,579,580,
649,650,651,652,649,650,651,652,649,650,651,652,649,650,651,652,649,650,651,652,649,650,651,652,649,650,651,652,649,650,651,652,649,650,651,652,649,650,651,652,649,650,651,652,649,650,651,652,649,650,651,652,649,650,651,652,649,650,651,652,649,650,651,652,649,650,651,652,649,650,651,652,649,650,651,652,649,650,651,652,649,650,651,652,649,650,651,652,649,650,651,652,649,650,651,652,649,650,651,652,649,650,651,652,649,650,651,652,649,650,651,652,649,650,651,652,649,650,651,652,649,650,651,652,649,650,651,652,
721,722,723,724,721,722,723,724,721,722,723,724,721,722,723,724,721,722,723,724,721,722,723,724,721,722,723,724,721,722,723,724,721,722,723,724,721,722,723,724,721,722,723,724,721,722,723,724,721,722,723,724,721,722,723,724,721,722,723,724,721,722,723,724,721,722,723,724,721,722,723,724,721,722,723,724,721,722,723,724,721,722,723,724,721,722,723,724,721,722,723,724,721,722,723,724,721,722,723,724,721,722,723,724,721,722,723,724,721,722,723,724,721,722,723,724,721,722,723,724,721,722,723,724,721,722,723,724,
793,794,795,796,793,794,795,796,793,794,795,796,793,794,795,796,793,794,795,796,793,794,795,796,793,794,795,796,793,794,795,796,793,794,795,796,793,794,795,796,793,794,795,796,793,794,795,796,793,794,795,796,793,794,795,796,793,794,795,796,793,794,795,796,793,794,795,796,793,794,795,796,793,794,795,796,793,794,795,796,793,794,795,796,793,794,795,796,793,794,795,796,793,794,795,796,793,794,795,796,793,794,795,796,793,794,795,796,793,794,795,796,793,794,795,796,793,794,795,796,793,794,795,796,793,794,795,796,
577,578,579,580,577,578,579,580,577,578,579,580,577,578,579,580,577,578,579,580,577,578,579,580,577,578,579,580,577,578,579,580,577,578,579,580,577,578,579,580,577,578,579,580,577,578,579,580,577,578,579,580,577,578,579,580,577,578,579,580,577,578,579,580,577,578,579,580,577,578,579,580,577,578,579,580,577,578,579,580,577,578,579,580,577,578,579,580,577,578,579,580,577,578,579,580,577,578,579,580,577,578,579,580,577,578,579,580,577,578,579,580,577,578,579,580,577,578,579,580,577,578,579,580,577,578,579,580,
649,650,651,652,649,650,651,652,649,650,651,652,649,650,651,652,649,650,651,652,649,650,651,652,649,650,651,652,649,650,651,652,649,650,651,652,649,650,651,652,649,650,651,652,649,650,651,652,649,650,651,652,649,650,651,652,649,650,651,652,649,650,651,652,649,650,651,652,649,650,651,652,649,650,651,652,649,650,651,652,649,650,651,652,649,650,651,652,649,650,651,652,649,650,651,652,649,650,651,652,649,650,651,652,649,650,651,652,649,650,651,652,649,650,651,652,649,650,651,652,649,650,651,652,649,650,651,652,
721,722,723,724,721,722,723,724,721,722,723,724,721,722,723,724,721,722,723,724,721,722,723,724,721,722,723,724,721,722,723,724,721,722,723,724,721,722,723,724,721,722,723,724,721,722,723,724,721,722,723,724,721,722,723,724,721,722,723,724,721,722,723,724,721,722,723,724,721,722,723,724,721,722,723,724,721,722,723,724,721,722,723,724,721,722,723,724,721,722,723,724,721,722,723,724,721,722,723,724,721,722,723,724,721,722,723,724,721,722,723,724,721,722,723,724,721,722,723,724,721,722,723,724,721,722,723,724,
793,794,795,796,793,794,795,796,793,794,795,796,793,794,795,796,793,794,795,796,793,794,795,796,793,794,795,796,793,794,795,796,793,794,795,796,793,794,795,796,793,794,795,796,793,794,795,796,793,794,795,796,793,794,795,796,793,794,795,796,793,794,795,796,793,794,795,796,793,794,795,796,793,794,795,796,793,794,795,796,793,794,795,796,793,794,795,796,793,794,795,796,793,794,795,796,793,794,795,796,793,794,795,796,793,794,795,796,793,794,795,796,793,794,795,796,793,794,795,796,793,794,795,796,793,794,795,796,
577,578,579,580,577,578,579,580,577,578,579,580,577,578,579,580,577,578,579,580,577,578,579,580,577,578,579,580,577,578,579,580,577,578,579,580,577,578,579,580,577,578,579,580,577,578,579,580,577,578,579,580,577,578,579,580,577,578,579,580,577,578,579,580,577,578,579,580,577,578,579,580,577,578,579,580,577,578,579,580,577,578,579,580,577,578,579,580,577,578,579,580,577,578,579,580,577,578,579,580,577,578,579,580,577,578,579,580,577,578,579,580,577,578,579,580,577,578,579,580,577,578,579,580,577,578,579,580,
649,650,651,652,649,650,651,652,649,650,651,652,649,650,651,652,649,650,651,652,649,650,651,652,649,650,651,652,649,650,651,652,649,650,651,652,649,650,651,652,649,650,651,652,649,650,651,652,649,650,651,652,649,650,651,652,649,650,651,652,649,650,651,652,649,650,651,652,649,650,651,652,649,650,651,652,649,650,651,652,649,650,651,652,649,650,651,652,649,650,651,652,649,650,651,652,649,650,651,652,649,650,651,652,649,650,651,652,649,650,651,652,649,650,651,652,649,650,651,652,649,650,651,652,649,650,651,652,
721,722,723,724,721,722,723,724,721,722,723,724,721,722,723,724,721,722,723,724,721,722,723,724,721,722,723,724,721,722,723,724,721,722,723,724,721,722,723,724,721,722,723,724,721,722,723,724,721,722,723,724,721,722,723,724,721,722,723,724,721,722,723,724,721,722,723,724,721,722,723,724,721,722,723,724,721,722,723,724,721,722,723,724,721,722,723,724,721,722,723,724,721,722,723,724,721,722,723,724,721,722,723,724,721,722,723,724,721,722,723,724,721,722,723,724,721,722,723,724,721,722,723,724,721,722,723,724,
793,794,795,796,793,794,795,796,793,794,795,796,793,794,795,796,793,794,795,796,793,794,795,796,793,794,795,796,793,794,795,796,793,794,795,796,793,794,795,796,793,794,795,796,793,794,795,796,793,794,795,796,793,794,795,796,793,794,795,796,793,794,795,796,793,794,795,796,793,794,795,796,793,794,795,796,793,794,795,796,793,794,795,796,793,794,795,796,793,794,795,796,793,794,795,796,793,794,795,796,793,794,795,796,793,794,795,796,793,794,795,796,793,794,795,796,793,794,795,796,793,794,795,796,793,794,795,796,
577,578,579,580,577,578,579,580,577,578,579,580,577,578,579,580,577,578,579,580,577,578,579,580,577,578,579,580,577,578,579,580,577,578,579,580,577,578,579,580,577,578,579,580,577,578,579,580,577,578,579,580,577,578,579,580,577,578,579,580,577,578,579,580,577,578,579,580,577,578,579,580,577,578,579,580,577,578,579,580,577,578,579,580,577,578,579,580,577,578,579,580,577,578,579,580,577,578,579,580,577,578,579,580,577,578,579,580,577,578,579,580,577,578,579,580,577,578,579,580,577,578,579,580,577,578,579,580,
649,650,651,652,649,650,651,652,649,650,651,652,649,650,651,652,649,650,651,652,649,650,651,652,649,650,651,652,649,650,651,652,649,650,651,652,649,650,651,652,649,650,651,652,649,650,651,652,649,650,651,652,649,650,651,652,649,650,651,652,649,650,651,652,649,650,651,652,649,650,651,652,649,650,651,652,649,650,651,652,649,650,651,652,649,650,651,652,649,650,651,652,649,650,651,652,649,650,651,652,649,650,651,652,649,650,651,652,649,650,651,652,649,650,651,652,649,650,651,652,649,650,651,652,649,650,651,652,
721,722,723,724,721,722,723,724,721,722,723,724,721,722,723,724,721,722,723,724,721,722,723,724,721,722,723,724,721,722,723,724,721,722,723,724,721,722,723,724,721,722,723,724,721,722,723,724,721,722,723,724,721,722,723,724,721,722,723,724,721,722,723,724,721,722,723,724,721,722,723,724,721,722,723,724,721,722,723,724,721,722,723,724,721,722,723,724,721,722,723,724,721,722,723,724,721,722,723,724,721,722,723,724,721,722,723,724,721,722,723,724,721,722,723,724,721,722,723,724,721,722,723,724,721,722,723,724,
793,794,795,796,793,794,795,796,793,794,795,796,793,794,795,796,793,794,795,796,793,794,795,796,793,794,795,796,793,794,795,796,793,794,795,796,793,794,795,796,793,794,795,796,793,794,795,796,793,794,795,796,793,794,795,796,793,794,795,796,793,794,795,796,793,794,795,796,793,794,795,796,793,794,795,796,793,794,795,796,793,794,795,796,793,794,795,796,793,794,795,796,793,794,795,796,793,794,795,796,793,794,795,796,793,794,795,796,793,794,795,796,793,794,795,796,793,794,795,796,793,794,795,796,793,794,795,796,
577,578,579,580,577,578,579,580,577,578,579,580,577,578,579,580,577,578,579,580,577,578,579,580,577,578,579,580,577,578,579,580,577,578,579,580,577,578,579,580,577,578,579,580,577,578,579,580,577,578,579,580,577,578,579,580,577,578,579,580,577,578,579,580,577,578,579,580,577,578,579,580,577,578,579,580,577,578,579,580,577,578,579,580,577,578,579,580,577,578,579,580,577,578,579,580,577,578,579,580,577,578,579,580,577,578,579,580,577,578,579,580,577,578,579,580,577,578,579,580,577,578,579,580,577,578,579,580,
649,650,651,652,649,650,651,652,649,650,651,652,649,650,651,652,649,650,651,652,649,650,651,652,649,650,651,652,649,650,651,652,649,650,651,652,649,650,651,652,649,650,651,652,649,650,651,652,649,650,651,652,649,650,651,652,649,650,651,652,649,650,651,652,649,650,651,652,649,650,651,652,649,650,651,652,649,650,651,652,649,650,651,652,649,650,651,652,649,650,651,652,649,650,651,652,649,650,651,652,649,650,651,652,649,650,651,652,649,650,651,652,649,650,651,652,649,650,651,652,649,650,651,652,649,650,651,652,
721,722,723,724,721,722,723,724,721,722,723,724,721,722,723,724,721,722,723,724,721,722,723,724,721,722,723,724,721,722,723,724,721,722,723,724,721,722,723,724,721,722,723,724,721,722,723,724,721,722,723,724,721,722,723,724,721,722,723,724,721,722,723,724,721,722,723,724,721,722,723,724,721,722,723,724,721,722,723,724,721,722,723,724,721,722,723,724,721,722,723,724,721,722,723,724,721,722,723,724,721,722,723,724,721,722,723,724,721,722,723,724,721,722,723,724,721,722,723,724,721,722,723,724,721,722,723,724,
793,794,795,796,793,794,795,796,793,794,795,796,793,794,795,796,793,794,795,796,793,794,795,796,793,794,795,796,793,794,795,796,793,794,795,796,793,794,795,796,793,794,795,796,793,794,795,796,793,794,795,796,793,794,795,796,793,794,795,796,793,794,795,796,793,794,795,796,793,794,795,796,793,794,795,796,793,794,795,796,793,794,795,796,793,794,795,796,793,794,795,796,793,794,795,796,793,794,795,796,793,794,795,796,793,794,795,796,793,794,795,796,793,794,795,796,793,794,795,796,793,794,795,796,793,794,795,796,
577,578,579,580,577,578,579,580,577,578,579,580,577,578,579,580,577,578,579,580,577,578,579,580,577,578,579,580,577,578,579,580,577,578,579,580,577,578,579,580,577,578,579,580,577,578,579,580,577,578,579,580,577,578,579,580,577,578,579,580,577,578,579,580,577,578,579,580,577,578,579,580,577,578,579,580,577,578,579,580,577,578,579,580,577,578,579,580,577,578,579,580,577,578,579,580,577,578,579,580,577,578,579,580,577,578,579,580,577,578,579,580,577,578,579,580,577,578,579,580,577,578,579,580,577,578,579,580,
649,650,651,652,649,650,651,652,649,650,651,652,649,650,651,652,649,650,651,652,649,650,651,652,649,650,651,652,649,650,651,652,649,650,651,652,649,650,651,652,649,650,651,652,649,650,651,652,649,650,651,652,649,650,651,652,649,650,651,652,649,650,651,652,649,650,651,652,649,650,651,652,649,650,651,652,649,650,651,652,649,650,651,652,649,650,651,652,649,650,651,652,649,650,651,652,649,650,651,652,649,650,651,652,649,650,651,652,649,650,651,652,649,650,651,652,649,650,651,652,649,650,651,652,649,650,651,652,
721,722,723,724,721,722,723,724,721,722,723,724,721,722,723,724,721,722,723,724,721,722,723,724,721,722,723,724,721,722,723,724,721,722,723,724,721,722,723,724,721,722,723,724,721,722,723,724,721,722,723,724,721,722,723,724,721,722,723,724,721,722,723,724,721,722,723,724,721,722,723,724,721,722,723,724,721,722,723,724,721,722,723,724,721,722,723,724,721,722,723,724,721,722,723,724,721,722,723,724,721,722,723,724,721,722,723,724,721,722,723,724,721,722,723,724,721,722,723,724,721,722,723,724,721,722,723,724,
793,794,795,796,793,794,795,796,793,794,795,796,793,794,795,796,793,794,795,796,793,794,795,796,793,794,795,796,793,794,795,796,793,794,795,796,793,794,795,796,793,794,795,796,793,794,795,796,793,794,795,796,793,794,795,796,793,794,795,796,793,794,795,796,793,794,795,796,793,794,795,796,793,794,795,796,793,794,795,796,793,794,795,796,793,794,795,796,793,794,795,796,793,794,795,796,793,794,795,796,793,794,795,796,793,794,795,796,793,794,795,796,793,794,795,796,793,794,795,796,793,794,795,796,793,794,795,796,
577,578,579,580,577,578,579,580,577,578,579,580,577,578,579,580,577,578,579,580,577,578,579,580,577,578,579,580,577,578,579,580,577,578,579,580,577,578,579,580,577,578,579,580,577,578,579,580,577,578,579,580,577,578,579,580,577,578,579,580,577,578,579,580,577,578,579,580,577,578,579,580,577,578,579,580,577,578,579,580,577,578,579,580,577,578,579,580,577,578,579,580,577,578,579,580,577,578,579,580,577,578,579,580,577,578,579,580,577,578,579,580,577,578,579,580,577,578,579,580,577,578,579,580,577,578,579,580,
649,650,651,652,649,650,651,652,649,650,651,652,649,650,651,652,649,650,651,652,649,650,651,652,649,650,651,652,649,650,651,652,649,650,651,652,649,650,651,652,649,650,651,652,649,650,651,652,649,650,651,652,649,650,651,652,649,650,651,652,649,650,651,652,649,650,651,652,649,650,651,652,649,650,651,652,649,650,651,652,649,650,651,652,649,650,651,652,649,650,651,652,649,650,651,652,649,650,651,652,649,650,651,652,649,650,651,652,649,650,651,652,649,650,651,652,649,650,651,652,649,650,651,652,649,650,651,652,
721,722,723,724,721,722,723,724,721,722,723,724,721,722,723,724,721,722,723,724,721,722,723,724,721,722,723,724,721,722,723,724,721,722,723,724,721,722,723,724,721,722,723,724,721,722,723,724,721,722,723,724,721,722,723,724,721,722,723,724,721,722,723,724,721,722,723,724,721,722,723,724,721,722,723,724,721,722,723,724,721,722,723,724,721,722,723,724,721,722,723,724,721,722,723,724,721,722,723,724,721,722,723,724,721,722,723,724,721,722,723,724,721,722,723,724,721,722,723,724,721,722,723,724,721,722,723,724,
793,794,795,796,793,794,795,796,793,794,795,796,793,794,795,796,793,794,795,796,793,794,795,796,793,794,795,796,793,794,795,796,793,794,795,796,793,794,795,796,793,794,795,796,793,794,795,796,793,794,795,796,793,794,795,796,793,794,795,796,793,794,795,796,793,794,795,796,793,794,795,796,793,794,795,796,793,794,795,796,793,794,795,796,793,794,795,796,793,794,795,796,793,794,795,796,793,794,795,796,793,794,795,796,793,794,795,796,793,794,795,796,793,794,795,796,793,794,795,796,793,794,795,796,793,794,795,796,
577,578,579,580,577,578,579,580,577,578,579,580,577,578,579,580,577,578,579,580,577,578,579,580,577,578,579,580,577,578,579,580,577,578,579,580,577,578,579,580,577,578,579,580,577,578,579,580,577,578,579,580,577,578,579,580,577,578,579,580,577,578,579,580,577,578,579,580,577,578,579,580,577,578,579,580,577,578,579,580,577,578,579,580,577,578,579,580,577,578,579,580,577,578,579,580,577,578,579,580,577,578,579,580,577,578,579,580,577,578,579,580,577,578,579,580,577,578,579,580,577,578,579,580,577,578,579,580,
649,650,651,652,649,650,651,652,649,650,651,652,649,650,651,652,649,650,651,652,649,650,651,652,649,650,651,652,649,650,651,652,649,650,651,652,649,650,651,652,649,650,651,652,649,650,651,652,649,650,651,652,649,650,651,652,649,650,651,652,649,650,651,652,649,650,651,652,649,650,651,652,649,650,651,652,649,650,651,652,649,650,651,652,649,650,651,652,649,650,651,652,649,650,651,652,649,650,651,652,649,650,651,652,649,650,651,652,649,650,651,652,649,650,651,652,649,650,651,652,649,650,651,652,649,650,651,652,
721,722,723,724,721,722,723,724,721,722,723,724,721,722,723,724,721,722,723,724,721,722,723,724,721,722,723,724,721,722,723,724,721,722,723,724,721,722,723,724,721,722,723,724,721,722,723,724,721,722,723,724,721,722,723,724,721,722,723,724,721,722,723,724,721,722,723,724,721,722,723,724,721,722,723,724,721,722,723,724,721,722,723,724,721,722,723,724,721,722,723,724,721,722,723,724,721,722,723,724,721,722,723,724,721,722,723,724,721,722,723,724,721,722,723,724,721,722,723,724,721,722,723,724,721,722,723,724,
793,794,795,796,793,794,795,796,793,794,795,796,793,794,795,796,793,794,795,796,793,794,795,796,793,794,795,796,793,794,795,796,793,794,795,796,793,794,795,796,793,794,795,796,793,794,795,796,793,794,795,796,793,794,795,796,793,794,795,796,793,794,795,796,793,794,795,796,793,794,795,796,793,794,795,796,793,794,795,796,793,794,795,796,793,794,795,796,793,794,795,796,793,794,795,796,793,794,795,796,793,794,795,796,793,794,795,796,793,794,795,796,793,794,795,796,793,794,795,796,793,794,795,796,793,794,795,796,
577,578,579,580,577,578,579,580,577,578,579,580,577,578,579,580,577,578,579,580,577,578,579,580,577,578,579,580,577,578,579,580,577,578,579,580,577,578,579,580,577,578,579,580,577,578,579,580,577,578,579,580,577,578,579,580,577,578,579,580,577,578,579,580,577,578,579,580,577,578,579,580,577,578,579,580,577,578,579,580,577,578,579,580,577,578,579,580,577,578,579,580,577,578,579,580,577,578,579,580,577,578,579,580,577,578,579,580,577,578,579,580,577,578,579,580,577,578,579,580,577,578,579,580,577,578,579,580,
649,650,651,652,649,650,651,652,649,650,651,652,649,650,651,652,649,650,651,652,649,650,651,652,649,650,651,652,649,650,651,652,649,650,651,652,649,650,651,652,649,650,651,652,649,650,651,652,649,650,651,652,649,650,651,652,649,650,651,652,649,650,651,652,649,650,651,652,649,650,651,652,649,650,651,652,649,650,651,652,649,650,651,652,649,650,651,652,649,650,651,652,649,650,651,652,649,650,651,652,649,650,651,652,649,650,651,652,649,650,651,652,649,650,651,652,649,650,651,652,649,650,651,652,649,650,651,652,
721,722,723,724,721,722,723,724,721,722,723,724,721,722,723,724,721,722,723,724,721,722,723,724,721,722,723,724,721,722,723,724,721,722,723,724,721,722,723,724,721,722,723,724,721,722,723,724,721,722,723,724,721,722,723,724,721,722,723,724,721,722,723,724,721,722,723,724,721,722,723,724,721,722,723,724,721,722,723,724,721,722,723,724,721,722,723,724,721,722,723,724,721,722,723,724,721,722,723,724,721,722,723,724,721,722,723,724,721,722,723,724,721,722,723,724,721,722,723,724,721,722,723,724,721,722,723,724,
793,794,795,796,793,794,795,796,793,794,795,796,793,794,795,796,793,794,795,796,793,794,795,796,793,794,795,796,793,794,795,796,793,794,795,796,793,794,795,796,793,794,795,796,793,794,795,796,793,794,795,796,793,794,795,796,793,794,795,796,793,794,795,796,793,794,795,796,793,794,795,796,793,794,795,796,793,794,795,796,793,794,795,796,793,794,795,796,793,794,795,796,793,794,795,796,793,794,795,796,793,794,795,796,793,794,795,796,793,794,795,796,793,794,795,796,793,794,795,796,793,794,795,796,793,794,795,796,
577,578,579,580,577,578,579,580,577,578,579,580,577,578,579,580,577,578,579,580,577,578,579,580,577,578,579,580,577,578,579,580,577,578,579,580,577,578,579,580,577,578,579,580,577,578,579,580,577,578,579,580,577,578,579,580,577,578,579,580,577,578,579,580,577,578,579,580,577,578,579,580,577,578,579,580,577,578,579,580,577,578,579,580,577,578,579,580,577,578,579,580,577,578,579,580,577,578,579,580,577,578,579,580,577,578,579,580,577,578,579,580,577,578,579,580,577,578,579,580,577,578,579,580,577,578,579,580,
649,650,651,652,649,650,651,652,649,650,651,652,649,650,651,652,649,650,651,652,649,650,651,652,649,650,651,652,649,650,651,652,649,650,651,652,649,650,651,652,649,650,651,652,649,650,651,652,649,650,651,652,649,650,651,652,649,650,651,652,649,650,651,652,649,650,651,652,649,650,651,652,649,650,651,652,649,650,651,652,649,650,651,652,649,650,651,652,649,650,651,652,649,650,651,652,649,650,651,652,649,650,651,652,649,650,651,652,649,650,651,652,649,650,651,652,649,650,651,652,649,650,651,652,649,650,651,652,
721,722,723,724,721,722,723,724,721,722,723,724,721,722,723,724,721,722,723,724,721,722,723,724,721,722,723,724,721,722,723,724,721,722,723,724,721,722,723,724,721,722,723,724,721,722,723,724,721,722,723,724,721,722,723,724,721,722,723,724,721,722,723,724,721,722,723,724,721,722,723,724,721,722,723,724,721,722,723,724,721,722,723,724,721,722,723,724,721,722,723,724,721,722,723,724,721,722,723,724,721,722,723,724,721,722,723,724,721,722,723,724,721,722,723,724,721,722,723,724,721,722,723,724,721,722,723,724,
793,794,795,796,793,794,795,796,793,794,795,796,793,794,795,796,793,794,795,796,793,794,795,796,793,794,795,796,793,794,795,796,793,794,795,796,793,794,795,796,793,794,795,796,793,794,795,796,793,794,795,796,793,794,795,796,793,794,795,796,793,794,795,796,793,794,795,796,793,794,795,796,793,794,795,796,793,794,795,796,793,794,795,796,793,794,795,796,793,794,795,796,793,794,795,796,793,794,795,796,793,794,795,796,793,794,795,796,793,794,795,796,793,794,795,796,793,794,795,796,793,794,795,796,793,794,795,796,
577,578,579,580,577,578,579,580,577,578,579,580,577,578,579,580,577,578,579,580,577,578,579,580,577,578,579,580,577,578,579,580,577,578,579,580,577,578,579,580,577,578,579,580,577,578,579,580,577,578,579,580,577,578,579,580,577,578,579,580,577,578,579,580,577,578,579,580,577,578,579,580,577,578,579,580,577,578,579,580,577,578,579,580,577,578,579,580,577,578,579,580,577,578,579,580,577,578,579,580,577,578,579,580,577,578,579,580,577,578,579,580,577,578,579,580,577,578,579,580,577,578,579,580,577,578,579,580,
649,650,651,652,649,650,651,652,649,650,651,652,649,650,651,652,649,650,651,652,649,650,651,652,649,650,651,652,649,650,651,652,649,650,651,652,649,650,651,652,649,650,651,652,649,650,651,652,649,650,651,652,649,650,651,652,649,650,651,652,649,650,651,652,649,650,651,652,649,650,651,652,649,650,651,652,649,650,651,652,649,650,651,652,649,650,651,652,649,650,651,652,649,650,651,652,649,650,651,652,649,650,651,652,649,650,651,652,649,650,651,652,649,650,651,652,649,650,651,652,649,650,651,652,649,650,651,652,
721,722,723,724,721,722,723,724,721,722,723,724,721,722,723,724,721,722,723,724,721,722,723,724,721,722,723,724,721,722,723,724,721,722,723,724,721,722,723,724,721,722,723,724,721,722,723,724,721,722,723,724,721,722,723,724,721,722,723,724,721,722,723,724,721,722,723,724,721,722,723,724,721,722,723,724,721,722,723,724,721,722,723,724,721,722,723,724,721,722,723,724,721,722,723,724,721,722,723,724,721,722,723,724,721,722,723,724,721,722,723,724,721,722,723,724,721,722,723,724,721,722,723,724,721,722,723,724,
793,794,795,796,793,794,795,796,793,794,795,796,793,794,795,796,793,794,795,796,793,794,795,796,793,794,795,796,793,794,795,796,793,794,795,796,793,794,795,796,793,794,795,796,793,794,795,796,793,794,795,796,793,794,795,796,793,794,795,796,793,794,795,796,793,794,795,796,793,794,795,796,793,794,795,796,793,794,795,796,793,794,795,796,793,794,795,796,793,794,795,796,793,794,795,796,793,794,795,796,793,794,795,796,793,794,795,796,793,794,795,796,793,794,795,796,793,794,795,796,793,794,795,796,793,794,795,796,
577,578,579,580,577,578,579,580,577,578,579,580,577,578,579,580,577,578,579,580,577,578,579,580,577,578,579,580,577,578,579,580,577,578,579,580,577,578,579,580,577,578,579,580,577,578,579,580,577,578,579,580,577,578,579,580,577,578,579,580,577,578,579,580,577,578,579,580,577,578,579,580,577,578,579,580,577,578,579,580,577,578,579,580,577,578,579,580,577,578,579,580,577,578,579,580,577,578,579,580,577,578,579,580,577,578,579,580,577,578,579,580,577,578,579,580,577,578,579,580,577,578,579,580,577,578,579,580,
649,650,651,652,649,650,651,652,649,650,651,652,649,650,651,652,649,650,651,652,649,650,651,652,649,650,651,652,649,650,651,652,649,650,651,652,649,650,651,652,649,650,651,652,649,650,651,652,649,650,651,652,649,650,651,652,649,650,651,652,649,650,651,652,649,650,651,652,649,650,651,652,649,650,651,652,649,650,651,652,649,650,651,652,649,650,651,652,649,650,651,652,649,650,651,652,649,650,651,652,649,650,651,652,649,650,651,652,649,650,651,652,649,650,651,652,649,650,651,652,649,650,651,652,649,650,651,652,
721,722,723,724,721,722,723,724,721,722,723,724,721,722,723,724,721,722,723,724,721,722,723,724,721,722,723,724,721,722,723,724,721,722,723,724,721,722,723,724,721,722,723,724,721,722,723,724,721,722,723,724,721,722,723,724,721,722,723,724,721,722,723,724,721,722,723,724,721,722,723,724,721,722,723,724,721,722,723,724,721,722,723,724,721,722,723,724,721,722,723,724,721,722,723,724,721,722,723,724,721,722,723,724,721,722,723,724,721,722,723,724,721,722,723,724,721,722,723,724,721,722,723,724,721,722,723,724,
793,794,795,796,793,794,795,796,793,794,795,796,793,794,795,796,793,794,795,796,793,794,795,796,793,794,795,796,793,794,795,796,793,794,795,796,793,794,795,796,793,794,795,796,793,794,795,796,793,794,795,796,793,794,795,796,793,794,795,796,793,794,795,796,793,794,795,796,793,794,795,796,793,794,795,796,793,794,795,796,793,794,795,796,793,794,795,796,793,794,795,796,793,794,795,796,793,794,795,796,793,794,795,796,793,794,795,796,793,794,795,796,793,794,795,796,793,794,795,796,793,794,795,796,793,794,795,796,
577,578,579,580,577,578,579,580,577,578,579,580,577,578,579,580,577,578,579,580,577,578,579,580,577,578,579,580,577,578,579,580,577,578,579,580,577,578,579,580,577,578,579,580,577,578,579,580,577,578,579,580,577,578,579,580,577,578,579,580,577,578,579,580,577,578,579,580,577,578,579,580,577,578,579,580,577,578,579,580,577,578,579,580,577,578,579,580,577,578,579,580,577,578,579,580,577,578,579,580,577,578,579,580,577,578,579,580,577,578,579,580,577,578,579,580,577,578,579,580,577,578,579,580,577,578,579,580,
649,650,651,652,649,650,651,652,649,650,651,652,649,650,651,652,649,650,651,652,649,650,651,652,649,650,651,652,649,650,651,652,649,650,651,652,649,650,651,652,649,650,651,652,649,650,651,652,649,650,651,652,649,650,651,652,649,650,651,652,649,650,651,652,649,650,651,652,649,650,651,652,649,650,651,652,649,650,651,652,649,650,651,652,649,650,651,652,649,650,651,652,649,650,651,652,649,650,651,652,649,650,651,652,649,650,651,652,649,650,651,652,649,650,651,652,649,650,651,652,649,650,651,652,649,650,651,652,
721,722,723,724,721,722,723,724,721,722,723,724,721,722,723,724,721,722,723,724,721,722,723,724,721,722,723,724,721,722,723,724,721,722,723,724,721,722,723,724,721,722,723,724,721,722,723,724,721,722,723,724,721,722,723,724,721,722,723,724,721,722,723,724,721,722,723,724,721,722,723,724,721,722,723,724,721,722,723,724,721,722,723,724,721,722,723,724,721,722,723,724,721,722,723,724,721,722,723,724,721,722,723,724,721,722,723,724,721,722,723,724,721,722,723,724,721,722,723,724,721,722,723,724,721,722,723,724,
793,794,795,796,793,794,795,796,793,794,795,796,793,794,795,796,793,794,795,796,793,794,795,796,793,794,795,796,793,794,795,796,793,794,795,796,793,794,795,796,793,794,795,796,793,794,795,796,793,794,795,796,793,794,795,796,793,794,795,796,793,794,795,796,793,794,795,796,793,794,795,796,793,794,795,796,793,794,795,796,793,794,795,796,793,794,795,796,793,794,795,796,793,794,795,796,793,794,795,796,793,794,795,796,793,794,795,796,793,794,795,796,793,794,795,796,793,794,795,796,793,794,795,796,793,794,795,796,
577,578,579,580,577,578,579,580,577,578,579,580,577,578,579,580,577,578,579,580,577,578,579,580,577,578,579,580,577,578,579,580,577,578,579,580,577,578,579,580,577,578,579,580,577,578,579,580,577,578,579,580,577,578,579,580,577,578,579,580,577,578,579,580,577,578,579,580,577,578,579,580,577,578,579,580,577,578,579,580,577,578,579,580,577,578,579,580,577,578,579,580,577,578,579,580,577,578,579,580,577,578,579,580,577,578,579,580,577,578,579,580,577,578,579,580,577,578,579,580,577,578,579,580,577,578,579,580,
649,650,651,652,649,650,651,652,649,650,651,652,649,650,651,652,649,650,651,652,649,650,651,652,649,650,651,652,649,650,651,652,649,650,651,652,649,650,651,652,649,650,651,652,649,650,651,652,649,650,651,652,649,650,651,652,649,650,651,652,649,650,651,652,649,650,651,652,649,650,651,652,649,650,651,652,649,650,651,652,649,650,651,652,649,650,651,652,649,650,651,652,649,650,651,652,649,650,651,652,649,650,651,652,649,650,651,652,649,650,651,652,649,650,651,652,649,650,651,652,649,650,651,652,649,650,651,652,
721,722,723,724,721,722,723,724,721,722,723,724,721,722,723,724,721,722,723,724,721,722,723,724,721,722,723,724,721,722,723,724,721,722,723,724,721,722,723,724,721,722,723,724,721,722,723,724,721,722,723,724,721,722,723,724,721,722,723,724,721,722,723,724,721,722,723,724,721,722,723,724,721,722,723,724,721,722,723,724,721,722,723,724,721,722,723,724,721,722,723,724,721,722,723,724,721,722,723,724,721,722,723,724,721,722,723,724,721,722,723,724,721,722,723,724,721,722,723,724,721,722,723,724,721,722,723,724,
793,794,795,796,793,794,795,796,793,794,795,796,793,794,795,796,793,794,795,796,793,794,795,796,793,794,795,796,793,794,795,796,793,794,795,796,793,794,795,796,793,794,795,796,793,794,795,796,793,794,795,796,793,794,795,796,793,794,795,796,793,794,795,796,793,794,795,796,793,794,795,796,793,794,795,796,793,794,795,796,793,794,795,796,793,794,795,796,793,794,795,796,793,794,795,796,793,794,795,796,793,794,795,796,793,794,795,796,793,794,795,796,793,794,795,796,793,794,795,796,793,794,795,796,793,794,795,796,
577,578,579,580,577,578,579,580,577,578,579,580,577,578,579,580,577,578,579,580,577,578,579,580,577,578,579,580,577,578,579,580,577,578,579,580,577,578,579,580,577,578,579,580,577,578,579,580,577,578,579,580,577,578,579,580,577,578,579,580,577,578,579,580,577,578,579,580,577,578,579,580,577,578,579,580,577,578,579,580,577,578,579,580,577,578,579,580,577,578,579,580,577,578,579,580,577,578,579,580,577,578,579,580,577,578,579,580,577,578,579,580,577,578,579,580,577,578,579,580,577,578,579,580,577,578,579,580,
649,650,651,652,649,650,651,652,649,650,651,652,649,650,651,652,649,650,651,652,649,650,651,652,649,650,651,652,649,650,651,652,649,650,651,652,649,650,651,652,649,650,651,652,649,650,651,652,649,650,651,652,649,650,651,652,649,650,651,652,649,650,651,652,649,650,651,652,649,650,651,652,649,650,651,652,649,650,651,652,649,650,651,652,649,650,651,652,649,650,651,652,649,650,651,652,649,650,651,652,649,650,651,652,649,650,651,652,649,650,651,652,649,650,651,652,649,650,651,652,649,650,651,652,649,650,651,652,
721,722,723,724,721,722,723,724,721,722,723,724,721,722,723,724,721,722,723,724,721,722,723,724,721,722,723,724,721,722,723,724,721,722,723,724,721,722,723,724,721,722,723,724,721,722,723,724,721,722,723,724,721,722,723,724,721,722,723,724,721,722,723,724,721,722,723,724,721,722,723,724,721,722,723,724,721,722,723,724,721,722,723,724,721,722,723,724,721,722,723,724,721,722,723,724,721,722,723,724,721,722,723,724,721,722,723,724,721,722,723,724,721,722,723,724,721,722,723,724,721,722,723,724,721,722,723,724,
793,794,795,796,793,794,795,796,793,794,795,796,793,794,795,796,793,794,795,796,793,794,795,796,793,794,795,796,793,794,795,796,793,794,795,796,793,794,795,796,793,794,795,796,793,794,795,796,793,794,795,796,793,794,795,796,793,794,795,796,793,794,795,796,793,794,795,796,793,794,795,796,793,794,795,796,793,794,795,796,793,794,795,796,793,794,795,796,793,794,795,796,793,794,795,796,793,794,795,796,793,794,795,796,793,794,795,796,793,794,795,796,793,794,795,796,793,794,795,796,793,794,795,796,793,794,795,796,
577,578,579,580,577,578,579,580,577,578,579,580,577,578,579,580,577,578,579,580,577,578,579,580,577,578,579,580,577,578,579,580,577,578,579,580,577,578,579,580,577,578,579,580,577,578,579,580,577,578,579,580,577,578,579,580,577,578,579,580,577,578,579,580,577,578,579,580,577,578,579,580,577,578,579,580,577,578,579,580,577,578,579,580,577,578,579,580,577,578,579,580,577,578,579,580,577,578,579,580,577,578,579,580,577,578,579,580,577,578,579,580,577,578,579,580,577,578,579,580,577,578,579,580,577,578,579,580,
649,650,651,652,649,650,651,652,649,650,651,652,649,650,651,652,649,650,651,652,649,650,651,652,649,650,651,652,649,650,651,652,649,650,651,652,649,650,651,652,649,650,651,652,649,650,651,652,649,650,651,652,649,650,651,652,649,650,651,652,649,650,651,652,649,650,651,652,649,650,651,652,649,650,651,652,649,650,651,652,649,650,651,652,649,650,651,652,649,650,651,652,649,650,651,652,649,650,651,652,649,650,651,652,649,650,651,652,649,650,651,652,649,650,651,652,649,650,651,652,649,650,651,652,649,650,651,652,
721,722,723,724,721,722,723,724,721,722,723,724,721,722,723,724,721,722,723,724,721,722,723,724,721,722,723,724,721,722,723,724,721,722,723,724,721,722,723,724,721,722,723,724,721,722,723,724,721,722,723,724,721,722,723,724,721,722,723,724,721,722,723,724,721,722,723,724,721,722,723,724,721,722,723,724,721,722,723,724,721,722,723,724,721,722,723,724,721,722,723,724,721,722,723,724,721,722,723,724,721,722,723,724,721,722,723,724,721,722,723,724,721,722,723,724,721,722,723,724,721,722,723,724,721,722,723,724,
793,794,795,796,793,794,795,796,793,794,795,796,793,794,795,796,793,794,795,796,793,794,795,796,793,794,795,796,793,794,795,796,793,794,795,796,793,794,795,796,793,794,795,796,793,794,795,796,793,794,795,796,793,794,795,796,793,794,795,796,793,794,795,796,793,794,795,796,793,794,795,796,793,794,795,796,793,794,795,796,793,794,795,796,793,794,795,796,793,794,795,796,793,794,795,796,793,794,795,796,793,794,795,796,793,794,795,796,793,794,795,796,793,794,795,796,793,794,795,796,793,794,795,796,793,794,795,796,
577,578,579,580,577,578,579,580,577,578,579,580,577,578,579,580,577,578,579,580,577,578,579,580,577,578,579,580,577,578,579,580,577,578,579,580,577,578,579,580,577,578,579,580,577,578,579,580,577,578,579,580,577,578,579,580,577,578,579,580,577,578,579,580,577,578,579,580,577,578,579,580,577,578,579,580,577,578,579,580,577,578,579,580,577,578,579,580,577,578,579,580,577,578,579,580,577,578,579,580,577,578,579,580,577,578,579,580,577,578,579,580,577,578,579,580,577,578,579,580,577,578,579,580,577,578,579,580,
649,650,651,652,649,650,651,652,649,650,651,652,649,650,651,652,649,650,651,652,649,650,651,652,649,650,651,652,649,650,651,652,649,650,651,652,649,650,651,652,649,650,651,652,649,650,651,652,649,650,651,652,649,650,651,652,649,650,651,652,649,650,651,652,649,650,651,652,649,650,651,652,649,650,651,652,649,650,651,652,649,650,651,652,649,650,651,652,649,650,651,652,649,650,651,652,649,650,651,652,649,650,651,652,649,650,651,652,649,650,651,652,649,650,651,652,649,650,651,652,649,650,651,652,649,650,651,652,
721,722,723,724,721,722,723,724,721,722,723,724,721,722,723,724,721,722,723,724,721,722,723,724,721,722,723,724,721,722,723,724,721,722,723,724,721,722,723,724,721,722,723,724,721,722,723,724,721,722,723,724,721,722,723,724,721,722,723,724,721,722,723,724,721,722,723,724,721,722,723,724,721,722,723,724,721,722,723,724,721,722,723,724,721,722,723,724,721,722,723,724,721,722,723,724,721,722,723,724,721,722,723,724,721,722,723,724,721,722,723,724,721,722,723,724,721,722,723,724,721,722,723,724,721,722,723,724,
793,794,795,796,793,794,795,796,793,794,795,796,793,794,795,796,793,794,795,796,793,794,795,796,793,794,795,796,793,794,795,796,793,794,795,796,793,794,795,796,793,794,795,796,793,794,795,796,793,794,795,796,793,794,795,796,793,794,795,796,793,794,795,796,793,794,795,796,793,794,795,796,793,794,795,796,793,794,795,796,793,794,795,796,793,794,795,796,793,794,795,796,793,794,795,796,793,794,795,796,793,794,795,796,793,794,795,796,793,794,795,796,793,794,795,796,793,794,795,796,793,794,795,796,793,794,795,796,
577,578,579,580,577,578,579,580,577,578,579,580,577,578,579,580,577,578,579,580,577,578,579,580,577,578,579,580,577,578,579,580,577,578,579,580,577,578,579,580,577,578,579,580,577,578,579,580,577,578,579,580,577,578,579,580,577,578,579,580,577,578,579,580,577,578,579,580,577,578,579,580,577,578,579,580,577,578,579,580,577,578,579,580,577,578,579,580,577,578,579,580,577,578,579,580,577,578,579,580,577,578,579,580,577,578,579,580,577,578,579,580,577,578,579,580,577,578,579,580,577,578,579,580,577,578,579,580,
649,650,651,652,649,650,651,652,649,650,651,652,649,650,651,652,649,650,651,652,649,650,651,652,649,650,651,652,649,650,651,652,649,650,651,652,649,650,651,652,649,650,651,652,649,650,651,652,649,650,651,652,649,650,651,652,649,650,651,652,649,650,651,652,649,650,651,652,649,650,651,652,649,650,651,652,649,650,651,652,649,650,651,652,649,650,651,652,649,650,651,652,649,650,651,652,649,650,651,652,649,650,651,652,649,650,651,652,649,650,651,652,649,650,651,652,649,650,651,652,649,650,651,652,649,650,651,652,
721,722,723,724,721,722,723,724,721,722,723,724,721,722,723,724,721,722,723,724,721,722,723,724,721,722,723,724,721,722,723,724,721,722,723,724,721,722,723,724,721,722,723,724,721,722,723,724,721,722,723,724,721,722,723,724,721,722,723,724,721,722,723,724,721,722,723,724,721,722,723,724,721,722,723,724,721,722,723,724,721,722,723,724,721,722,723,724,721,722,723,724,721,722,723,724,721,722,723,724,721,722,723,724,721,722,723,724,721,722,723,724,721,722,723,724,721,722,723,724,721,722,723,724,721,722,723,724,
793,794,795,796,793,794,795,796,793,794,795,796,793,794,795,796,793,794,795,796,793,794,795,796,793,794,795,796,793,794,795,796,793,794,795,796,793,794,795,796,793,794,795,796,793,794,795,796,793,794,795,796,793,794,795,796,793,794,795,796,793,794,795,796,793,794,795,796,793,794,795,796,793,794,795,796,793,794,795,796,793,794,795,796,793,794,795,796,793,794,795,796,793,794,795,796,793,794,795,796,793,794,795,796,793,794,795,796,793,794,795,796,793,794,795,796,793,794,795,796,793,794,795,796,793,794,795,796,
577,578,579,580,577,578,579,580,577,578,579,580,577,578,579,580,577,578,579,580,577,578,579,580,577,578,579,580,577,578,579,580,577,578,579,580,577,578,579,580,577,578,579,580,577,578,579,580,577,578,579,580,577,578,579,580,577,578,579,580,577,578,579,580,577,578,579,580,577,578,579,580,577,578,579,580,577,578,579,580,577,578,579,580,577,578,579,580,577,578,579,580,577,578,579,580,577,578,579,580,577,578,579,580,577,578,579,580,577,578,579,580,577,578,579,580,577,578,579,580,577,578,579,580,577,578,579,580,
649,650,651,652,649,650,651,652,649,650,651,652,649,650,651,652,649,650,651,652,649,650,651,652,649,650,651,652,649,650,651,652,649,650,651,652,649,650,651,652,649,650,651,652,649,650,651,652,649,650,651,652,649,650,651,652,649,650,651,652,649,650,651,652,649,650,651,652,649,650,651,652,649,650,651,652,649,650,651,652,649,650,651,652,649,650,651,652,649,650,651,652,649,650,651,652,649,650,651,652,649,650,651,652,649,650,651,652,649,650,651,652,649,650,651,652,649,650,651,652,649,650,651,652,649,650,651,652,
721,722,723,724,721,722,723,724,721,722,723,724,721,722,723,724,721,722,723,724,721,722,723,724,721,722,723,724,721,722,723,724,721,722,723,724,721,722,723,724,721,722,723,724,721,722,723,724,721,722,723,724,721,722,723,724,721,722,723,724,721,722,723,724,721,722,723,724,721,722,723,724,721,722,723,724,721,722,723,724,721,722,723,724,721,722,723,724,721,722,723,724,721,722,723,724,721,722,723,724,721,722,723,724,721,722,723,724,721,722,723,724,721,722,723,724,721,722,723,724,721,722,723,724,721,722,723,724,
793,794,795,796,793,794,795,796,793,794,795,796,793,794,795,796,793,794,795,796,793,794,795,796,793,794,795,796,793,794,795,796,793,794,795,796,793,794,795,796,793,794,795,796,793,794,795,796,793,794,795,796,793,794,795,796,793,794,795,796,793,794,795,796,793,794,795,796,793,794,795,796,793,794,795,796,793,794,795,796,793,794,795,796,793,794,795,796,793,794,795,796,793,794,795,796,793,794,795,796,793,794,795,796,793,794,795,796,793,794,795,796,793,794,795,796,793,794,795,796,793,794,795,796,793,794,795,796,
577,578,579,580,577,578,579,580,577,578,579,580,577,578,579,580,577,578,579,580,577,578,579,580,577,578,579,580,577,578,579,580,577,578,579,580,577,578,579,580,577,578,579,580,577,578,579,580,577,578,579,580,577,578,579,580,577,578,579,580,577,578,579,580,577,578,579,580,577,578,579,580,577,578,579,580,577,578,579,580,577,578,579,580,577,578,579,580,577,578,579,580,577,578,579,580,577,578,579,580,577,578,579,580,577,578,579,580,577,578,579,580,577,578,579,580,577,578,579,580,577,578,579,580,577,578,579,580,
649,650,651,652,649,650,651,652,649,650,651,652,649,650,651,652,649,650,651,652,649,650,651,652,649,650,651,652,649,650,651,652,649,650,651,652,649,650,651,652,649,650,651,652,649,650,651,652,649,650,651,652,649,650,651,652,649,650,651,652,649,650,651,652,649,650,651,652,649,650,651,652,649,650,651,652,649,650,651,652,649,650,651,652,649,650,651,652,649,650,651,652,649,650,651,652,649,650,651,652,649,650,651,652,649,650,651,652,649,650,651,652,649,650,651,652,649,650,651,652,649,650,651,652,649,650,651,652,
721,722,723,724,721,722,723,724,721,722,723,724,721,722,723,724,721,722,723,724,721,722,723,724,721,722,723,724,721,722,723,724,721,722,723,724,721,722,723,724,721,722,723,724,721,722,723,724,721,722,723,724,721,722,723,724,721,722,723,724,721,722,723,724,721,722,723,724,721,722,723,724,721,722,723,724,721,722,723,724,721,722,723,724,721,722,723,724,721,722,723,724,721,722,723,724,721,722,723,724,721,722,723,724,721,722,723,724,721,722,723,724,721,722,723,724,721,722,723,724,721,722,723,724,721,722,723,724,
793,794,795,796,793,794,795,796,793,794,795,796,793,794,795,796,793,794,795,796,793,794,795,796,793,794,795,796,793,794,795,796,793,794,795,796,793,794,795,796,793,794,795,796,793,794,795,796,793,794,795,796,793,794,795,796,793,794,795,796,793,794,795,796,793,794,795,796,793,794,795,796,793,794,795,796,793,794,795,796,793,794,795,796,793,794,795,796,793,794,795,796,793,794,795,796,793,794,795,796,793,794,795,796,793,794,795,796,793,794,795,796,793,794,795,796,793,794,795,796,793,794,795,796,793,794,795,796,
577,578,579,580,577,578,579,580,577,578,579,580,577,578,579,580,577,578,579,580,577,578,579,580,577,578,579,580,577,578,579,580,577,578,579,580,577,578,579,580,577,578,579,580,577,578,579,580,577,578,579,580,577,578,579,580,577,578,579,580,577,578,579,580,577,578,579,580,577,578,579,580,577,578,579,580,577,578,579,580,577,578,579,580,577,578,579,580,577,578,579,580,577,578,579,580,577,578,579,580,577,578,579,580,577,578,579,580,577,578,579,580,577,578,579,580,577,578,579,580,577,578,579,580,577,578,579,580,
649,650,651,652,649,650,651,652,649,650,651,652,649,650,651,652,649,650,651,652,649,650,651,652,649,650,651,652,649,650,651,652,649,650,651,652,649,650,651,652,649,650,651,652,649,650,651,652,649,650,651,652,649,650,651,652,649,650,651,652,649,650,651,652,649,650,651,652,649,650,651,652,649,650,651,652,649,650,651,652,649,650,651,652,649,650,651,652,649,650,651,652,649,650,651,652,649,650,651,652,649,650,651,652,649,650,651,652,649,650,651,652,649,650,651,652,649,650,651,652,649,650,651,652,649,650,651,652,
721,722,723,724,721,722,723,724,721,722,723,724,721,722,723,724,721,722,723,724,721,722,723,724,721,722,723,724,721,722,723,724,721,722,723,724,721,722,723,724,721,722,723,724,721,722,723,724,721,722,723,724,721,722,723,724,721,722,723,724,721,722,723,724,721,722,723,724,721,722,723,724,721,722,723,724,721,722,723,724,721,722,723,724,721,722,723,724,721,722,723,724,721,722,723,724,721,722,723,724,721,722,723,724,721,722,723,724,721,722,723,724,721,722,723,724,721,722,723,724,721,722,723,724,721,722,723,724,
793,794,795,796,793,794,795,796,793,794,795,796,793,794,795,796,793,794,795,796,793,794,795,796,793,794,795,796,793,794,795,796,793,794,795,796,793,794,795,796,793,794,795,796,793,794,795,796,793,794,795,796,793,794,795,796,793,794,795,796,793,794,795,796,793,794,795,796,793,794,795,796,793,794,795,796,793,794,795,796,793,794,795,796,793,794,795,796,793,794,795,796,793,794,795,796,793,794,795,796,793,794,795,796,793,794,795,796,793,794,795,796,793,794,795,796,793,794,795,796,793,794,795,796,793,794,795,796,
577,578,579,580,577,578,579,580,577,578,579,580,577,578,579,580,577,578,579,580,577,578,579,580,577,578,579,580,577,578,579,580,577,578,579,580,577,578,579,580,577,578,579,580,577,578,579,580,577,578,579,580,577,578,579,580,577,578,579,580,577,578,579,580,577,578,579,580,577,578,579,580,577,578,579,580,577,578,579,580,577,578,579,580,577,578,579,580,577,578,579,580,577,578,579,580,577,578,579,580,577,578,579,580,577,578,579,580,577,578,579,580,577,578,579,580,577,578,579,580,577,578,579,580,577,578,579,580,
649,650,651,652,649,650,651,652,649,650,651,652,649,650,651,652,649,650,651,652,649,650,651,652,649,650,651,652,649,650,651,652,649,650,651,652,649,650,651,652,649,650,651,652,649,650,651,652,649,650,651,652,649,650,651,652,649,650,651,652,649,650,651,652,649,650,651,652,649,650,651,652,649,650,651,652,649,650,651,652,649,650,651,652,649,650,651,652,649,650,651,652,649,650,651,652,649,650,651,652,649,650,651,652,649,650,651,652,649,650,651,652,649,650,651,652,649,650,651,652,649,650,651,652,649,650,651,652,
721,722,723,724,721,722,723,724,721,722,723,724,721,722,723,724,721,722,723,724,721,722,723,724,721,722,723,724,721,722,723,724,721,722,723,724,721,722,723,724,721,722,723,724,721,722,723,724,721,722,723,724,721,722,723,724,721,722,723,724,721,722,723,724,721,722,723,724,721,722,723,724,721,722,723,724,721,722,723,724,721,722,723,724,721,722,723,724,721,722,723,724,721,722,723,724,721,722,723,724,721,722,723,724,721,722,723,724,721,722,723,724,721,722,723,724,721,722,723,724,721,722,723,724,721,722,723,724,
793,794,795,796,793,794,795,796,793,794,795,796,793,794,795,796,793,794,795,796,793,794,795,796,793,794,795,796,793,794,795,796,793,794,795,796,793,794,795,796,793,794,795,796,793,794,795,796,793,794,795,796,793,794,795,796,793,794,795,796,793,794,795,796,793,794,795,796,793,794,795,796,793,794,795,796,793,794,795,796,793,794,795,796,793,794,795,796,793,794,795,796,793,794,795,796,793,794,795,796,793,794,795,796,793,794,795,796,793,794,795,796,793,794,795,796,793,794,795,796,793,794,795,796,793,794,795,796,
577,578,579,580,577,578,579,580,577,578,579,580,577,578,579,580,577,578,579,580,577,578,579,580,577,578,579,580,577,578,579,580,577,578,579,580,577,578,579,580,577,578,579,580,577,578,579,580,577,578,579,580,577,578,579,580,577,578,579,580,577,578,579,580,577,578,579,580,577,578,579,580,577,578,579,580,577,578,579,580,577,578,579,580,577,578,579,580,577,578,579,580,577,578,579,580,577,578,579,580,577,578,579,580,577,578,579,580,577,578,579,580,577,578,579,580,577,578,579,580,577,578,579,580,577,578,579,580,
649,650,651,652,649,650,651,652,649,650,651,652,649,650,651,652,649,650,651,652,649,650,651,652,649,650,651,652,649,650,651,652,649,650,651,652,649,650,651,652,649,650,651,652,649,650,651,652,649,650,651,652,649,650,651,652,649,650,651,652,649,650,651,652,649,650,651,652,649,650,651,652,649,650,651,652,649,650,651,652,649,650,651,652,649,650,651,652,649,650,651,652,649,650,651,652,649,650,651,652,649,650,651,652,649,650,651,652,649,650,651,652,649,650,651,652,649,650,651,652,649,650,651,652,649,650,651,652,
721,722,723,724,721,722,723,724,721,722,723,724,721,722,723,724,721,722,723,724,721,722,723,724,721,722,723,724,721,722,723,724,721,722,723,724,721,722,723,724,721,722,723,724,721,722,723,724,721,722,723,724,721,722,723,724,721,722,723,724,721,722,723,724,721,722,723,724,721,722,723,724,721,722,723,724,721,722,723,724,721,722,723,724,721,722,723,724,721,722,723,724,721,722,723,724,721,722,723,724,721,722,723,724,721,722,723,724,721,722,723,724,721,722,723,724,721,722,723,724,721,722,723,724,721,722,723,724,
793,794,795,796,793,794,795,796,793,794,795,796,793,794,795,796,793,794,795,796,793,794,795,796,793,794,795,796,793,794,795,796,793,794,795,796,793,794,795,796,793,794,795,796,793,794,795,796,793,794,795,796,793,794,795,796,793,794,795,796,793,794,795,796,793,794,795,796,793,794,795,796,793,794,795,796,793,794,795,796,793,794,795,796,793,794,795,796,793,794,795,796,793,794,795,796,793,794,795,796,793,794,795,796,793,794,795,796,793,794,795,796,793,794,795,796,793,794,795,796,793,794,795,796,793,794,795,796,
577,578,579,580,577,578,579,580,577,578,579,580,577,578,579,580,577,578,579,580,577,578,579,580,577,578,579,580,577,578,579,580,577,578,579,580,577,578,579,580,577,578,579,580,577,578,579,580,577,578,579,580,577,578,579,580,577,578,579,580,577,578,579,580,577,578,579,580,577,578,579,580,577,578,579,580,577,578,579,580,577,578,579,580,577,578,579,580,577,578,579,580,577,578,579,580,577,578,579,580,577,578,579,580,577,578,579,580,577,578,579,580,577,578,579,580,577,578,579,580,577,578,579,580,577,578,579,580,
649,650,651,652,649,650,651,652,649,650,651,652,649,650,651,652,649,650,651,652,649,650,651,652,649,650,651,652,649,650,651,652,649,650,651,652,649,650,651,652,649,650,651,652,649,650,651,652,649,650,651,652,649,650,651,652,649,650,651,652,649,650,651,652,649,650,651,652,649,650,651,652,649,650,651,652,649,650,651,652,649,650,651,652,649,650,651,652,649,650,651,652,649,650,651,652,649,650,651,652,649,650,651,652,649,650,651,652,649,650,651,652,649,650,651,652,649,650,651,652,649,650,651,652,649,650,651,652,
721,722,723,724,721,722,723,724,721,722,723,724,721,722,723,724,721,722,723,724,721,722,723,724,721,722,723,724,721,722,723,724,721,722,723,724,721,722,723,724,721,722,723,724,721,722,723,724,721,722,723,724,721,722,723,724,721,722,723,724,721,722,723,724,721,722,723,724,721,722,723,724,721,722,723,724,721,722,723,724,721,722,723,724,721,722,723,724,721,722,723,724,721,722,723,724,721,722,723,724,721,722,723,724,721,722,723,724,721,722,723,724,721,722,723,724,721,722,723,724,721,722,723,724,721,722,723,724,
793,794,795,796,793,794,795,796,793,794,795,796,793,794,795,796,793,794,795,796,793,794,795,796,793,794,795,796,793,794,795,796,793,794,795,796,793,794,795,796,793,794,795,796,793,794,795,796,793,794,795,796,793,794,795,796,793,794,795,796,793,794,795,796,793,794,795,796,793,794,795,796,793,794,795,796,793,794,795,796,793,794,795,796,793,794,795,796,793,794,795,796,793,794,795,796,793,794,795,796,793,794,795,796,793,794,795,796,793,794,795,796,793,794,795,796,793,794,795,796,793,794,795,796,793,794,795,796,
577,578,579,580,577,578,579,580,577,578,579,580,577,578,579,580,577,578,579,580,577,578,579,580,577,578,579,580,577,578,579,580,577,578,579,580,577,578,579,580,577,578,579,580,577,578,579,580,577,578,579,580,577,578,579,580,577,578,579,580,577,578,579,580,577,578,579,580,577,578,579,580,577,578,579,580,577,578,579,580,577,578,579,580,577,578,579,580,577,578,579,580,577,578,579,580,577,578,579,580,577,578,579,580,577,578,579,580,577,578,579,580,577,578,579,580,577,578,579,580,577,578,579,580,577,578,579,580,
649,650,651,652,649,650,651,652,649,650,651,652,649,650,651,652,649,650,651,652,649,650,651,652,649,650,651,652,649,650,651,652,649,650,651,652,649,650,651,652,649,650,651,652,649,650,651,652,649,650,651,652,649,650,651,652,649,650,651,652,649,650,651,652,649,650,651,652,649,650,651,652,649,650,651,652,649,650,651,652,649,650,651,652,649,650,651,652,649,650,651,652,649,650,651,652,649,650,651,652,649,650,651,652,649,650,651,652,649,650,651,652,649,650,651,652,649,650,651,652,649,650,651,652,649,650,651,652,
721,722,723,724,721,722,723,724,721,722,723,724,721,722,723,724,721,722,723,724,721,722,723,724,721,722,723,724,721,722,723,724,721,722,723,724,721,722,723,724,721,722,723,724,721,722,723,724,721,722,723,724,721,722,723,724,721,722,723,724,721,722,723,724,721,722,723,724,721,722,723,724,721,722,723,724,721,722,723,724,721,722,723,724,721,722,723,724,721,722,723,724,721,722,723,724,721,722,723,724,721,722,723,724,721,722,723,724,721,722,723,724,721,722,723,724,721,722,723,724,721,722,723,724,721,722,723,724,
793,794,795,796,793,794,795,796,793,794,795,796,793,794,795,796,793,794,795,796,793,794,795,796,793,794,795,796,793,794,795,796,793,794,795,796,793,794,795,796,793,794,795,796,793,794,795,796,793,794,795,796,793,794,795,796,793,794,795,796,793,794,795,796,793,794,795,796,793,794,795,796,793,794,795,796,793,794,795,796,793,794,795,796,793,794,795,796,793,794,795,796,793,794,795,796,793,794,795,796,793,794,795,796,793,794,795,796,793,794,795,796,793,794,795,796,793,794,795,796,793,794,795,796,793,794,795,796,
577,578,579,580,577,578,579,580,577,578,579,580,577,578,579,580,577,578,579,580,577,578,579,580,577,578,579,580,577,578,579,580,577,578,579,580,577,578,579,580,577,578,579,580,577,578,579,580,577,578,579,580,577,578,579,580,577,578,579,580,577,578,579,580,577,578,579,580,577,578,579,580,577,578,579,580,577,578,579,580,577,578,579,580,577,578,579,580,577,578,579,580,577,578,579,580,577,578,579,580,577,578,579,580,577,578,579,580,577,578,579,580,577,578,579,580,577,578,579,580,577,578,579,580,577,578,579,580,
649,650,651,652,649,650,651,652,649,650,651,652,649,650,651,652,649,650,651,652,649,650,651,652,649,650,651,652,649,650,651,652,649,650,651,652,649,650,651,652,649,650,651,652,649,650,651,652,649,650,651,652,649,650,651,652,649,650,651,652,649,650,651,652,649,650,651,652,649,650,651,652,649,650,651,652,649,650,651,652,649,650,651,652,649,650,651,652,649,650,651,652,649,650,651,652,649,650,651,652,649,650,651,652,649,650,651,652,649,650,651,652,649,650,651,652,649,650,651,652,649,650,651,652,649,650,651,652,
721,722,723,724,721,722,723,724,721,722,723,724,721,722,723,724,721,722,723,724,721,722,723,724,721,722,723,724,721,722,723,724,721,722,723,724,721,722,723,724,721,722,723,724,721,722,723,724,721,722,723,724,721,722,723,724,721,722,723,724,721,722,723,724,721,722,723,724,721,722,723,724,721,722,723,724,721,722,723,724,721,722,723,724,721,722,723,724,721,722,723,724,721,722,723,724,721,722,723,724,721,722,723,724,721,722,723,724,721,722,723,724,721,722,723,724,721,722,723,724,721,722,723,724,721,722,723,724,
793,794,795,796,793,794,795,796,793,794,795,796,793,794,795,796,793,794,795,796,793,794,795,796,793,794,795,796,793,794,795,796,793,794,795,796,793,794,795,796,793,794,795,796,793,794,795,796,793,794,795,796,793,794,795,796,793,794,795,796,793,794,795,796,793,794,795,796,793,794,795,796,793,794,795,796,793,794,795,796,793,794,795,796,793,794,795,796,793,794,795,796,793,794,795,796,793,794,795,796,793,794,795,796,793,794,795,796,793,794,795,796,793,794,795,796,793,794,795,796,793,794,795,796,793,794,795,796,
577,578,579,580,577,578,579,580,577,578,579,580,577,578,579,580,577,578,579,580,577,578,579,580,577,578,579,580,577,578,579,580,577,578,579,580,577,578,579,580,577,578,579,580,577,578,579,580,577,578,579,580,577,578,579,580,577,578,579,580,577,578,579,580,577,578,579,580,577,578,579,580,577,578,579,580,577,578,579,580,577,578,579,580,577,578,579,580,577,578,579,580,577,578,579,580,577,578,579,580,577,578,579,580,577,578,579,580,577,578,579,580,577,578,579,580,577,578,579,580,577,578,579,580,577,578,579,580,
649,650,651,652,649,650,651,652,649,650,651,652,649,650,651,652,649,650,651,652,649,650,651,652,649,650,651,652,649,650,651,652,649,650,651,652,649,650,651,652,649,650,651,652,649,650,651,652,649,650,651,652,649,650,651,652,649,650,651,652,649,650,651,652,649,650,651,652,649,650,651,652,649,650,651,652,649,650,651,652,649,650,651,652,649,650,651,652,649,650,651,652,649,650,651,652,649,650,651,652,649,650,651,652,649,650,651,652,649,650,651,652,649,650,651,652,649,650,651,652,649,650,651,652,649,650,651,652,
721,722,723,724,721,722,723,724,721,722,723,724,721,722,723,724,721,722,723,724,721,722,723,724,721,722,723,724,721,722,723,724,721,722,723,724,721,722,723,724,721,722,723,724,721,722,723,724,721,722,723,724,721,722,723,724,721,722,723,724,721,722,723,724,721,722,723,724,721,722,723,724,721,722,723,724,721,722,723,724,721,722,723,724,721,722,723,724,721,722,723,724,721,722,723,724,721,722,723,724,721,722,723,724,721,722,723,724,721,722,723,724,721,722,723,724,721,722,723,724,721,722,723,724,721,722,723,724,
793,794,795,796,793,794,795,796,793,794,795,796,793,794,795,796,793,794,795,796,793,794,795,796,793,794,795,796,793,794,795,796,793,794,795,796,793,794,795,796,793,794,795,796,793,794,795,796,793,794,795,796,793,794,795,796,793,794,795,796,793,794,795,796,793,794,795,796,793,794,795,796,793,794,795,796,793,794,795,796,793,794,795,796,793,794,795,796,793,794,795,796,793,794,795,796,793,794,795,796,793,794,795,796,793,794,795,796,793,794,795,796,793,794,795,796,793,794,795,796,793,794,795,796,793,794,795,796,
577,578,579,580,577,578,579,580,577,578,579,580,577,578,579,580,577,578,579,580,577,578,579,580,577,578,579,580,577,578,579,580,577,578,579,580,577,578,579,580,577,578,579,580,577,578,579,580,577,578,579,580,577,578,579,580,577,578,579,580,577,578,579,580,577,578,579,580,577,578,579,580,577,578,579,580,577,578,579,580,577,578,579,580,577,578,579,580,577,578,579,580,577,578,579,580,577,578,579,580,577,578,579,580,577,578,579,580,577,578,579,580,577,578,579,580,577,578,579,580,577,578,579,580,577,578,579,580,
649,650,651,652,649,650,651,652,649,650,651,652,649,650,651,652,649,650,651,652,649,650,651,652,649,650,651,652,649,650,651,652,649,650,651,652,649,650,651,652,649,650,651,652,649,650,651,652,649,650,651,652,649,650,651,652,649,650,651,652,649,650,651,652,649,650,651,652,649,650,651,652,649,650,651,652,649,650,651,652,649,650,651,652,649,650,651,652,649,650,651,652,649,650,651,652,649,650,651,652,649,650,651,652,649,650,651,652,649,650,651,652,649,650,651,652,649,650,651,652,649,650,651,652,649,650,651,652,
721,722,723,724,721,722,723,724,721,722,723,724,721,722,723,724,721,722,723,724,721,722,723,724,721,722,723,724,721,722,723,724,721,722,723,724,721,722,723,724,721,722,723,724,721,722,723,724,721,722,723,724,721,722,723,724,721,722,723,724,721,722,723,724,721,722,723,724,721,722,723,724,721,722,723,724,721,722,723,724,721,722,723,724,721,722,723,724,721,722,723,724,721,722,723,724,721,722,723,724,721,722,723,724,721,722,723,724,721,722,723,724,721,722,723,724,721,722,723,724,721,722,723,724,721,722,723,724,
793,794,795,796,793,794,795,796,793,794,795,796,793,794,795,796,793,794,795,796,793,794,795,796,793,794,795,796,793,794,795,796,793,794,795,796,793,794,795,796,793,794,795,796,793,794,795,796,793,794,795,796,793,794,795,796,793,794,795,796,793,794,795,796,793,794,795,796,793,794,795,796,793,794,795,796,793,794,795,796,793,794,795,796,793,794,795,796,793,794,795,796,793,794,795,796,793,794,795,796,793,794,795,796,793,794,795,796,793,794,795,796,793,794,795,796,793,794,795,796,793,794,795,796,793,794,795,796,
577,578,579,580,577,578,579,580,577,578,579,580,577,578,579,580,577,578,579,580,577,578,579,580,577,578,579,580,577,578,579,580,577,578,579,580,577,578,579,580,577,578,579,580,577,578,579,580,577,578,579,580,577,578,579,580,577,578,579,580,577,578,579,580,577,578,579,580,577,578,579,580,577,578,579,580,577,578,579,580,577,578,579,580,577,578,579,580,577,578,579,580,577,578,579,580,577,578,579,580,577,578,579,580,577,578,579,580,577,578,579,580,577,578,579,580,577,578,579,580,577,578,579,580,577,578,579,580,
649,650,651,652,649,650,651,652,649,650,651,652,649,650,651,652,649,650,651,652,649,650,651,652,649,650,651,652,649,650,651,652,649,650,651,652,649,650,651,652,649,650,651,652,649,650,651,652,649,650,651,652,649,650,651,652,649,650,651,652,649,650,651,652,649,650,651,652,649,650,651,652,649,650,651,652,649,650,651,652,649,650,651,652,649,650,651,652,649,650,651,652,649,650,651,652,649,650,651,652,649,650,651,652,649,650,651,652,649,650,651,652,649,650,651,652,649,650,651,652,649,650,651,652,649,650,651,652,
721,722,723,724,721,722,723,724,721,722,723,724,721,722,723,724,721,722,723,724,721,722,723,724,721,722,723,724,721,722,723,724,721,722,723,724,721,722,723,724,721,722,723,724,721,722,723,724,721,722,723,724,721,722,723,724,721,722,723,724,721,722,723,724,721,722,723,724,721,722,723,724,721,722,723,724,721,722,723,724,721,722,723,724,721,722,723,724,721,722,723,724,721,722,723,724,721,722,723,724,721,722,723,724,721,722,723,724,721,722,723,724,721,722,723,724,721,722,723,724,721,722,723,724,721,722,723,724,
793,794,795,796,793,794,795,796,793,794,795,796,793,794,795,796,793,794,795,796,793,794,795,796,793,794,795,796,793,794,795,796,793,794,795,796,793,794,795,796,793,794,795,796,793,794,795,796,793,794,795,796,793,794,795,796,793,794,795,796,793,794,795,796,793,794,795,796,793,794,795,796,793,794,795,796,793,794,795,796,793,794,795,796,793,794,795,796,793,794,795,796,793,794,795,796,793,794,795,796,793,794,795,796,793,794,795,796,793,794,795,796,793,794,795,796,793,794,795,796,793,794,795,796,793,794,795,796,
577,578,579,580,577,578,579,580,577,578,579,580,577,578,579,580,577,578,579,580,577,578,579,580,577,578,579,580,577,578,579,580,577,578,579,580,577,578,579,580,577,578,579,580,577,578,579,580,577,578,579,580,577,578,579,580,577,578,579,580,577,578,579,580,577,578,579,580,577,578,579,580,577,578,579,580,577,578,579,580,577,578,579,580,577,578,579,580,577,578,579,580,577,578,579,580,577,578,579,580,577,578,579,580,577,578,579,580,577,578,579,580,577,578,579,580,577,578,579,580,577,578,579,580,577,578,579,580,
649,650,651,652,649,650,651,652,649,650,651,652,649,650,651,652,649,650,651,652,649,650,651,652,649,650,651,652,649,650,651,652,649,650,651,652,649,650,651,652,649,650,651,652,649,650,651,652,649,650,651,652,649,650,651,652,649,650,651,652,649,650,651,652,649,650,651,652,649,650,651,652,649,650,651,652,649,650,651,652,649,650,651,652,649,650,651,652,649,650,651,652,649,650,651,652,649,650,651,652,649,650,651,652,649,650,651,652,649,650,651,652,649,650,651,652,649,650,651,652,649,650,651,652,649,650,651,652,
721,722,723,724,721,722,723,724,721,722,723,724,721,722,723,724,721,722,723,724,721,722,723,724,721,722,723,724,721,722,723,724,721,722,723,724,721,722,723,724,721,722,723,724,721,722,723,724,721,722,723,724,721,722,723,724,721,722,723,724,721,722,723,724,721,722,723,724,721,722,723,724,721,722,723,724,721,722,723,724,721,722,723,724,721,722,723,724,721,722,723,724,721,722,723,724,721,722,723,724,721,722,723,724,721,722,723,724,721,722,723,724,721,722,723,724,721,722,723,724,721,722,723,724,721,722,723,724,
793,794,795,796,793,794,795,796,793,794,795,796,793,794,795,796,793,794,795,796,793,794,795,796,793,794,795,796,793,794,795,796,793,794,795,796,793,794,795,796,793,794,795,796,793,794,795,796,793,794,795,796,793,794,795,796,793,794,795,796,793,794,795,796,793,794,795,796,793,794,795,796,793,794,795,796,793,794,795,796,793,794,795,796,793,794,795,796,793,794,795,796,793,794,795,796,793,794,795,796,793,794,795,796,793,794,795,796,793,794,795,796,793,794,795,796,793,794,795,796,793,794,795,796,793,794,795,796
</data>
 </layer>
 <layer id="2" name="track" width="128" height="128">
  <data encoding="csv">
0,0,0,0,0,0,0,0,0,0,0,0,0,0,0,0,0,0,0,0,0,0,0,0,0,0,0,0,0,0,0,0,0,0,0,0,0,0,0,0,0,0,0,0,0,0,0,0,0,0,0,0,0,0,0,0,0,0,0,0,0,0,0,0,0,0,0,0,0,0,0,0,0,0,0,0,0,0,0,0,0,0,0,0,0,0,0,0,0,0,0,0,0,0,0,0,0,0,0,0,0,0,0,0,0,0,0,0,0,0,0,0,0,0,0,0,0,0,0,0,0,0,0,0,0,0,0,0,
0,0,0,0,0,0,0,0,0,0,0,0,0,0,0,0,0,0,0,0,0,0,0,0,0,0,0,0,0,0,0,0,0,0,0,0,0,0,0,0,0,0,0,0,0,0,0,0,0,0,0,0,0,0,0,0,0,0,0,0,0,0,0,0,0,0,0,0,0,0,0,0,0,0,0,0,0,0,0,0,0,0,0,0,0,0,0,0,0,0,0,0,0,0,0,0,0,0,0,0,0,0,0,0,0,0,0,0,0,0,0,0,0,0,0,0,0,0,0,0,0,0,0,0,0,0,0,0,
0,0,0,0,0,0,0,0,0,0,0,0,0,0,0,0,0,0,0,0,0,0,0,0,0,0,0,0,0,0,0,0,0,0,0,0,0,0,0,0,0,0,0,0,0,0,0,0,0,0,0,0,0,0,0,0,0,0,0,0,0,0,0,0,0,0,0,0,0,0,0,0,0,0,0,0,0,0,0,0,0,0,0,0,0,0,0,0,0,0,0,0,0,0,0,0,0,0,0,0,0,0,0,0,0,0,0,0,0,0,0,0,0,0,0,0,0,0,0,0,0,0,0,0,0,0,0,0,
0,0,0,0,0,0,0,0,0,0,0,0,0,0,0,0,0,0,0,0,0,0,0,0,0,0,0,0,0,0,0,0,0,0,0,0,0,0,0,0,0,0,0,0,0,0,0,0,0,0,0,0,0,0,0,0,0,0,0,0,0,0,0,0,0,0,0,0,0,0,0,0,0,0,0,0,0,0,0,0,0,0,0,0,0,0,0,0,0,0,0,0,0,0,0,0,0,0,0,0,0,0,0,0,0,0,0,0,0,0,0,0,0,0,0,0,0,0,0,0,0,0,0,0,0,0,0,0,
0,0,0,0,0,0,0,0,0,0,0,0,0,0,0,0,0,0,0,0,0,0,0,0,0,0,0,0,0,0,0,0,0,0,0,0,0,0,0,0,0,0,0,0,0,0,0,0,0,0,0,0,0,0,0,0,0,0,0,0,0,0,0,0,0,0,0,0,0,0,0,0,0,0,0,0,0,0,0,0,0,0,0,0,0,0,0,0,0,0,0,0,0,0,0,0,0,0,0,0,0,0,0,0,0,0,0,0,0,0,0,0,0,0,0,0,0,0,0,0,0,0,0,0,0,0,0,0,
0,0,0,0,0,0,0,0,0,0,0,0,0,0,0,0,0,0,0,0,0,0,0,0,0,0,0,0,0,0,0,0,0,0,0,0,0,0,0,0,0,0,0,0,0,0,0,0,0,0,0,0,0,0,0,0,0,0,0,0,0,0,0,0,0,0,0,0,0,0,0,0,0,0,0,0,0,0,0,0,0,0,0,0,0,0,0,0,0,0,0,0,0,0,0,0,0,0,0,0,0,0,0,0,0,0,0,0,0,0,0,0,0,0,0,0,0,0,0,0,0,0,0,0,0,0,0,0,
0,0,0,0,0,0,0,0,0,0,0,0,0,0,0,0,0,0,0,0,0,0,0,0,0,0,0,0,0,0,0,0,0,0,0,0,0,0,0,0,0,0,0,0,0,0,0,0,0,0,0,0,0,0,0,0,0,0,0,0,0,0,0,0,0,0,0,0,0,0,0,0,0,0,0,0,0,0,0,0,0,0,0,0,0,0,0,0,0,0,0,0,0,0,0,0,0,0,0,0,0,0,0,0,0,0,0,0,0,0,0,0,0,0,0,0,0,0,0,0,0,0,0,0,0,0,0,0,
0,0,0,0,0,0,0,0,0,0,0,0,0,0,0,0,0,0,0,0,0,0,0,0,0,0,0,0,0,0,0,0,0,0,0,0,0,0,0,0,0,0,0,0,0,0,0,0,0,0,0,0,0,0,0,0,0,0,0,0,0,0,0,0,0,0,0,0,0,0,0,0,0,0,0,0,0,0,0,0,0,0,0,0,0,0,0,0,0,0,0,0,0,0,0,0,0,0,0,0,0,0,0,0,0,0,0,0,0,0,0,0,0,0,0,0,0,0,0,0,0,0,0,0,0,0,0,0,
0,0,0,0,0,0,0,0,0,0,0,0,0,0,0,0,0,0,0,0,0,0,0,0,0,0,0,0,0,0,0,0,0,0,0,0,0,0,0,0,0,0,0,0,0,0,0,0,0,0,0,0,0,0,0,0,0,0,0,0,0,0,0,0,0,0,0,0,0,0,0,0,0,0,0,0,0,0,0,0,0,0,0,0,0,0,0,0,0,0,0,0,0,0,0,0,0,0,0,0,0,0,0,0,0,0,0,0,0,0,0,0,0,0,0,0,0,0,0,0,0,0,0,0,0,0,0,0,
0,0,0,0,0,0,0,0,0,0,0,0,0,0,0,0,0,0,0,0,0,0,0,0,0,0,0,0,0,0,0,0,0,0,0,0,0,0,0,0,0,0,0,0,0,0,0,0,0,0,0,0,0,0,0,0,0,0,0,0,0,0,0,0,0,0,0,0,0,0,0,0,0,0,0,0,0,0,0,0,0,0,0,0,0,0,0,0,0,0,0,0,0,0,0,0,0,0,0,0,0,0,0,0,0,0,0,0,0,0,0,0,0,0,0,0,0,0,0,0,0,0,0,0,0,0,0,0,
0,0,0,0,0,0,0,0,0,0,0,0,0,0,0,0,0,0,0,0,0,0,0,0,0,0,0,0,0,0,0,0,0,0,0,0,0,0,0,0,0,0,0,0,0,0,0,0,0,0,0,0,0,0,0,0,0,0,0,0,0,0,0,0,0,0,0,0,0,0,0,0,0,0,0,0,0,0,0,0,0,0,0,0,0,0,0,0,0,0,0,0,0,0,0,0,0,0,0,0,0,0,0,0,0,0,0,0,0,0,0,0,0,0,0,0,0,0,0,0,0,0,0,0,0,0,0,0,
0,0,0,0,0,0,0,0,0,0,0,0,0,0,0,0,0,0,0,0,0,0,0,0,0,0,0,0,0,0,0,0,0,0,0,0,0,0,0,0,0,0,0,0,0,0,0,0,0,0,0,0,0,0,0,0,0,0,0,0,0,0,0,0,0,0,0,0,0,0,0,0,0,0,0,0,0,0,0,0,0,0,0,0,0,0,0,0,0,0,0,0,0,0,0,0,0,0,0,0,0,0,0,0,0,0,0,0,0,0,0,0,0,0,0,0,0,0,0,0,0,0,0,0,0,0,0,0,
0,0,0,0,0,0,0,0,0,0,0,0,0,0,0,0,0,0,0,0,0,0,0,0,0,0,0,0,0,0,0,0,0,0,0,0,0,0,0,0,0,0,0,0,0,0,0,0,0,0,0,0,0,0,0,0,0,0,0,0,0,0,0,0,0,0,0,0,0,0,0,0,0,0,0,0,0,0,0,0,0,0,0,0,0,0,0,0,0,0,0,0,0,0,0,0,0,0,0,0,0,0,0,0,0,0,0,0,0,0,0,0,0,0,0,0,0,0,0,0,0,0,0,0,0,0,0,0,
0,0,0,0,0,0,0,0,0,0,0,0,0,0,0,0,0,0,0,0,0,0,0,0,0,0,0,0,0,0,0,0,0,0,0,0,0,0,0,0,0,0,0,0,0,0,0,0,0,0,0,0,0,0,0,0,0,0,0,0,0,0,0,0,0,0,0,0,0,0,0,0,0,0,0,0,0,0,0,0,0,0,0,0,0,0,0,0,0,0,0,0,0,0,0,0,0,0,0,0,0,0,0,0,0,0,0,0,0,0,0,0,0,0,0,0,0,0,0,0,0,0,0,0,0,0,0,0,
0,0,0,0,0,0,0,0,0,0,0,0,0,0,2829,2902,2901,2902,2901,2902,2901,2902,2901,2902,2901,2902,2901,2902,2901,2902,2901,2902,2901,2902,2901,2902,2901,2902,2901,2902,2901,2902,2901,2902,2901,2902,2901,2902,2901,2902,2901,2902,2901,2902,2901,2902,2901,2902,2901,2902,2901,2902,2901,2902,2901,2902,2901,2902,2901,2902,2901,2902,2901,2902,2901,2902,2901,2902,2901,2902,2901,2902,2901,2902,2901,2902,2901,2902,2901,2902,2901,2902,2901,2902,2901,2902,2901,2902,2901,2902,2901,2902,2901,2902,2901,2902,2901,2902,2901,2902,2901,2902,2901,2147486477,0,0,0,0,0,0,0,0,0,0,0,0,0,0,
0,0,0,0,0,0,0,0,0,0,0,0,0,0,536873814,3035,3035,3035,3035,3035,3035,3035,3035,3035,3035,3035,3035,3035,3035,3035,3035,3035,3035,3035,3035,3035,3035,3035,3035,3035,3035,3035,3035,3035,3035,3035,3035,3035,3035,3035,3035,3035,3035,3035,3035,3035,3035,3035,3035,3035,3035,3035,3035,3035,3035,3035,3035,3035,3035,3035,3035,3035,3035,3035,3035,3035,3035,3035,3035,3035,3035,3035,3035,3035,3035,3035,3035,3035,3035,3035,3035,3035,3035,3035,3035,3035,3035,3035,3035,3035,3035,3035,3035,3035,3035,3035,3035,3035,3035,3035,3035,3035,3035,2684357461,0,0,0,0,0,0,0,0,0,0,0,0,0,0,
0,0,0,0,0,0,0,0,0,0,0,0,0,0,536873813,3035,3035,3035,3035,3035,3035,3035,3035,3035,3035,3035,3035,3035,3035,3035,3035,3035,3035,3035,3035,3035,3035,3035,3035,3035,3035,3035,3035,3035,3035,3035,3035,3035,3035,3035,3035,3035,3035,3035,3035,3035,3035,3035,3035,3035,3035,3035,3035,3035,3035,3035,3035,3035,3035,3035,3035,3035,3035,3035,3035,3035,3035,3035,3035,3035,3035,3035,3035,3035,3035,3035,3035,3035,3035,3035,3035,3035,3035,3035,3035,3035,3035,3035,3035,3035,3035,3035,3035,3035,3035,3035,3035,3035,3035,3035,3035,3035,3035,2684357462,0,0,0,0,0,0,0,0,0,0,0,0,0,0,
0,0,0,0,0,0,0,0,0,0,0,0,0,0,536873814,3035,3035,3035,3035,3035,3035,3035,3035,3035,3035,3035,3035,3035,3035,3035,3035,3035,3035,3035,3035,3035,3035,3035,3035,3035,3035,3035,3035,3035,3035,3035,3035,3035,3035,3035,3035,3035,3035,3035,3035,3035,3035,3035,3035,3035,3035,3035,3035,3035,3035,3035,3035,3035,3035,3035,3035,3035,3035,3035,3035,3035,3035,3035,3035,3035,3035,3035,3035,3035,3035,3035,3035,3035,3035,3035,3035,3035,3035,3035,3035,3035,3035,3035,3035,3035,3035,3035,3035,3035,3035,3035,3035,3035,3035,3035,3035,3035,3035,2684357461,0,0,0,0,0,0,0,0,0,0,0,0,0,0,
0,0,0,0,0,0,0,0,0,0,0,0,0,0,536873813,3035,3035,3035,3035,3035,3035,3035,3035,3035,3035,3035,3035,3035,3035,3035,3035,3035,3035,3035,3035,3035,3035,3035,3035,3035,3035,3035,3035,3035,3035,3035,3035,3035,3035,3035,3035,3035,3035,3035,3035,3035,3035,3035,3035,3035,3035,3035,3035,3035,3035,3035,3035,3035,3035,3035,3035,3035,3035,3035,3035,3035,3035,3035,3035,3035,3035,3035,3035,3035,3035,3035,3035,3035,3035,3035,3035,3035,3035,3035,3035,3035,3035,3035,3035,3035,3035,3035,3035,3035,3035,3035,3035,3035,3035,3035,3035,3035,3035,2684357462,0,0,0,0,0,0,0,0,0,0,0,0,0,0,
0,0,0,0,0,0,0,0,0,0,0,0,0,0,536873814,3035,3035,3035,3035,3035,3035,3035,3035,3035,3035,3035,3035,3035,3035,3035,3035,3035,3035,3035,3035,3035,3035,3035,3035,3035,3035,3035,3035,3035,3035,3035,3035,3035,3035,3035,3035,3035,3035,3035,3035,3035,3035,3035,3035,3035,3035,3035,3035,3035,3035,3035,3035,3035,3035,3035,3035,3035,3035,3035,3035,3035,3035,3035,3035,3035,3035,3035,3035,3035,3035,3035,3035,3035,3035,3035,3035,3035,3035,3035,3035,3035,3035,3035,3035,3035,3035,3035,3035,3035,3035,3035,3035,3035,3035,3035,3035,3035,3035,2684357461,0,0,0,0,0,0,0,0,0,0,0,0,0,0,
0,0,0,0,0,0,0,0,0,0,0,0,0,0,536873813,3035,3035,3035,3035,3035,3035,3035,3035,3035,3035,3035,3035,3035,3035,3035,3035,3035,3035,3035,3035,3035,3035,3035,3035,3035,3035,3035,3035,3035,3035,3035,3035,3035,3035,3035,3035,3035,3035,3035,3035,3035,3035,3035,3035,3035,3035,3035,3035,3035,3035,3035,3035,3035,3035,3035,3035,3035,3035,3035,3035,3035,3035,3035,3035,3035,3035,3035,3035,3035,3035,3035,3035,3035,3035,3035,3035,3035,3035,3035,3035,3035,3035,3035,3035,3035,3035,3035,3035,3035,3035,3035,3035,3035,3035,3035,3035,3035,3035,2684357462,0,0,0,0,0,0,0,0,0,0,0,0,0,0,
0,0,0,0,0,0,0,0,0,0,0,0,0,0,536873814,3035,3035,3035,3035,3035,3035,3221228301,1073744726,1073744725,1073744726,1073744725,1073744726,1073744725,1073744726,1073744725,1073744726,1073744725,1073744726,1073744725,1073744726,1073744725,1073744726,1073744725,1073744726,1073744725,1073744726,1073744725,1073744726,1073744725,1073744726,1073744725,1073744726,1073744725,1073744726,1073744725,1073744726,1073744725,1073744726,1073744725,1073744726,1073744725,1073744726,1073744725,1073744726,1073744725,1073744726,1073744725,1073744726,1073744725,1073744726,1073744725,1073744726,1073744725,1073744726,1073744725,1073744726,1073744725,1073744726,1073744725,1073744726,1073744725,1073744726,1073744725,1073744726,1073744725,1073744726,1073744725,1073744726,1073744725,1073744726,1073744725,1073744726,1073744725,1073744726,1073744725,1073744726,1073744725,1073744726,1073744725,1073744726,1073744725,1073744726,1073744725,1073744726,1073744725,1073744726,1073744725,1073744726,1073744725,1073744726,1073744725,1073744653,3035,3035,3035,3035,3035,3035,2684357461,0,0,0,0,0,0,0,0,0,0,0,0,0,0,
0,0,0,0,0,0,0,0,0,0,0,0,0,0,536873813,3035,3035,3035,3035,3035,3035,2684357462,0,0,0,0,0,0,0,0,0,0,0,0,0,0,0,0,0,0,0,0,0,0,0,0,0,0,0,0,0,0,0,0,0,0,0,0,0,0,0,0,0,0,0,0,0,0,0,0,0,0,0,0,0,0,0,0,0,0,0,0,0,0,0,0,0,0,0,0,0,0,0,0,0,0,0,0,0,0,0,0,0,0,0,0,536873813,3035,3035,3035,3035,3035,3035,2684357462,0,0,0,0,0,0,0,0,0,0,0,0,0,0,
0,0,0,0,0,0,0,0,0,0,0,0,0,0,536873814,3035,3035,3035,3035,3035,3035,2684357461,0,0,0,0,0,0,0,0,0,0,0,0,0,0,0,0,0,0,0,0,0,0,0,0,0,0,0,0,0,0,0,0,0,0,0,0,0,0,0,0,0,0,0,0,0,0,0,0,0,0,0,0,0,0,0,0,0,0,0,0,0,0,0,0,0,0,0,0,0,0,0,0,0,0,0,0,0,0,0,0,0,0,0,0,536873814,3035,3035,3035,3035,3035,3035,2684357461,0,0,0,0,0,0,0,0,0,0,0,0,0,0,
0,0,0,0,0,0,0,0,0,0,0,0,0,0,536873813,3035,3035,3035,3035,3035,3035,2684357462,0,0,0,0,0,0,0,0,0,0,0,0,0,0,0,0,0,0,0,0,0,0,0,0,0,0,0,0,0,0,0,0,0,0,0,0,0,0,0,0,0,0,0,0,0,0,0,0,0,0,0,0,0,0,0,0,0,0,0,0,0,0,0,0,0,0,0,0,0,0,0,0,0,0,0,0,0,0,0,0,0,0,0,0,536873813,3035,3035,3035,3035,3035,3035,2684357462,0,0,0,0,0,0,0,0,0,0,0,0,0,0,
0,0,0,0,0,0,0,0,0,0,0,0,0,0,536873814,3035,3035,3035,3035,3035,3035,2684357461,0,0,0,0,0,0,0,0,0,0,0,0,0,0,0,0,0,0,0,0,0,0,0,0,0,0,0,0,0,0,0,0,0,0,0,0,0,0,0,0,0,0,0,0,0,0,0,0,0,0,0,0,0,0,0,0,0,0,0,0,0,0,0,0,0,0,0,0,0,0,0,0,0,0,0,0,0,0,0,0,0,0,0,0,536873814,3035,3035,3035,3035,3035,3035,2684357461,0,0,0,0,0,0,0,0,0,0,0,0,0,0,
0,0,0,0,0,0,0,0,0,0,0,0,0,0,536873813,3035,3035,3035,3035,3035,3035,2684357462,0,0,0,0,0,0,0,0,0,0,0,0,0,0,0,0,0,0,0,0,0,0,0,0,0,0,0,0,0,0,0,0,0,0,0,0,0,0,0,0,0,0,0,0,0,0,0,0,0,0,0,0,0,0,0,0,0,0,0,0,0,0,0,0,0,0,0,0,0,0,0,0,0,0,0,0,0,0,0,0,0,0,0,0,536873813,3035,3035,3035,3035,3035,3035,2684357462,0,0,0,0,0,0,0,0,0,0,0,0,0,0,
0,0,0,0,0,0,0,0,0,0,0,0,0,0,536873814,3035,3035,3035,3035,3035,3035,2684357461,0,0,0,0,0,0,0,0,0,0,0,0,0,0,0,0,0,0,0,0,0,0,0,0,0,0,0,0,0,0,0,0,0,0,0,0,0,0,0,0,0,0,0,0,0,0,0,0,0,0,0,0,0,0,0,0,0,0,0,0,0,0,0,0,0,0,0,0,0,0,0,0,0,0,0,0,0,0,0,0,0,0,0,0,536873814,3035,3035,3035,3035,3035,3035,2684357461,0,0,0,0,0,0,0,0,0,0,0,0,0,0,
0,0,0,0,0,0,0,0,0,0,0,0,0,0,536873813,3035,3035,3035,3035,3035,3035,2684357462,0,0,0,0,0,0,0,0,0,0,0,0,0,0,0,0,0,0,0,0,0,0,0,0,0,0,0,0,0,0,0,0,0,0,0,0,0,0,0,0,0,0,0,0,0,0,0,0,0,0,0,0,0,0,0,0,0,0,0,0,0,0,0,0,0,0,0,0,0,0,0,0,0,0,0,0,0,0,0,0,0,0,0,0,536873813,3035,3035,3035,3035,3035,3035,2684357462,0,0,0,0,0,0,0,0,0,0,0,0,0,0,
0,0,0,0,0,0,0,0,0,0,0,0,0,0,536873814,3035,3035,3035,3035,3035,3035,2684357461,0,0,0,0,0,0,0,0,0,0,0,0,0,0,0,0,0,0,0,0,0,0,0,0,0,0,0,0,0,0,0,0,0,0,0,0,0,0,0,0,0,0,0,0,0,0,0,0,0,0,0,0,0,0,0,0,0,0,0,0,0,0,0,0,0,0,0,0,0,0,0,0,0,0,0,0,0,0,0,0,0,0,0,0,536873814,3035,3035,3035,3035,3035,3035,2684357461,0,0,0,0,0,0,0,0,0,0,0,0,0,0,
0,0,0,0,0,0,0,0,0,0,0,0,0,0,536873813,3035,3035,3035,3035,3035,3035,2684357462,0,0,0,0,0,0,0,0,0,0,0,0,0,0,0,0,0,0,0,0,0,0,0,0,0,0,0,0,0,0,0,0,0,0,0,0,0,0,0,0,0,0,0,0,0,0,0,0,0,0,0,0,0,0,0,0,0,0,0,0,0,0,0,0,0,0,0,0,0,0,0,0,0,0,0,0,0,0,0,0,0,0,0,0,536873813,3035,3035,3035,3035,3035,3035,2684357462,0,0,0,0,0,0,0,0,0,0,0,0,0,0,
0,0,0,0,0,0,0,0,0,0,0,0,0,0,536873814,3035,3035,3035,3035,3035,3035,2684357461,0,0,0,0,0,0,0,0,0,0,0,0,0,0,0,0,0,0,0,0,0,0,0,0,0,0,0,0,0,0,0,0,0,0,0,0,0,0,0,0,0,0,0,0,0,0,0,0,0,0,0,0,0,0,0,0,0,0,0,0,0,0,0,0,0,0,0,0,0,0,0,0,0,0,0,0,0,0,0,0,0,0,0,0,536873814,3035,3035,3035,3035,3035,3035,2684357461,0,0,0,0,0,0,0,0,0,0,0,0,0,0,
0,0,0,0,0,0,0,0,0,0,0,0,0,0,536873813,3035,3035,3035,3035,3035,3035,2684357462,0,0,0,0,0,0,0,0,0,0,0,0,0,0,0,0,0,0,0,0,0,0,0,0,0,0,0,0,0,0,0,0,0,0,0,0,0,0,0,0,0,0,0,0,0,0,0,0,0,0,0,0,0,0,0,0,0,0,0,0,0,0,0,0,0,0,0,0,0,0,0,0,0,0,0,0,0,0,0,0,0,0,0,0,536873813,3035,3035,3035,3035,3035,3035,2684357462,0,0,0,0,0,0,0,0,0,0,0,0,0,0,
0,0,0,0,0,0,0,0,0,0,0,0,0,0,536873814,3035,3035,3035,3035,3035,3035,2684357461,0,0,0,0,0,0,0,0,0,0,0,0,0,0,0,0,0,0,0,0,0,0,0,0,0,0,0,0,0,0,0,0,0,0,0,0,0,0,0,0,0,0,0,0,0,0,0,0,0,0,0,0,0,0,0,0,0,0,0,0,0,0,0,0,0,0,0,0,0,0,0,0,0,0,0,0,0,0,0,0,0,0,0,0,536873814,3035,3035,3035,3035,3035,3035,2684357461,0,0,0,0,0,0,0,0,0,0,0,0,0,0,
0,0,0,0,0,0,0,0,0,0,0,0,0,0,536873813,3035,3035,3035,3035,3035,3035,2684357462,0,0,0,0,0,0,0,0,0,0,0,0,0,0,0,0,0,0,0,0,0,0,0,0,0,0,0,0,0,0,0,0,0,0,0,0,0,0,0,0,0,0,0,0,0,0,0,0,0,0,0,0,0,0,0,0,0,0,0,0,0,0,0,0,0,0,0,0,0,0,0,0,0,0,0,0,0,0,0,0,0,0,0,0,536873813,3035,3035,3035,3035,3035,3035,2684357462,0,0,0,0,0,0,0,0,0,0,0,0,0,0,
0,0,0,0,0,0,0,0,0,0,0,0,0,0,536873814,3035,3035,3035,3035,3035,3035,2684357461,0,0,0,0,0,0,0,0,0,0,0,0,0,0,0,0,0,0,0,0,0,0,0,0,0,0,0,0,0,0,0,0,0,0,0,0,0,0,0,0,0,0,0,0,0,0,0,0,0,0,0,0,0,0,0,0,0,0,0,0,0,0,0,0,0,0,0,0,0,0,0,0,0,0,0,0,0,0,0,0,0,0,0,0,536873814,3035,3035,3035,3035,3035,3035,2684357461,0,0,0,0,0,0,0,0,0,0,0,0,0,0,
0,0,0,0,0,0,0,0,0,0,0,0,0,0,536873813,3035,3035,3035,3035,3035,3035,2684357462,0,0,0,0,0,0,0,0,0,0,0,0,0,0,0,0,0,0,0,0,0,0,0,0,0,0,0,0,0,0,0,0,0,0,0,0,0,0,0,0,0,0,0,0,0,0,0,0,0,0,0,0,0,0,0,0,0,0,0,0,0,0,0,0,0,0,0,0,0,0,0,0,0,0,0,0,0,0,0,0,0,0,0,0,536873813,3035,3035,3035,3035,3035,3035,2684357462,0,0,0,0,0,0,0,0,0,0,0,0,0,0,
0,0,0,0,0,0,0,0,0,0,0,0,0,0,536873814,3035,3035,3035,3035,3035,3035,2684357461,0,0,0,0,0,0,0,0,0,0,0,0,0,0,0,0,0,0,0,0,0,0,0,0,0,0,0,0,0,0,0,0,0,0,0,0,0,0,0,0,0,0,0,0,0,0,0,0,0,0,0,0,0,0,0,0,0,0,0,0,0,0,0,0,0,0,0,0,0,0,0,0,0,0,0,0,0,0,0,0,0,0,0,0,536873814,3035,3035,3035,3035,3035,3035,2684357461,0,0,0,0,0,0,0,0,0,0,0,0,0,0,
0,0,0,0,0,0,0,0,0,0,0,0,0,0,536873813,3035,3035,3035,3035,3035,3035,2684357462,0,0,0,0,0,0,0,0,0,0,0,0,0,0,0,0,0,0,0,0,0,0,0,0,0,0,0,0,0,0,0,0,0,0,0,0,0,0,0,0,0,0,0,0,0,0,0,0,0,0,0,0,0,0,0,0,0,0,0,0,0,0,0,0,0,0,0,0,0,0,0,0,0,0,0,0,0,0,0,0,0,0,0,0,536873813,3035,3035,3035,3035,3035,3035,2684357462,0,0,0,0,0,0,0,0,0,0,0,0,0,0,
0,0,0,0,0,0,0,0,0,0,0,0,0,0,536873814,3035,3035,3035,3035,3035,3035,2684357461,0,0,0,0,0,0,0,0,0,0,0,0,0,0,0,0,0,0,0,0,0,0,0,0,0,0,0,0,0,0,0,0,0,0,0,0,0,0,0,0,0,0,0,0,0,0,0,0,0,0,0,0,0,0,0,0,0,0,0,0,0,0,0,0,0,0,0,0,0,0,0,0,0,0,0,0,0,0,0,0,0,0,0,0,536873814,3035,3035,3035,3035,3035,3035,2684357461,0,0,0,0,0,0,0,0,0,0,0,0,0,0,
0,0,0,0,0,0,0,0,0,0,0,0,0,0,536873813,3035,3035,3035,3035,3035,3035,2684357462,0,0,0,0,0,0,0,0,0,0,0,0,0,0,0,0,0,0,0,0,0,0,0,0,0,0,0,0,0,0,0,0,0,0,0,0,0,0,0,0,0,0,0,0,0,0,0,0,0,0,0,0,0,0,0,0,0,0,0,0,0,0,0,0,0,0,0,0,0,0,0,0,0,0,0,0,0,0,0,0,0,0,0,0,536873813,3035,3035,3035,3035,3035,3035,2684357462,0,0,0,0,0,0,0,0,0,0,0,0,0,0,
0,0,0,0,0,0,0,0,0,0,0,0,0,0,536873814,3035,3035,3035,3035,3035,3035,2684357461,0,0,0,0,0,0,0,0,0,0,0,0,0,0,0,0,0,0,0,0,0,0,0,0,0,0,0,0,0,0,0,0,0,0,0,0,0,0,0,0,0,0,0,0,0,0,0,0,0,0,0,0,0,0,0,0,0,0,0,0,0,0,0,0,0,0,0,0,0,0,0,0,0,0,0,0,0,0,0,0,0,0,0,0,536873814,3035,3035,3035,3035,3035,3035,2684357461,0,0,0,0,0,0,0,0,0,0,0,0,0,0,
0,0,0,0,0,0,0,0,0,0,0,0,0,0,536873813,3035,3035,3035,3035,3035,3035,2684357462,0,0,0,0,0,0,0,0,0,0,0,0,0,0,0,0,0,0,0,0,0,0,0,0,0,0,0,0,0,0,0,0,0,0,0,0,0,0,0,0,0,0,0,0,0,0,0,0,0,0,0,0,0,0,0,0,0,0,0,0,0,0,0,0,0,0,0,0,0,0,0,0,0,0,0,0,0,0,0,0,0,0,0,0,536873813,3035,3035,3035,3035,3035,3035,2684357462,0,0,0,0,0,0,0,0,0,0,0,0,0,0,
0,0,0,0,0,0,0,0,0,0,0,0,0,0,536873814,3035,3035,3035,3035,3035,3035,2684357461,0,0,0,0,0,0,0,0,0,0,0,0,0,0,0,0,0,0,0,0,0,0,0,0,0,0,0,0,0,0,0,0,0,0,0,0,0,0,0,0,0,0,0,0,0,0,0,0,0,0,0,0,0,0,0,0,0,0,0,0,0,0,0,0,0,0,0,0,0,0,0,0,0,0,0,0,0,0,0,0,0,0,0,0,536873814,3035,3035,3035,3035,3035,3035,2684357461,0,0,0,0,0,0,0,0,0,0,0,0,0,0,
0,0,0,0,0,0,0,0,0,0,0,0,0,0,536873813,3035,3035,3035,3035,3035,3035,2684357462,0,0,0,0,0,0,0,0,0,0,0,0,0,0,0,0,0,0,0,0,0,0,0,0,0,0,0,0,0,0,0,0,0,0,0,0,0,0,0,0,0,0,0,0,0,0,0,0,0,0,0,0,0,0,0,0,0,0,0,0,0,0,0,0,0,0,0,0,0,0,0,0,0,0,0,0,0,0,0,0,0,0,0,0,536873813,3035,3035,3035,3035,3035,3035,2684357462,0,0,0,0,0,0,0,0,0,0,0,0,0,0,
0,0,0,0,0,0,0,0,0,0,0,0,0,0,536873814,3035,3035,3035,3035,3035,3035,2684357461,0,0,0,0,0,0,0,0,0,0,0,0,0,0,0,0,0,0,0,0,0,0,0,0,0,0,0,0,0,0,0,0,0,0,0,0,0,0,0,0,0,0,0,0,0,0,0,0,0,0,0,0,0,0,0,0,0,0,0,0,0,0,0,0,0,0,0,0,0,0,0,0,0,0,0,0,0,0,0,0,0,0,0,0,536873814,3035,3035,3035,3035,3035,3035,2684357461,0,0,0,0,0,0,0,0,0,0,0,0,0,0,
0,0,0,0,0,0,0,0,0,0,0,0,0,0,536873813,3035,3035,3035,3035,3035,3035,2684357462,0,0,0,0,0,0,0,0,0,0,0,0,0,0,0,0,0,0,0,0,0,0,0,0,0,0,0,0,0,0,0,0,0,0,0,0,0,0,0,0,0,0,0,0,0,0,0,0,0,0,0,0,0,0,0,0,0,0,0,0,0,0,0,0,0,0,0,0,0,0,0,0,0,0,0,0,0,0,0,0,0,0,0,0,536873813,3035,3035,3035,3035,3035,3035,2684357462,0,0,0,0,0,0,0,0,0,0,0,0,0,0,
0,0,0,0,0,0,0,0,0,0,0,0,0,0,536873814,3035,3035,3035,3035,3035,3035,2684357461,0,0,0,0,0,0,0,0,0,0,0,0,0,0,0,0,0,0,0,0,0,0,0,0,0,0,0,0,0,0,0,0,0,0,0,0,0,0,0,0,0,0,0,0,0,0,0,0,0,0,0,0,0,0,0,0,0,0,0,0,0,0,0,0,0,0,0,0,0,0,0,0,0,0,0,0,0,0,0,0,0,0,0,0,536873814,3035,3035,3035,3035,3035,3035,2684357461,0,0,0,0,0,0,0,0,0,0,0,0,0,0,
0,0,0,0,0,0,0,0,0,0,0,0,0,0,536873813,3035,3035,3035,3035,3035,3035,2684357462,0,0,0,0,0,0,0,0,0,0,0,0,0,0,0,0,0,0,0,0,0,0,0,0,0,0,0,0,0,0,0,0,0,0,0,0,0,0,0,0,0,0,0,0,0,0,0,0,0,0,0,0,0,0,0,0,0,0,0,0,0,0,0,0,0,0,0,0,0,0,0,0,0,0,0,0,0,0,0,0,0,0,0,0,536873813,3035,3035,3035,3035,3035,3035,2684357462,0,0,0,0,0,0,0,0,0,0,0,0,0,0,
0,0,0,0,0,0,0,0,0,0,0,0,0,0,536873814,3035,3035,3035,3035,3035,3035,2684357461,0,0,0,0,0,0,0,0,0,0,0,0,0,0,0,0,0,0,0,0,0,0,0,0,0,0,0,0,0,0,0,0,0,0,0,0,0,0,0,0,0,0,0,0,0,0,0,0,0,0,0,0,0,0,0,0,0,0,0,0,0,0,0,0,0,0,0,0,0,0,0,0,0,0,0,0,0,0,0,0,0,0,0,0,536873814,3035,3035,3035,3035,3035,3035,2684357461,0,0,0,0,0,0,0,0,0,0,0,0,0,0,
0,0,0,0,0,0,0,0,0,0,0,0,0,0,536873813,3035,3035,3035,3035,3035,3035,2684357462,0,0,0,0,0,0,0,0,0,0,0,0,0,0,0,0,0,0,0,0,0,0,0,0,0,0,0,0,0,0,0,0,0,0,0,0,0,0,0,0,0,0,0,0,0,0,0,0,0,0,0,0,0,0,0,0,0,0,0,0,0,0,0,0,0,0,0,0,0,0,0,0,0,0,0,0,0,0,0,0,0,0,0,0,536873813,3035,3035,3035,3035,3035,3035,2684357462,0,0,0,0,0,0,0,0,0,0,0,0,0,0,
0,0,0,0,0,0,0,0,0,0,0,0,0,0,536873814,3035,3035,3035,3035,3035,3035,2684357461,0,0,0,0,0,0,0,0,0,0,0,0,0,0,0,0,0,0,0,0,0,0,0,0,0,0,0,0,0,0,0,0,0,0,0,0,0,0,0,0,0,0,0,0,0,0,0,0,0,0,0,0,0,0,0,0,0,0,0,0,0,0,0,0,0,0,0,0,0,0,0,0,0,0,0,0,0,0,0,0,0,0,0,0,536873814,3035,3035,3035,3035,3035,3035,2684357461,0,0,0,0,0,0,0,0,0,0,0,0,0,0,
0,0,0,0,0,0,0,0,0,0,0,0,0,0,536873813,3035,3035,3035,3035,3035,3035,2684357462,0,0,0,0,0,0,0,0,0,0,0,0,0,0,0,0,0,0,0,0,0,0,0,0,0,0,0,0,0,0,0,0,0,0,0,0,0,0,0,0,0,0,0,0,0,0,0,0,0,0,0,0,0,0,0,0,0,0,0,0,0,0,0,0,0,0,0,0,0,0,0,0,0,0,0,0,0,0,0,0,0,0,0,0,536873813,3035,3035,3035,3035,3035,3035,2684357462,0,0,0,0,0,0,0,0,0,0,0,0,0,0,
0,0,0,0,0,0,0,0,0,0,0,0,0,0,536873814,3035,3035,3035,3035,3035,3035,2684357461,0,0,0,0,0,0,0,0,0,0,0,0,0,0,0,0,0,0,0,0,0,0,0,0,0,0,0,0,0,0,0,0,0,0,0,0,0,0,0,0,0,0,0,0,0,0,0,0,0,0,0,0,0,0,0,0,0,0,0,0,0,0,0,0,0,0,0,0,0,0,0,0,0,0,0,0,0,0,0,0,0,0,0,0,536873814,3035,3035,3035,3035,3035,3035,2684357461,0,0,0,0,0,0,0,0,0,0,0,0,0,0,
0,0,0,0,0,0,0,0,0,0,0,0,0,0,536873813,3035,3035,3035,3035,3035,3035,2684357462,0,0,0,0,0,0,0,0,0,0,0,0,0,0,0,0,0,0,0,0,0,0,0,0,0,0,0,0,0,0,0,0,0,0,0,0,0,0,0,0,0,0,0,0,0,0,0,0,0,0,0,0,0,0,0,0,0,0,0,0,0,0,0,0,0,0,0,0,0,0,0,0,0,0,0,0,0,0,0,0,0,0,0,0,536873813,3035,3035,3035,3035,3035,3035,2684357462,0,0,0,0,0,0,0,0,0,0,0,0,0,0,
0,0,0,0,0,0,0,0,0,0,0,0,0,0,536873814,3035,3035,3035,3035,3035,3035,2684357461,0,0,0,0,0,0,0,0,0,0,0,0,0,0,0,0,0,0,0,0,0,0,0,0,0,0,0,0,0,0,0,0,0,0,0,0,0,0,0,0,0,0,0,0,0,0,0,0,0,0,0,0,0,0,0,0,0,0,0,0,0,0,0,0,0,0,0,0,0,0,0,0,0,0,0,0,0,0,0,0,0,0,0,0,536873814,3035,3035,3035,3035,3035,3035,2684357461,0,0,0,0,0,0,0,0,0,0,0,0,0,0,
0,0,0,0,0,0,0,0,0,0,0,0,0,0,536873813,3035,3035,3035,3035,3035,3035,2684357462,0,0,0,0,0,0,0,0,0,0,0,0,0,0,0,0,0,0,0,0,0,0,0,0,0,0,0,0,0,0,0,0,0,0,0,0,0,0,0,0,0,0,0,0,0,0,0,0,0,0,0,0,0,0,0,0,0,0,0,0,0,0,0,0,0,0,0,0,0,0,0,0,0,0,0,0,0,0,0,0,0,0,0,0,536873813,3035,3035,3035,3035,3035,3035,2684357462,0,0,0,0,0,0,0,0,0,0,0,0,0,0,
0,0,0,0,0,0,0,0,0,0,0,0,0,0,536873814,3035,3035,3035,3035,3035,3035,2684357461,0,0,0,0,0,0,0,0,0,0,0,0,0,0,0,0,0,0,0,0,0,0,0,0,0,0,0,0,0,0,0,0,0,0,0,0,0,0,0,0,0,0,0,0,0,0,0,0,0,0,0,0,0,0,0,0,0,0,0,0,0,0,0,0,0,0,0,0,0,0,0,0,0,0,0,0,0,0,0,0,0,0,0,0,536873814,3035,3035,3035,3035,3035,3035,2684357461,0,0,0,0,0,0,0,0,0,0,0,0,0,0,
0,0,0,0,0,0,0,0,0,0,0,0,0,0,536873813,3035,3035,3035,3035,3035,3035,2684357462,0,0,0,0,0,0,0,0,0,0,0,0,0,0,0,0,0,0,0,0,0,0,0,0,0,0,0,0,0,0,0,0,0,0,0,0,0,0,0,0,0,0,0,0,0,0,0,0,0,0,0,0,0,0,0,0,0,0,0,0,0,0,0,0,0,0,0,0,0,0,0,0,0,0,0,0,0,0,0,0,0,0,0,0,536873813,3035,3035,3035,3035,3035,3035,2684357462,0,0,0,0,0,0,0,0,0,0,0,0,0,0,
0,0,0,0,0,0,0,0,0,0,0,0,0,0,536873814,3035,3035,3035,3035,3035,3035,2684357461,0,0,0,0,0,0,0,0,0,0,0,0,0,0,0,0,0,0,0,0,0,0,0,0,0,0,0,0,0,0,0,0,0,0,0,0,0,0,0,0,0,0,0,0,0,0,0,0,0,0,0,0,0,0,0,0,0,0,0,0,0,0,0,0,0,0,0,0,0,0,0,0,0,0,0,0,0,0,0,0,0,0,0,0,536873814,3035,3035,3035,3035,3035,3035,2684357461,0,0,0,0,0,0,0,0,0,0,0,0,0,0,
0,0,0,0,0,0,0,0,0,0,0,0,0,0,536873813,3035,3035,3035,3035,3035,3035,2684357462,0,0,0,0,0,0,0,0,0,0,0,0,0,0,0,0,0,0,0,0,0,0,0,0,0,0,0,0,0,0,0,0,0,0,0,0,0,0,0,0,0,0,0,0,0,0,0,0,0,0,0,0,0,0,0,0,0,0,0,0,0,0,0,0,0,0,0,0,0,0,0,0,0,0,0,0,0,0,0,0,0,0,0,0,536873813,3035,3035,3035,3035,3035,3035,2684357462,0,0,0,0,0,0,0,0,0,0,0,0,0,0,
0,0,0,0,0,0,0,0,0,0,0,0,0,0,536873814,3035,3035,3035,3035,3035,3035,2684357461,0,0,0,0,0,0,0,0,0,0,0,0,0,0,0,0,0,0,0,0,0,0,0,0,0,0,0,0,0,0,0,0,0,0,0,0,0,0,0,0,0,0,0,0,0,0,0,0,0,0,0,0,0,0,0,0,0,0,0,0,0,0,0,0,0,0,0,0,0,0,0,0,0,0,0,0,0,0,0,0,0,0,0,0,536873814,3035,3035,3035,3035,3035,3035,2684357461,0,0,0,0,0,0,0,0,0,0,0,0,0,0,
0,0,0,0,0,0,0,0,0,0,0,0,0,0,536873813,3035,3035,3035,3035,3035,3035,2684357462,0,0,0,0,0,0,0,0,0,0,0,0,0,0,0,0,0,0,0,0,0,0,0,0,0,0,0,0,0,0,0,0,0,0,0,0,0,0,0,0,0,0,0,0,0,0,0,0,0,0,0,0,0,0,0,0,0,0,0,0,0,0,0,0,0,0,0,0,0,0,0,0,0,0,0,0,0,0,0,0,0,0,0,0,536873813,3035,3035,3035,3035,3035,3035,2684357462,0,0,0,0,0,0,0,0,0,0,0,0,0,0,
0,0,0,0,0,0,0,0,0,0,0,0,0,0,536873814,3035,3035,3035,3035,3035,3035,2684357461,0,0,0,0,0,0,0,0,0,0,0,0,0,0,0,0,0,0,0,0,0,0,0,0,0,0,0,0,0,0,0,0,0,0,0,0,0,0,0,0,0,0,0,0,0,0,0,0,0,0,0,0,0,0,0,0,0,0,0,0,0,0,0,0,0,0,0,0,0,0,0,0,0,0,0,0,0,0,0,0,0,0,0,0,536873814,3035,3035,3035,3035,3035,3035,2684357461,0,0,0,0,0,0,0,0,0,0,0,0,0,0,
0,0,0,0,0,0,0,0,0,0,0,0,0,0,536873813,3035,3035,3035,3035,3035,3035,2684357462,0,0,0,0,0,0,0,0,0,0,0,0,0,0,0,0,0,0,0,0,0,0,0,0,0,0,0,0,0,0,0,0,0,0,0,0,0,0,0,0,0,0,0,0,0,0,0,0,0,0,0,0,0,0,0,0,0,0,0,0,0,0,0,0,0,0,0,0,0,0,0,0,0,0,0,0,0,0,0,0,0,0,0,0,536873813,3035,3035,3035,3035,3035,3035,2684357462,0,0,0,0,0,0,0,0,0,0,0,0,0,0,
0,0,0,0,0,0,0,0,0,0,0,0,0,0,536873814,3035,3035,3035,3035,3035,3035,2684357461,0,0,0,0,0,0,0,0,0,0,0,0,0,0,0,0,0,0,0,0,0,0,0,0,0,0,0,0,0,0,0,0,0,0,0,0,0,0,0,0,0,0,0,0,0,0,0,0,0,0,0,0,0,0,0,0,0,0,0,0,0,0,0,0,0,0,0,0,0,0,0,0,0,0,0,0,0,0,0,0,0,0,0,0,536873814,3035,3035,3035,3035,3035,3035,2684357461,0,0,0,0,0,0,0,0,0,0,0,0,0,0,
0,0,0,0,0,0,0,0,0,0,0,0,0,0,536873813,3035,3035,3035,3035,3035,3035,2684357462,0,0,0,0,0,0,0,0,0,0,0,0,0,0,0,0,0,0,0,0,0,0,0,0,0,0,0,0,0,0,0,0,0,0,0,0,0,0,0,0,0,0,0,0,0,0,0,0,0,0,0,0,0,0,0,0,0,0,0,0,0,0,0,0,0,0,0,0,0,0,0,0,0,0,0,0,0,0,0,0,0,0,0,0,536873813,3035,3035,3035,3035,3035,3035,2684357462,0,0,0,0,0,0,0,0,0,0,0,0,0,0,
0,0,0,0,0,0,0,0,0,0,0,0,0,0,536873814,3035,3035,3035,3035,3035,3035,2684357461,0,0,0,0,0,0,0,0,0,0,0,0,0,0,0,0,0,0,0,0,0,0,0,0,0,0,0,0,0,0,0,0,0,0,0,0,0,0,0,0,0,0,0,0,0,0,0,0,0,0,0,0,0,0,0,0,0,0,0,0,0,0,0,0,0,0,0,0,0,0,0,0,0,0,0,0,0,0,0,0,0,0,0,0,536873814,3035,3035,3035,3035,3035,3035,2684357461,0,0,0,0,0,0,0,0,0,0,0,0,0,0,
0,0,0,0,0,0,0,0,0,0,0,0,0,0,536873813,3035,3035,3035,3035,3035,3035,2684357462,0,0,0,0,0,0,0,0,0,0,0,0,0,0,0,0,0,0,0,0,0,0,0,0,0,0,0,0,0,0,0,0,0,0,0,0,0,0,0,0,0,0,0,0,0,0,0,0,0,0,0,0,0,0,0,0,0,0,0,0,0,0,0,0,0,0,0,0,0,0,0,0,0,0,0,0,0,0,0,0,0,0,0,0,536873813,3035,3035,3035,3035,3035,3035,2684357462,0,0,0,0,0,0,0,0,0,0,0,0,0,0,
0,0,0,0,0,0,0,0,0,0,0,0,0,0,536873814,3035,3035,3035,3035,3035,3035,2684357461,0,0,0,0,0,0,0,0,0,0,0,0,0,0,0,0,0,0,0,0,0,0,0,0,0,0,0,0,0,0,0,0,0,0,0,0,0,0,0,0,0,0,0,0,0,0,0,0,0,0,0,0,0,0,0,0,0,0,0,0,0,0,0,0,0,0,0,0,0,0,0,0,0,0,0,0,0,0,0,0,0,0,0,0,536873814,3035,3035,3035,3035,3035,3035,2684357461,0,0,0,0,0,0,0,0,0,0,0,0,0,0,
0,0,0,0,0,0,0,0,0,0,0,0,0,0,536873813,3035,3035,3035,3035,3035,3035,2684357462,0,0,0,0,0,0,0,0,0,0,0,0,0,0,0,0,0,0,0,0,0,0,0,0,0,0,0,0,0,0,0,0,0,0,0,0,0,0,0,0,0,0,0,0,0,0,0,0,0,0,0,0,0,0,0,0,0,0,0,0,0,0,0,0,0,0,0,0,0,0,0,0,0,0,0,0,0,0,0,0,0,0,0,0,536873813,3035,3035,3035,3035,3035,3035,2684357462,0,0,0,0,0,0,0,0,0,0,0,0,0,0,
0,0,0,0,0,0,0,0,0,0,0,0,0,0,536873814,3035,3035,3035,3035,3035,3035,2684357461,0,0,0,0,0,0,0,0,0,0,0,0,0,0,0,0,0,0,0,0,0,0,0,0,0,0,0,0,0,0,0,0,0,0,0,0,0,0,0,0,0,0,0,0,0,0,0,0,0,0,0,0,0,0,0,0,0,0,0,0,0,0,0,0,0,0,0,0,0,0,0,0,0,0,0,0,0,0,0,0,0,0,0,0,536873814,3035,3035,3035,3035,3035,3035,2684357461,0,0,0,0,0,0,0,0,0,0,0,0,0,0,
0,0,0,0,0,0,0,0,0,0,0,0,0,0,536873813,3035,3035,3035,3035,3035,3035,2684357462,0,0,0,0,0,0,0,0,0,0,0,0,0,0,0,0,0,0,0,0,0,0,0,0,0,0,0,0,0,0,0,0,0,0,0,0,0,0,0,0,0,0,0,0,0,0,0,0,0,0,0,0,0,0,0,0,0,0,0,0,0,0,0,0,0,0,0,0,0,0,0,0,0,0,0,0,0,0,0,0,0,0,0,0,536873813,3035,3035,3035,3035,3035,3035,2684357462,0,0,0,0,0,0,0,0,0,0,0,0,0,0,
0,0,0,0,0,0,0,0,0,0,0,0,0,0,536873814,3035,3035,3035,3035,3035,3035,2684357461,0,0,0,0,0,0,0,0,0,0,0,0,0,0,0,0,0,0,0,0,0,0,0,0,0,0,0,0,0,0,0,0,0,0,0,0,0,0,0,0,0,0,0,0,0,0,0,0,0,0,0,0,0,0,0,0,0,0,0,0,0,0,0,0,0,0,0,0,0,0,0,0,0,0,0,0,0,0,0,0,0,0,0,0,536873814,3035,3035,3035,3035,3035,3035,2684357461,0,0,0,0,0,0,0,0,0,0,0,0,0,0,
0,0,0,0,0,0,0,0,0,0,0,0,0,0,536873813,3035,3035,3035,3035,3035,3035,2684357462,0,0,0,0,0,0,0,0,0,0,0,0,0,0,0,0,0,0,0,0,0,0,0,0,0,0,0,0,0,0,0,0,0,0,0,0,0,0,0,0,0,0,0,0,0,0,0,0,0,0,0,0,0,0,0,0,0,0,0,0,0,0,0,0,0,0,0,0,0,0,0,0,0,0,0,0,0,0,0,0,0,0,0,0,536873813,3035,3035,3035,3035,3035,3035,2684357462,0,0,0,0,0,0,0,0,0,0,0,0,0,0,
0,0,0,0,0,0,0,0,0,0,0,0,0,0,536873814,3035,3035,3035,3035,3035,3035,2684357461,0,0,0,0,0,0,0,0,0,0,0,0,0,0,0,0,0,0,0,0,0,0,0,0,0,0,0,0,0,0,0,0,0,0,0,0,0,0,0,0,0,0,0,0,0,0,0,0,0,0,0,0,0,0,0,0,0,0,0,0,0,0,0,0,0,0,0,0,0,0,0,0,0,0,0,0,0,0,0,0,0,0,0,0,536873814,3035,3035,3035,3035,3035,3035,2684357461,0,0,0,0,0,0,0,0,0,0,0,0,0,0,
0,0,0,0,0,0,0,0,0,0,0,0,0,0,536873813,3035,3035,3035,3035,3035,3035,2684357462,0,0,0,0,0,0,0,0,0,0,0,0,0,0,0,0,0,0,0,0,0,0,0,0,0,0,0,0,0,0,0,0,0,0,0,0,0,0,0,0,0,0,0,0,0,0,0,0,0,0,0,0,0,0,0,0,0,0,0,0,0,0,0,0,0,0,0,0,0,0,0,0,0,0,0,0,0,0,0,0,0,0,0,0,536873813,3035,3035,3035,3035,3035,3035,2684357462,0,0,0,0,0,0,0,0,0,0,0,0,0,0,
0,0,0,0,0,0,0,0,0,0,0,0,0,0,536873814,3035,3035,3035,3035,3035,3035,2684357461,0,0,0,0,0,0,0,0,0,0,0,0,0,0,0,0,0,0,0,0,0,0,0,0,0,0,0,0,0,0,0,0,0,0,0,0,0,0,0,0,0,0,0,0,0,0,0,0,0,0,0,0,0,0,0,0,0,0,0,0,0,0,0,0,0,0,0,0,0,0,0,0,0,0,0,0,0,0,0,0,0,0,0,0,536873814,3035,3035,3035,3035,3035,3035,2684357461,0,0,0,0,0,0,0,0,0,0,0,0,0,0,
0,0,0,0,0,0,0,0,0,0,0,0,0,0,536873813,3035,3035,3035,3035,3035,3035,2684357462,0,0,0,0,0,0,0,0,0,0,0,0,0,0,0,0,0,0,0,0,0,0,0,0,0,0,0,0,0,0,0,0,0,0,0,0,0,0,0,0,0,0,0,0,0,0,0,0,0,0,0,0,0,0,0,0,0,0,0,0,0,0,0,0,0,0,0,0,0,0,0,0,0,0,0,0,0,0,0,0,0,0,0,0,536873813,3035,3035,3035,3035,3035,3035,2684357462,0,0,0,0,0,0,0,0,0,0,0,0,0,0,
0,0,0,0,0,0,0,0,0,0,0,0,0,0,536873814,3035,3035,3035,3035,3035,3035,2684357461,0,0,0,0,0,0,0,0,0,0,0,0,0,0,0,0,0,0,0,0,0,0,0,0,0,0,0,0,0,0,0,0,0,0,0,0,0,0,0,0,0,0,0,0,0,0,0,0,0,0,0,0,0,0,0,0,0,0,0,0,0,0,0,0,0,0,0,0,0,0,0,0,0,0,0,0,0,0,0,0,0,0,0,0,536873814,3035,3035,3035,3035,3035,3035,2684357461,0,0,0,0,0,0,0,0,0,0,0,0,0,0,
0,0,0,0,0,0,0,0,0,0,0,0,0,0,536873813,3035,3035,3035,3035,3035,3035,2684357462,0,0,0,0,0,0,0,0,0,0,0,0,0,0,0,0,0,0,0,0,0,0,0,0,0,0,0,0,0,0,0,0,0,0,0,0,0,0,0,0,0,0,0,0,0,0,0,0,0,0,0,0,0,0,0,0,0,0,0,0,0,0,0,0,0,0,0,0,0,0,0,0,0,0,0,0,0,0,0,0,0,0,0,0,536873813,3035,3035,3035,3035,3035,3035,2684357462,0,0,0,0,0,0,0,0,0,0,0,0,0,0,
0,0,0,0,0,0,0,0,0,0,0,0,0,0,536873814,3035,3035,3035,3035,3035,3035,2684357461,0,0,0,0,0,0,0,0,0,0,0,0,0,0,0,0,0,0,0,0,0,0,0,0,0,0,0,0,0,0,0,0,0,0,0,0,0,0,0,0,0,0,0,0,0,0,0,0,0,0,0,0,0,0,0,0,0,0,0,0,0,0,0,0,0,0,0,0,0,0,0,0,0,0,0,0,0,0,0,0,0,0,0,0,536873814,3035,3035,3035,3035,3035,3035,2684357461,0,0,0,0,0,0,0,0,0,0,0,0,0,0,
0,0,0,0,0,0,0,0,0,0,0,0,0,0,536873813,3035,3035,3035,3035,3035,3035,2684357462,0,0,0,0,0,0,0,0,0,0,0,0,0,0,0,0,0,0,0,0,0,0,0,0,0,0,0,0,0,0,0,0,0,0,0,0,0,0,0,0,0,0,0,0,0,0,0,0,0,0,0,0,0,0,0,0,0,0,0,0,0,0,0,0,0,0,0,0,0,0,0,0,0,0,0,0,0,0,0,0,0,0,0,0,536873813,3035,3035,3035,3035,3035,3035,2684357462,0,0,0,0,0,0,0,0,0,0,0,0,0,0,
0,0,0,0,0,0,0,0,0,0,0,0,0,0,536873814,3035,3035,3035,3035,3035,3035,2684357461,0,0,0,0,0,0,0,0,0,0,0,0,0,0,0,0,0,0,0,0,0,0,0,0,0,0,0,0,0,0,0,0,0,0,0,0,0,0,0,0,0,0,0,0,0,0,0,0,0,0,0,0,0,0,0,0,0,0,0,0,0,0,0,0,0,0,0,0,0,0,0,0,0,0,0,0,0,0,0,0,0,0,0,0,536873814,3035,3035,3035,3035,3035,3035,2684357461,0,0,0,0,0,0,0,0,0,0,0,0,0,0,
0,0,0,0,0,0,0,0,0,0,0,0,0,0,536873813,3035,3035,3035,3035,3035,3035,2684357462,0,0,0,0,0,0,0,0,0,0,0,0,0,0,0,0,0,0,0,0,0,0,0,0,0,0,0,0,0,0,0,0,0,0,0,0,0,0,0,0,0,0,0,0,0,0,0,0,0,0,0,0,0,0,0,0,0,0,0,0,0,0,0,0,0,0,0,0,0,0,0,0,0,0,0,0,0,0,0,0,0,0,0,0,536873813,3035,3035,3035,3035,3035,3035,2684357462,0,0,0,0,0,0,0,0,0,0,0,0,0,0,
0,0,0,0,0,0,0,0,0,0,0,0,0,0,536873814,3035,3035,3035,3035,3035,3035,2684357461,0,0,0,0,0,0,0,0,0,0,0,0,0,0,0,0,0,0,0,0,0,0,0,0,0,0,0,0,0,0,0,0,0,0,0,0,0,0,0,0,0,0,0,0,0,0,0,0,0,0,0,0,0,0,0,0,0,0,0,0,0,0,0,0,0,0,0,0,0,0,0,0,0,0,0,0,0,0,0,0,0,0,0,0,536873814,3035,3035,3035,3035,3035,3035,2684357461,0,0,0,0,0,0,0,0,0,0,0,0,0,0,
0,0,0,0,0,0,0,0,0,0,0,0,0,0,536873813,3035,3035,3035,3035,3035,3035,2684357462,0,0,0,0,0,0,0,0,0,0,0,0,0,0,0,0,0,0,0,0,0,0,0,0,0,0,0,0,0,0,0,0,0,0,0,0,0,0,0,0,0,0,0,0,0,0,0,0,0,0,0,0,0,0,0,0,0,0,0,0,0,0,0,0,0,0,0,0,0,0,0,0,0,0,0,0,0,0,0,0,0,0,0,0,536873813,3035,3035,3035,3035,3035,3035,2684357462,0,0,0,0,0,0,0,0,0,0,0,0,0,0,
0,0,0,0,0,0,0,0,0,0,0,0,0,0,536873814,3035,3035,3035,3035,3035,3035,2684357461,0,0,0,0,0,0,0,0,0,0,0,0,0,0,0,0,0,0,0,0,0,0,0,0,0,0,0,0,0,0,0,0,0,0,0,0,0,0,0,0,0,0,0,0,0,0,0,0,0,0,0,0,0,0,0,0,0,0,0,0,0,0,0,0,0,0,0,0,0,0,0,0,0,0,0,0,0,0,0,0,0,0,0,0,536873814,3035,3035,3035,3035,3035,3035,2684357461,0,0,0,0,0,0,0,0,0,0,0,0,0,0,
0,0,0,0,0,0,0,0,0,0,0,0,0,0,536873813,3035,3035,3035,3035,3035,3035,2684357462,0,0,0,0,0,0,0,0,0,0,0,0,0,0,0,0,0,0,0,0,0,0,0,0,0,0,0,0,0,0,0,0,0,0,0,0,0,0,0,0,0,0,0,0,0,0,0,0,0,0,0,0,0,0,0,0,0,0,0,0,0,0,0,0,0,0,0,0,0,0,0,0,0,0,0,0,0,0,0,0,0,0,0,0,536873813,3035,3035,3035,3035,3035,3035,2684357462,0,0,0,0,0,0,0,0,0,0,0,0,0,0,
0,0,0,0,0,0,0,0,0,0,0,0,0,0,536873814,3035,3035,3035,3035,3035,3035,2684357461,0,0,0,0,0,0,0,0,0,0,0,0,0,0,0,0,0,0,0,0,0,0,0,0,0,0,0,0,0,0,0,0,0,0,0,0,0,0,0,0,0,0,0,0,0,0,0,0,0,0,0,0,0,0,0,0,0,0,0,0,0,0,0,0,0,0,0,0,0,0,0,0,0,0,0,0,0,0,0,0,0,0,0,0,536873814,3035,3035,3035,3035,3035,3035,2684357461,0,0,0,0,0,0,0,0,0,0,0,0,0,0,
0,0,0,0,0,0,0,0,0,0,0,0,0,0,536873813,3035,3035,3035,3035,3035,3035,2684357462,0,0,0,0,0,0,0,0,0,0,0,0,0,0,0,0,0,0,0,0,0,0,0,0,0,0,0,0,0,0,0,0,0,0,0,0,0,0,0,0,0,0,0,0,0,0,0,0,0,0,0,0,0,0,0,0,0,0,0,0,0,0,0,0,0,0,0,0,0,0,0,0,0,0,0,0,0,0,0,0,0,0,0,0,536873813,3035,3035,3035,3035,3035,3035,2684357462,0,0,0,0,0,0,0,0,0,0,0,0,0,0,
0,0,0,0,0,0,0,0,0,0,0,0,0,0,536873814,3035,3035,3035,3035,3035,3035,2684357461,0,0,0,0,0,0,0,0,0,0,0,0,0,0,0,0,0,0,0,0,0,0,0,0,0,0,0,0,0,0,0,0,0,0,0,0,0,0,0,0,0,0,0,0,0,0,0,0,0,0,0,0,0,0,0,0,0,0,0,0,0,0,0,0,0,0,0,0,0,0,0,0,0,0,0,0,0,0,0,0,0,0,0,0,536873814,3035,3035,3035,3035,3035,3035,2684357461,0,0,0,0,0,0,0,0,0,0,0,0,0,0,
0,0,0,0,0,0,0,0,0,0,0,0,0,0,536873813,3035,3035,3035,3035,3035,3035,2684357462,0,0,0,0,0,0,0,0,0,0,0,0,0,0,0,0,0,0,0,0,0,0,0,0,0,0,0,0,0,0,0,0,0,0,0,0,0,0,0,0,0,0,0,0,0,0,0,0,0,0,0,0,0,0,0,0,0,0,0,0,0,0,0,0,0,0,0,0,0,0,0,0,0,0,0,0,0,0,0,0,0,0,0,0,536873813,3035,3035,3035,3035,3035,3035,2684357462,0,0,0,0,0,0,0,0,0,0,0,0,0,0,
0,0,0,0,0,0,0,0,0,0,0,0,0,0,536873814,3035,3035,3035,3035,3035,3035,2684357461,0,0,0,0,0,0,0,0,0,0,0,0,0,0,0,0,0,0,0,0,0,0,0,0,0,0,0,0,0,0,0,0,0,0,0,0,0,0,0,0,0,0,0,0,0,0,0,0,0,0,0,0,0,0,0,0,0,0,0,0,0,0,0,0,0,0,0,0,0,0,0,0,0,0,0,0,0,0,0,0,0,0,0,0,536873814,3035,3035,3035,3035,3035,3035,2684357461,0,0,0,0,0,0,0,0,0,0,0,0,0,0,
0,0,0,0,0,0,0,0,0,0,0,0,0,0,536873813,3035,3035,3035,3035,3035,3035,2684357462,0,0,0,0,0,0,0,0,0,0,0,0,0,0,0,0,0,0,0,0,0,0,0,0,0,0,0,0,0,0,0,0,0,0,0,0,0,0,0,0,0,0,0,0,0,0,0,0,0,0,0,0,0,0,0,0,0,0,0,0,0,0,0,0,0,0,0,0,0,0,0,0,0,0,0,0,0,0,0,0,0,0,0,0,536873813,3035,3035,3035,3035,3035,3035,2684357462,0,0,0,0,0,0,0,0,0,0,0,0,0,0,
0,0,0,0,0,0,0,0,0,0,0,0,0,0,536873814,3035,3035,3035,3035,3035,3035,2684357461,0,0,0,0,0,0,0,0,0,0,0,0,0,0,0,0,0,0,0,0,0,0,0,0,0,0,0,0,0,0,0,0,0,0,0,0,0,0,0,0,0,0,0,0,0,0,0,0,0,0,0,0,0,0,0,0,0,0,0,0,0,0,0,0,0,0,0,0,0,0,0,0,0,0,0,0,0,0,0,0,0,0,0,0,536873814,3035,3035,3035,3035,3035,3035,2684357461,0,0,0,0,0,0,0,0,0,0,0,0,0,0,
0,0,0,0,0,0,0,0,0,0,0,0,0,0,536873813,3035,3035,3035,3035,3035,3035,2684357462,0,0,0,0,0,0,0,0,0,0,0,0,0,0,0,0,0,0,0,0,0,0,0,0,0,0,0,0,0,0,0,0,0,0,0,0,0,0,0,0,0,0,0,0,0,0,0,0,0,0,0,0,0,0,0,0,0,0,0,0,0,0,0,0,0,0,0,0,0,0,0,0,0,0,0,0,0,0,0,0,0,0,0,0,536873813,3035,3035,3035,3035,3035,3035,2684357462,0,0,0,0,0,0,0,0,0,0,0,0,0,0,
0,0,0,0,0,0,0,0,0,0,0,0,0,0,536873814,3035,3035,3035,3035,3035,3035,2684357461,0,0,0,0,0,0,0,0,0,0,0,0,0,0,0,0,0,0,0,0,0,0,0,0,0,0,0,0,0,0,0,0,0,0,0,0,0,0,0,0,0,0,0,0,0,0,0,0,0,0,0,0,0,0,0,0,0,0,0,0,0,0,0,0,0,0,0,0,0,0,0,0,0,0,0,0,0,0,0,0,0,0,0,0,536873814,3035,3035,3035,3035,3035,3035,2684357461,0,0,0,0,0,0,0,0,0,0,0,0,0,0,
0,0,0,0,0,0,0,0,0,0,0,0,0,0,536873813,3035,3035,3035,3035,3035,3035,2684357462,0,0,0,0,0,0,0,0,0,0,0,0,0,0,0,0,0,0,0,0,0,0,0,0,0,0,0,0,0,0,0,0,0,0,0,0,0,0,0,0,0,0,0,0,0,0,0,0,0,0,0,0,0,0,0,0,0,0,0,0,0,0,0,0,0,0,0,0,0,0,0,0,0,0,0,0,0,0,0,0,0,0,0,0,536873813,3035,3035,3035,3035,3035,3035,2684357462,0,0,0,0,0,0,0,0,0,0,0,0,0,0,
0,0,0,0,0,0,0,0,0,0,0,0,0,0,536873814,3035,3035,3035,3035,3035,3035,2684357461,0,0,0,0,0,0,0,0,0,0,0,0,0,0,0,0,0,0,0,0,0,0,0,0,0,0,0,0,0,0,0,0,0,0,0,0,0,0,0,0,0,0,0,0,0,0,0,0,0,0,0,0,0,0,0,0,0,0,0,0,0,0,0,0,0,0,0,0,0,0,0,0,0,0,0,0,0,0,0,0,0,0,0,0,536873814,3035,3035,3035,3035,3035,3035,2684357461,0,0,0,0,0,0,0,0,0,0,0,0,0,0,
0,0,0,0,0,0,0,0,0,0,0,0,0,0,536873813,3035,3035,3035,3035,3035,3035,2684357462,0,0,0,0,0,0,0,0,0,0,0,0,0,0,0,0,0,0,0,0,0,0,0,0,0,0,0,0,0,0,0,0,0,0,0,0,0,0,0,0,0,0,0,0,0,0,0,0,0,0,0,0,0,0,0,0,0,0,0,0,0,0,0,0,0,0,0,0,0,0,0,0,0,0,0,0,0,0,0,0,0,0,0,0,536873813,3035,3035,3035,3035,3035,3035,2684357462,0,0,0,0,0,0,0,0,0,0,0,0,0,0,
0,0,0,0,0,0,0,0,0,0,0,0,0,0,536873814,3035,3035,3035,3035,3035,3035,2684357461,0,0,0,0,0,0,0,0,0,0,0,0,0,0,0,0,0,0,0,0,0,0,0,0,0,0,0,0,0,0,0,0,0,0,0,0,0,0,0,0,0,0,0,0,0,0,0,0,0,0,0,0,0,0,0,0,0,0,0,0,0,0,0,0,0,0,0,0,0,0,0,0,0,0,0,0,0,0,0,0,0,0,0,0,536873814,3035,3035,3035,3035,3035,3035,2684357461,0,0,0,0,0,0,0,0,0,0,0,0,0,0,
0,0,0,0,0,0,0,0,0,0,0,0,0,0,536873813,3035,3035,3035,3035,3035,3035,2684357462,0,0,0,0,0,0,0,0,0,0,0,0,0,0,0,0,0,0,0,0,0,0,0,0,0,0,0,0,0,0,0,0,0,0,0,0,0,0,0,0,0,0,0,0,0,0,0,0,0,0,0,0,0,0,0,0,0,0,0,0,0,0,0,0,0,0,0,0,0,0,0,0,0,0,0,0,0,0,0,0,0,0,0,0,536873813,3035,3035,3035,3035,3035,3035,2684357462,0,0,0,0,0,0,0,0,0,0,0,0,0,0,
0,0,0,0,0,0,0,0,0,0,0,0,0,0,536873814,3035,3035,3035,3035,3035,3035,2684357461,0,0,0,0,0,0,0,0,0,0,0,0,0,0,0,0,0,0,0,0,0,0,0,0,0,0,0,0,0,0,0,0,0,0,0,0,0,0,0,0,0,0,0,0,0,0,0,0,0,0,0,0,0,0,0,0,0,0,0,0,0,0,0,0,0,0,0,0,0,0,0,0,0,0,0,0,0,0,0,0,0,0,0,0,536873814,3035,3035,3035,3035,3035,3035,2684357461,0,0,0,0,0,0,0,0,0,0,0,0,0,0,
0,0,0,0,0,0,0,0,0,0,0,0,0,0,536873813,3035,3035,3035,3035,3035,3035,2684357462,0,0,0,0,0,0,0,0,0,0,0,0,0,0,0,0,0,0,0,0,0,0,0,0,0,0,0,0,0,0,0,0,0,0,0,0,0,0,0,0,0,0,0,0,0,0,0,0,0,0,0,0,0,0,0,0,0,0,0,0,0,0,0,0,0,0,0,0,0,0,0,0,0,0,0,0,0,0,0,0,0,0,0,0,536873813,3035,3035,3035,3035,3035,3035,2684357462,0,0,0,0,0,0,0,0,0,0,0,0,0,0,
0,0,0,0,0,0,0,0,0,0,0,0,0,0,536873814,3035,3035,3035,3035,3035,3035,2684357461,0,0,0,0,0,0,0,0,0,0,0,0,0,0,0,0,0,0,0,0,0,0,0,0,0,0,0,0,0,0,0,0,0,0,0,0,0,0,0,0,0,0,0,0,0,0,0,0,0,0,0,0,0,0,0,0,0,0,0,0,0,0,0,0,0,0,0,0,0,0,0,0,0,0,0,0,0,0,0,0,0,0,0,0,536873814,3035,3035,3035,3035,3035,3035,2684357461,0,0,0,0,0,0,0,0,0,0,0,0,0,0,
0,0,0,0,0,0,0,0,0,0,0,0,0,0,536873813,3035,3035,3035,3035,3035,3035,2147486477,2901,2902,2901,2902,2901,2902,2901,2902,2901,2902,2901,2902,2901,2902,2901,2902,2901,2902,2901,2902,2901,2902,2901,2902,2901,2902,2901,2902,2901,2902,2901,2902,2901,2902,2901,2902,2901,2902,2901,2902,2901,2902,2901,2902,2901,2902,2901,2902,2901,2902,2901,2902,2901,2902,2901,2902,2901,2902,2901,2902,2901,2902,2901,2902,2901,2902,2901,2902,2901,2902,2901,2902,2901,2902,2901,2902,2901,2902,2901,2902,2901,2902,2901,2902,2829,3035,3035,3035,3035,3035,3035,2684357462,0,0,0,0,0,0,0,0,0,0,0,0,0,0,
0,0,0,0,0,0,0,0,0,0,0,0,0,0,536873814,3035,3035,3035,3035,3035,3035,3035,3035,3035,3035,3035,3035,3035,3035,3035,3035,3035,3035,3035,3035,3035,3035,3035,3035,3035,3035,3035,3035,3035,3035,3035,3035,3035,3035,3035,3035,3035,3035,3035,3035,3035,3035,3035,3035,3035,3035,3035,3035,3035,3035,3035,3035,3035,3035,3035,3035,3035,3035,3035,3035,3035,3035,3035,3035,3035,3035,3035,3035,3035,3035,3035,3035,3035,3035,3035,3035,3035,3035,3035,3035,3035,3035,3035,3035,3035,3035,3035,3035,3035,3035,3035,3035,3035,3035,3035,3035,3035,3035,2684357461,0,0,0,0,0,0,0,0,0,0,0,0,0,0,
0,0,0,0,0,0,0,0,0,0,0,0,0,0,536873813,3035,3035,3035,3035,3035,3035,3035,3035,3035,3035,3035,3035,3035,3035,3035,3035,3035,3035,3035,3035,3035,3035,3035,3035,3035,3035,3035,3035,3035,3035,3035,3035,3035,3035,3035,3035,3035,3035,3035,3035,3035,3035,3035,3035,3035,3035,3035,3035,3035,3035,3035,3035,3035,3035,3035,3035,3035,3035,3035,3035,3035,3035,3035,3035,3035,3035,3035,3035,3035,3035,3035,3035,3035,3035,3035,3035,3035,3035,3035,3035,3035,3035,3035,3035,3035,3035,3035,3035,3035,3035,3035,3035,3035,3035,3035,3035,3035,3035,2684357462,0,0,0,0,0,0,0,0,0,0,0,0,0,0,
0,0,0,0,0,0,0,0,0,0,0,0,0,0,536873814,3035,3035,3035,3035,3035,3035,3035,3035,3035,3035,3035,3035,3035,3035,3035,3035,3035,3035,3035,3035,3035,3035,3035,3035,3035,3035,3035,3035,3035,3035,3035,3035,3035,3035,3035,3035,3035,3035,3035,3035,3035,3035,3035,3035,3035,3035,3035,3035,3035,3035,3035,3035,3035,3035,3035,3035,3035,3035,3035,3035,3035,3035,3035,3035,3035,3035,3035,3035,3035,3035,3035,3035,3035,3035,3035,3035,3035,3035,3035,3035,3035,3035,3035,3035,3035,3035,3035,3035,3035,3035,3035,3035,3035,3035,3035,3035,3035,3035,2684357461,0,0,0,0,0,0,0,0,0,0,0,0,0,0,
0,0,0,0,0,0,0,0,0,0,0,0,0,0,536873813,3035,3035,3035,3035,3035,3035,3035,3035,3035,3035,3035,3035,3035,3035,3035,3035,3035,3035,3035,3035,3035,3035,3035,3035,3035,3035,3035,3035,3035,3035,3035,3035,3035,3035,3035,3035,3035,3035,3035,3035,3035,3035,3035,3035,3035,3035,3035,3035,3035,3035,3035,3035,3035,3035,3035,3035,3035,3035,3035,3035,3035,3035,3035,3035,3035,3035,3035,3035,3035,3035,3035,3035,3035,3035,3035,3035,3035,3035,3035,3035,3035,3035,3035,3035,3035,3035,3035,3035,3035,3035,3035,3035,3035,3035,3035,3035,3035,3035,2684357462,0,0,0,0,0,0,0,0,0,0,0,0,0,0,
0,0,0,0,0,0,0,0,0,0,0,0,0,0,536873814,3035,3035,3035,3035,3035,3035,3035,3035,3035,3035,3035,3035,3035,3035,3035,3035,3035,3035,3035,3035,3035,3035,3035,3035,3035,3035,3035,3035,3035,3035,3035,3035,3035,3035,3035,3035,3035,3035,3035,3035,3035,3035,3035,3035,3035,3035,3035,3035,3035,3035,3035,3035,3035,3035,3035,3035,3035,3035,3035,3035,3035,3035,3035,3035,3035,3035,3035,3035,3035,3035,3035,3035,3035,3035,3035,3035,3035,3035,3035,3035,3035,3035,3035,3035,3035,3035,3035,3035,3035,3035,3035,3035,3035,3035,3035,3035,3035,3035,2684357461,0,0,0,0,0,0,0,0,0,0,0,0,0,0,
0,0,0,0,0,0,0,0,0,0,0,0,0,0,536873813,3035,3035,3035,3035,3035,3035,3035,3035,3035,3035,3035,3035,3035,3035,3035,3035,3035,3035,3035,3035,3035,3035,3035,3035,3035,3035,3035,3035,3035,3035,3035,3035,3035,3035,3035,3035,3035,3035,3035,3035,3035,3035,3035,3035,3035,3035,3035,3035,3035,3035,3035,3035,3035,3035,3035,3035,3035,3035,3035,3035,3035,3035,3035,3035,3035,3035,3035,3035,3035,3035,3035,3035,3035,3035,3035,3035,3035,3035,3035,3035,3035,3035,3035,3035,3035,3035,3035,3035,3035,3035,3035,3035,3035,3035,3035,3035,3035,3035,2684357462,0,0,0,0,0,0,0,0,0,0,0,0,0,0,
0,0,0,0,0,0,0,0,0,0,0,0,0,0,1073744653,1073744725,1073744726,1073744725,1073744726,1073744725,1073744726,1073744725,1073744726,1073744725,1073744726,1073744725,1073744726,1073744725,1073744726,1073744725,1073744726,1073744725,1073744726,1073744725,1073744726,1073744725,1073744726,1073744725,1073744726,1073744725,1073744726,1073744725,1073744726,1073744725,1073744726,1073744725,1073744726,1073744725,1073744726,1073744725,1073744726,1073744725,1073744726,1073744725,1073744726,1073744725,1073744726,1073744725,1073744726,1073744725,1073744726,1073744725,1073744726,1073744725,1073744726,1073744725,1073744726,1073744725,1073744726,1073744725,1073744726,1073744725,1073744726,1073744725,1073744726,1073744725,1073744726,1073744725,1073744726,1073744725,1073744726,1073744725,1073744726,1073744725,1073744726,1073744725,1073744726,1073744725,1073744726,1073744725,1073744726,1073744725,1073744726,1073744725,1073744726,1073744725,1073744726,1073744725,1073744726,1073744725,1073744726,1073744725,1073744726,1073744725,1073744726,1073744725,1073744726,1073744725,1073744726,1073744725,1073744726,1073744725,1073744726,3221228301,0,0,0,0,0,0,0,0,0,0,0,0,0,0,
0,0,0,0,0,0,0,0,0,0,0,0,0,0,0,0,0,0,0,0,0,0,0,0,0,0,0,0,0,0,0,0,0,0,0,0,0,0,0,0,0,0,0,0,0,0,0,0,0,0,0,0,0,0,0,0,0,0,0,0,0,0,0,0,0,0,0,0,0,0,0,0,0,0,0,0,0,0,0,0,0,0,0,0,0,0,0,0,0,0,0,0,0,0,0,0,0,0,0,0,0,0,0,0,0,0,0,0,0,0,0,0,0,0,0,0,0,0,0,0,0,0,0,0,0,0,0,0,
0,0,0,0,0,0,0,0,0,0,0,0,0,0,0,0,0,0,0,0,0,0,0,0,0,0,0,0,0,0,0,0,0,0,0,0,0,0,0,0,0,0,0,0,0,0,0,0,0,0,0,0,0,0,0,0,0,0,0,0,0,0,0,0,0,0,0,0,0,0,0,0,0,0,0,0,0,0,0,0,0,0,0,0,0,0,0,0,0,0,0,0,0,0,0,0,0,0,0,0,0,0,0,0,0,0,0,0,0,0,0,0,0,0,0,0,0,0,0,0,0,0,0,0,0,0,0,0,
0,0,0,0,0,0,0,0,0,0,0,0,0,0,0,0,0,0,0,0,0,0,0,0,0,0,0,0,0,0,0,0,0,0,0,0,0,0,0,0,0,0,0,0,0,0,0,0,0,0,0,0,0,0,0,0,0,0,0,0,0,0,0,0,0,0,0,0,0,0,0,0,0,0,0,0,0,0,0,0,0,0,0,0,0,0,0,0,0,0,0,0,0,0,0,0,0,0,0,0,0,0,0,0,0,0,0,0,0,0,0,0,0,0,0,0,0,0,0,0,0,0,0,0,0,0,0,0,
0,0,0,0,0,0,0,0,0,0,0,0,0,0,0,0,0,0,0,0,0,0,0,0,0,0,0,0,0,0,0,0,0,0,0,0,0,0,0,0,0,0,0,0,0,0,0,0,0,0,0,0,0,0,0,0,0,0,0,0,0,0,0,0,0,0,0,0,0,0,0,0,0,0,0,0,0,0,0,0,0,0,0,0,0,0,0,0,0,0,0,0,0,0,0,0,0,0,0,0,0,0,0,0,0,0,0,0,0,0,0,0,0,0,0,0,0,0,0,0,0,0,0,0,0,0,0,0,
0,0,0,0,0,0,0,0,0,0,0,0,0,0,0,0,0,0,0,0,0,0,0,0,0,0,0,0,0,0,0,0,0,0,0,0,0,0,0,0,0,0,0,0,0,0,0,0,0,0,0,0,0,0,0,0,0,0,0,0,0,0,0,0,0,0,0,0,0,0,0,0,0,0,0,0,0,0,0,0,0,0,0,0,0,0,0,0,0,0,0,0,0,0,0,0,0,0,0,0,0,0,0,0,0,0,0,0,0,0,0,0,0,0,0,0,0,0,0,0,0,0,0,0,0,0,0,0,
0,0,0,0,0,0,0,0,0,0,0,0,0,0,0,0,0,0,0,0,0,0,0,0,0,0,0,0,0,0,0,0,0,0,0,0,0,0,0,0,0,0,0,0,0,0,0,0,0,0,0,0,0,0,0,0,0,0,0,0,0,0,0,0,0,0,0,0,0,0,0,0,0,0,0,0,0,0,0,0,0,0,0,0,0,0,0,0,0,0,0,0,0,0,0,0,0,0,0,0,0,0,0,0,0,0,0,0,0,0,0,0,0,0,0,0,0,0,0,0,0,0,0,0,0,0,0,0,
0,0,0,0,0,0,0,0,0,0,0,0,0,0,0,0,0,0,0,0,0,0,0,0,0,0,0,0,0,0,0,0,0,0,0,0,0,0,0,0,0,0,0,0,0,0,0,0,0,0,0,0,0,0,0,0,0,0,0,0,0,0,0,0,0,0,0,0,0,0,0,0,0,0,0,0,0,0,0,0,0,0,0,0,0,0,0,0,0,0,0,0,0,0,0,0,0,0,0,0,0,0,0,0,0,0,0,0,0,0,0,0,0,0,0,0,0,0,0,0,0,0,0,0,0,0,0,0,
0,0,0,0,0,0,0,0,0,0,0,0,0,0,0,0,0,0,0,0,0,0,0,0,0,0,0,0,0,0,0,0,0,0,0,0,0,0,0,0,0,0,0,0,0,0,0,0,0,0,0,0,0,0,0,0,0,0,0,0,0,0,0,0,0,0,0,0,0,0,0,0,0,0,0,0,0,0,0,0,0,0,0,0,0,0,0,0,0,0,0,0,0,0,0,0,0,0,0,0,0,0,0,0,0,0,0,0,0,0,0,0,0,0,0,0,0,0,0,0,0,0,0,0,0,0,0,0,
0,0,0,0,0,0,0,0,0,0,0,0,0,0,0,0,0,0,0,0,0,0,0,0,0,0,0,0,0,0,0,0,0,0,0,0,0,0,0,0,0,0,0,0,0,0,0,0,0,0,0,0,0,0,0,0,0,0,0,0,0,0,0,0,0,0,0,0,0,0,0,0,0,0,0,0,0,0,0,0,0,0,0,0,0,0,0,0,0,0,0,0,0,0,0,0,0,0,0,0,0,0,0,0,0,0,0,0,0,0,0,0,0,0,0,0,0,0,0,0,0,0,0,0,0,0,0,0,
0,0,0,0,0,0,0,0,0,0,0,0,0,0,0,0,0,0,0,0,0,0,0,0,0,0,0,0,0,0,0,0,0,0,0,0,0,0,0,0,0,0,0,0,0,0,0,0,0,0,0,0,0,0,0,0,0,0,0,0,0,0,0,0,0,0,0,0,0,0,0,0,0,0,0,0,0,0,0,0,0,0,0,0,0,0,0,0,0,0,0,0,0,0,0,0,0,0,0,0,0,0,0,0,0,0,0,0,0,0,0,0,0,0,0,0,0,0,0,0,0,0,0,0,0,0,0,0,
0,0,0,0,0,0,0,0,0,0,0,0,0,0,0,0,0,0,0,0,0,0,0,0,0,0,0,0,0,0,0,0,0,0,0,0,0,0,0,0,0,0,0,0,0,0,0,0,0,0,0,0,0,0,0,0,0,0,0,0,0,0,0,0,0,0,0,0,0,0,0,0,0,0,0,0,0,0,0,0,0,0,0,0,0,0,0,0,0,0,0,0,0,0,0,0,0,0,0,0,0,0,0,0,0,0,0,0,0,0,0,0,0,0,0,0,0,0,0,0,0,0,0,0,0,0,0,0,
0,0,0,0,0,0,0,0,0,0,0,0,0,0,0,0,0,0,0,0,0,0,0,0,0,0,0,0,0,0,0,0,0,0,0,0,0,0,0,0,0,0,0,0,0,0,0,0,0,0,0,0,0,0,0,0,0,0,0,0,0,0,0,0,0,0,0,0,0,0,0,0,0,0,0,0,0,0,0,0,0,0,0,0,0,0,0,0,0,0,0,0,0,0,0,0,0,0,0,0,0,0,0,0,0,0,0,0,0,0,0,0,0,0,0,0,0,0,0,0,0,0,0,0,0,0,0,0,
0,0,0,0,0,0,0,0,0,0,0,0,0,0,0,0,0,0,0,0,0,0,0,0,0,0,0,0,0,0,0,0,0,0,0,0,0,0,0,0,0,0,0,0,0,0,0,0,0,0,0,0,0,0,0,0,0,0,0,0,0,0,0,0,0,0,0,0,0,0,0,0,0,0,0,0,0,0,0,0,0,0,0,0,0,0,0,0,0,0,0,0,0,0,0,0,0,0,0,0,0,0,0,0,0,0,0,0,0,0,0,0,0,0,0,0,0,0,0,0,0,0,0,0,0,0,0,0,
0,0,0,0,0,0,0,0,0,0,0,0,0,0,0,0,0,0,0,0,0,0,0,0,0,0,0,0,0,0,0,0,0,0,0,0,0,0,0,0,0,0,0,0,0,0,0,0,0,0,0,0,0,0,0,0,0,0,0,0,0,0,0,0,0,0,0,0,0,0,0,0,0,0,0,0,0,0,0,0,0,0,0,0,0,0,0,0,0,0,0,0,0,0,0,0,0,0,0,0,0,0,0,0,0,0,0,0,0,0,0,0,0,0,0,0,0,0,0,0,0,0,0,0,0,0,0,0
</data>
 </layer>
 <objectgroup id="3" name="terrains">
  <object id="1" name="tarmac-top" type="surface" x="448" y="448" width="3200" height="256">
   <properties>
    <property name="terrainType" value="tarmac"/>
   </properties>
  </object>
  <object id="2" name="tarmac-bottom" type="surface" x="448" y="3392" width="3200" height="256">
   <properties>
    <property name="terrainType" value="tarmac"/>
   </properties>
  </object>
  <object id="3" name="tarmac-left" type="surface" x="448" y="448" width="256" height="3200">
   <properties>
    <property name="terrainType" value="tarmac"/>
   </properties>
  </object>
  <object id="4" name="tarmac-right" type="surface" x="3392" y="448" width="256" height="3200">
   <properties>
    <property name="terrainType" value="tarmac"/>
   </properties>
  </object>
  <object id="5" name="grass-infield" type="surface" x="704" y="704" width="2688" height="2688">
   <properties>
    <property name="terrainType" value="grass"/>
   </properties>
  </object>
  <object id="6" name="grass-top" type="surface" x="0" y="0" width="4096" height="448">
   <properties>
    <property name="terrainType" value="grass"/>
   </properties>
  </object>
  <object id="7" name="grass-bottom" type="surface" x="0" y="3648" width="4096" height="448">
   <properties>
    <property name="terrainType" value="grass"/>
   </properties>
  </object>
  <object id="8" name="grass-left" type="surface" x="0" y="448" width="448" height="3200">
   <properties>
    <property name="terrainType" value="grass"/>
   </properties>
  </object>
  <object id="9" name="grass-right" type="surface" x="3648" y="448" width="448" height="3200">
   <properties>
    <property name="terrainType" value="grass"/>
   </properties>
  </object>
 </objectgroup>
 <objectgroup id="4" name="grid">
  <object id="10" type="gridposition" name="pos-1" heading="3.14159265" x="2240" y="3456">
   <point/>
  </object>
  <object id="11" type="gridposition" name="pos-2" heading="3.14159265" x="2240" y="3584">
   <point/>
  </object>
  <object id="12" type="gridposition" name="pos-3" heading="3.14159265" x="2440" y="3456">
   <point/>
  </object>
  <object id="13" type="gridposition" name="pos-4" heading="3.14159265" x="2440" y="3584">
   <point/>
  </object>
 </objectgroup>
 <objectgroup id="5" name="checkpoints">
  <object id="14" name="finish-line" type="checkpoint" x="2016" y="3392" width="16" height="256"/>
  <object id="15" name="checkpoint-1" type="checkpoint" x="448" y="2032" width="256" height="16"/>
  <object id="16" name="checkpoint-2" type="checkpoint" x="2048" y="448" width="16" height="256"/>
  <object id="17" name="checkpoint-3" type="checkpoint" x="3392" y="2032" width="256" height="16"/>
 </objectgroup>
 <objectgroup id="6" name="obstacles">
  <object id="18" name="infield" type="obstacle" x="704" y="704" width="2688" height="2688"/>
  <object id="19" name="wall-top" type="obstacle" x="448" y="440" width="3200" height="8"/>
  <object id="20" name="wall-bottom" type="obstacle" x="448" y="3648" width="3200" height="8"/>
  <object id="21" name="wall-left" type="obstacle" x="440" y="448" width="8" height="3200"/>
  <object id="22" name="wall-right" type="obstacle" x="3648" y="448" width="8" height="3200"/>
 </objectgroup>
</map>
