<?xml version="1.0" encoding="UTF-8"?>
<map version="1.10" tiledversion="1.12.2-2-geb83ddb9" orientation="orthogonal" renderorder="right-down" width="64" height="64" tilewidth="32" tileheight="32" infinite="0" nextlayerid="9" nextobjectid="74">
 <tileset firstgid="1" source="spritesheet_tiles.tsx"/>
 <tileset firstgid="5185" source="spritesheet_objects.tsx"/>
 <layer id="1" name="background" width="64" height="64">
  <data encoding="csv">
577,578,579,580,577,578,579,580,577,578,1610615619,1610615691,1610615763,1610615835,1610615763,1610615835,577,578,579,580,577,578,579,580,577,578,579,580,577,578,579,580,577,578,579,580,577,578,579,580,577,578,579,580,577,578,579,580,577,578,579,580,577,578,579,580,577,578,579,580,577,578,579,580,
649,650,651,652,649,650,651,652,3603,3604,1610615618,1610615690,1610615762,1610615834,1610615762,1610615834,2684358235,2684358163,651,652,649,650,651,652,649,650,651,652,649,650,651,652,649,650,651,652,649,650,651,652,649,650,651,652,649,650,651,652,649,650,651,652,649,650,651,652,649,650,651,652,649,650,651,652,
721,722,723,724,721,722,723,724,3675,3676,1610615617,1610615689,1610615761,1610615833,1610615761,1610615833,2684358236,2684358164,723,724,721,722,723,724,721,722,723,724,721,722,723,724,721,722,723,724,721,722,723,724,721,722,723,724,721,722,723,724,721,722,723,724,721,722,723,724,721,722,723,724,721,722,723,724,
793,794,795,796,793,794,795,3221228571,3221228570,3221228569,2881,2881,2881,2881,2881,2881,2881,2881,795,796,793,794,795,796,793,794,795,796,793,794,795,796,793,794,795,796,793,794,795,796,793,794,795,796,793,794,795,796,793,794,795,796,793,794,795,796,793,794,795,796,793,794,795,796,
577,578,579,580,577,578,579,3221228499,3221228498,3221228497,2953,2953,2953,2953,2953,2953,2953,2953,579,580,577,578,579,580,577,578,579,580,577,578,579,580,577,578,579,580,577,578,579,580,577,578,579,580,577,578,579,580,577,578,579,580,577,578,579,580,577,578,579,580,577,578,579,580,
649,650,651,652,649,650,2684358521,2684358449,2684358377,3221228425,3025,3025,3025,3025,3025,3025,3025,3025,651,652,649,650,651,652,649,650,651,652,649,650,651,652,649,650,651,652,649,650,651,652,649,650,651,652,649,650,651,652,649,650,651,652,649,650,651,652,649,650,651,652,649,650,651,652,
721,722,723,724,721,1610615619,2684358522,2684358450,2684358378,2881,3097,3097,3097,3097,3097,3097,3097,3097,723,724,721,722,723,724,721,722,723,724,721,722,723,724,721,722,723,724,721,722,723,724,721,722,723,724,721,722,723,724,721,722,723,724,721,722,723,724,721,722,723,724,721,722,723,724,
793,794,795,3603,3604,1610615618,2684358523,2684358451,2684358379,2881,2881,2881,2881,2881,2881,2881,2881,794,795,796,793,794,795,796,793,794,795,796,793,794,795,796,793,794,795,796,793,794,795,796,793,794,795,796,793,794,795,796,793,794,795,796,793,794,795,796,793,794,795,796,793,794,795,796,
577,578,579,3675,3676,2881,2881,1610615761,1610615833,2953,2953,2953,2953,2953,2953,2953,2953,578,579,580,577,578,579,580,577,578,579,580,577,578,579,580,577,578,579,580,577,578,579,580,577,578,579,580,577,578,579,580,577,578,579,580,577,578,579,580,577,578,579,580,577,578,579,580,
649,650,3221228571,3221228570,3221228569,2953,2881,2881,2881,2881,2881,3025,3025,3025,3025,3025,3025,650,651,652,649,650,651,652,649,650,651,652,649,650,651,652,649,650,651,652,649,650,651,652,649,650,651,652,649,650,651,652,649,650,651,652,649,650,651,652,649,650,651,652,649,650,651,652,
721,722,3221228499,3221228498,3221228497,3025,2953,2953,2953,2953,2953,3097,3097,3097,3097,3097,3097,722,723,724,721,722,723,724,721,722,723,724,721,722,723,724,721,722,723,724,721,722,723,724,721,722,723,724,721,722,723,724,721,722,723,724,721,722,723,724,721,722,723,724,721,722,723,724,
793,794,3221228427,3221228426,3221228425,3097,3025,3025,3025,3025,3025,796,793,794,795,796,793,794,795,796,793,794,795,796,793,794,795,796,793,794,2593,2594,2595,2596,795,796,793,794,795,796,793,794,795,796,793,794,795,796,793,794,795,796,793,794,795,796,793,794,795,796,793,794,795,796,
577,578,3221228355,3221228354,3221228353,578,3097,3097,3097,3097,3097,580,577,578,579,580,577,578,579,580,577,578,579,580,577,578,579,580,577,578,2665,2666,2667,2668,2593,2594,2595,2596,579,580,577,578,579,580,577,578,579,580,577,578,579,580,577,578,579,580,577,578,579,580,577,578,579,580,
649,650,651,652,649,650,651,652,649,650,651,652,649,650,651,652,649,650,651,652,649,650,651,652,649,650,651,652,649,650,2737,2738,2739,2740,2665,2666,2667,2668,651,652,649,650,651,652,649,650,651,652,649,650,651,652,649,650,651,652,649,650,651,652,649,650,651,652,
721,722,723,724,721,722,723,724,721,722,723,724,721,722,723,724,721,722,723,724,721,722,723,724,721,722,2593,2594,2595,2596,2809,2810,2811,2812,2737,2738,2739,2740,723,724,721,722,723,724,721,722,723,724,721,722,723,724,721,722,723,724,721,722,723,724,721,722,723,724,
793,794,795,796,793,794,795,796,793,794,795,796,793,794,795,796,793,794,795,796,793,794,795,796,793,794,2665,2666,2593,2594,2595,2596,2593,2594,2809,2810,2593,2594,2595,2596,793,794,795,796,793,794,795,796,793,794,795,796,793,794,795,796,793,794,795,796,793,794,795,796,
577,578,579,580,577,578,579,580,577,578,579,580,577,578,579,580,577,578,579,580,577,578,579,580,577,578,2737,2738,2665,2666,2667,2668,2665,2666,2667,2668,2665,2666,2667,2668,577,578,579,580,577,578,579,580,577,578,579,580,577,578,579,580,577,578,579,580,577,578,579,580,
649,650,651,652,649,650,651,652,649,650,651,652,649,650,651,652,649,650,651,652,649,650,651,652,649,650,2809,2810,2737,2738,2739,2740,2737,2738,2739,2740,2737,2738,2739,2740,649,650,651,652,649,650,651,652,649,650,651,652,649,650,651,652,649,650,651,652,649,650,651,652,
721,722,723,724,721,722,723,724,721,722,723,724,721,722,723,724,721,722,723,724,721,722,723,724,721,722,723,724,2809,2810,2811,2812,2809,2593,2594,2595,2596,2810,2811,2812,721,722,723,724,721,722,723,724,721,722,723,724,721,722,723,724,721,722,723,724,721,722,723,724,
793,794,795,796,793,794,795,796,793,794,795,796,793,794,795,796,793,794,795,796,793,794,795,796,793,794,795,796,793,794,2665,2666,2667,2593,2594,2595,2596,2739,2740,796,793,794,795,796,793,794,795,796,793,794,795,796,793,794,795,796,793,794,795,796,793,794,795,796,
577,578,579,580,577,578,579,580,577,578,579,580,577,578,579,580,577,578,579,580,577,578,579,580,577,578,579,580,577,578,2737,2738,2739,2665,2666,2667,2668,2811,2812,580,577,578,579,580,577,578,579,580,577,578,579,580,577,578,579,580,577,578,579,580,577,578,579,580,
649,650,651,652,649,650,651,652,649,650,651,652,649,650,651,652,649,650,651,652,649,650,651,652,649,650,651,652,649,650,2809,2810,2811,2737,2738,2739,2740,650,651,652,649,650,651,652,649,650,651,652,649,650,651,652,649,650,651,652,649,650,651,652,649,650,651,652,
721,722,723,724,721,722,723,724,721,722,723,724,721,722,723,724,721,722,723,724,721,722,723,724,721,722,723,724,721,722,723,724,721,2809,2810,2811,2812,722,723,724,721,722,723,724,721,722,723,724,721,722,723,724,721,722,723,724,721,722,723,724,721,722,723,724,
793,794,795,796,793,794,795,796,793,794,795,796,793,794,795,796,793,794,795,796,793,794,795,796,793,794,795,796,793,794,795,796,793,794,795,796,793,794,795,796,793,794,795,796,793,794,795,796,793,2684357082,2684357010,2684356938,2684356866,2684357082,2684357010,2684356938,2684356866,2684357082,2684357010,2684356938,2684356866,794,795,796,
577,578,579,580,577,578,579,580,577,578,579,580,577,578,579,580,577,578,579,580,577,578,579,580,577,578,579,580,577,578,579,580,577,578,579,580,577,578,579,580,577,578,579,580,577,578,579,580,577,2684357083,2684357011,2684356939,2684356867,2684357083,2684357011,2684356939,2684356867,2684357083,2684357011,2684356939,2684356867,1610614466,1610614538,580,
649,650,651,652,649,650,651,652,649,650,651,652,649,650,651,652,649,650,651,652,649,650,651,652,649,650,651,652,649,650,651,652,649,650,651,652,649,650,651,652,649,650,651,652,649,650,651,652,649,2684357084,2684357012,2684356940,2684356868,1513,1514,1514,1514,1514,1514,1514,1514,1610614465,1610614537,652,
721,722,723,724,721,722,723,724,721,722,723,724,721,722,723,724,721,722,723,724,721,722,723,724,721,722,723,724,721,722,723,724,721,722,723,724,721,722,723,724,721,722,723,724,721,722,723,724,1513,1514,1514,1514,1514,1514,1514,1586,1586,1586,1586,1586,1586,3221227996,3221227995,3221227994,
793,794,795,796,793,794,795,796,793,794,795,796,793,794,795,796,793,794,2593,2594,2595,2596,795,796,793,794,795,796,793,794,795,796,793,794,795,796,793,794,795,796,793,794,795,796,793,794,795,796,1513,1514,1513,1514,1586,1586,1513,1513,1513,1513,1514,1658,1658,3221227924,3221227923,3221227922,
577,578,579,580,577,578,579,580,577,578,579,2593,2593,2593,2593,2593,2594,2595,2665,2666,2667,2668,579,580,577,578,579,580,577,578,579,580,577,578,579,580,577,578,579,580,577,578,579,580,577,578,579,580,1513,1514,1513,1514,1513,1513,1585,1585,1585,1513,1513,1514,1658,3221227852,3221227851,3221227850,
649,650,651,652,649,650,651,652,649,650,651,2593,2594,2595,2596,2593,2593,2594,2737,2738,2739,2740,651,652,649,650,651,652,649,650,651,652,649,650,651,652,649,650,651,652,649,650,651,652,649,650,651,652,1513,1514,1513,1513,1585,1585,1657,1657,1657,1585,1585,1586,2684356868,3221227780,3221227779,3221227778,
721,722,723,724,721,722,723,724,721,722,723,2665,2666,2667,2668,2665,2593,2594,2809,2810,2811,2812,723,724,721,722,723,724,721,722,723,724,721,722,723,724,721,722,723,724,721,722,723,724,721,722,723,724,1513,1513,1585,1585,1657,1657,1657,1658,1586,1657,1657,1658,1586,3221227852,3221227851,3221227850,
793,794,795,796,793,794,795,796,793,794,795,2737,2738,2739,2740,2737,2593,2594,2595,2596,793,794,795,796,793,794,795,796,793,794,795,796,793,794,795,796,793,794,795,796,793,794,795,796,793,794,795,796,1513,1585,1657,1657,1658,1658,1658,1658,1658,1658,1658,1658,1658,3221227780,3221227779,3221227778,
577,578,579,580,577,578,579,580,577,578,579,2809,2810,2593,2594,2595,2596,2593,2594,2595,2596,578,579,580,577,578,579,580,577,578,579,580,577,578,579,580,577,578,579,580,577,578,579,580,1513,1513,1513,1513,1585,1657,1658,1585,1586,1585,1586,1586,1586,1585,1586,1657,1658,3221227852,3221227851,3221227850,
649,650,651,652,649,650,651,652,649,650,651,2593,2594,2595,2596,2667,2668,2665,2666,2667,2668,650,651,652,649,650,651,652,649,650,651,652,649,650,651,652,649,650,651,652,649,650,651,652,1585,1585,1585,1585,1657,1657,1658,1585,1585,1585,1586,1658,1658,1586,1585,1586,1658,3221227780,3221227779,3221227778,
721,722,723,724,721,722,723,724,721,722,723,2665,2666,2667,2668,2739,2740,2737,2738,2739,2740,722,723,724,721,722,723,724,721,722,723,724,721,722,723,724,721,722,723,724,721,722,723,724,1657,1657,1657,1657,1657,1658,723,1657,1657,1585,1585,1585,1586,1658,1586,1586,1658,3221227996,3221227995,3221227994,
793,794,795,796,793,794,795,796,793,794,795,2737,2738,2739,2740,2811,2812,2809,2810,2811,2812,794,795,796,793,794,795,796,793,794,795,796,793,794,795,796,793,794,795,796,793,794,795,796,793,794,795,796,793,794,795,796,793,1657,1657,1657,1585,1585,1586,1586,1658,3221227924,3221227923,3221227922,
577,578,579,580,577,578,579,580,577,578,579,2809,2810,2811,2812,2593,2594,2595,2596,2812,577,578,579,580,577,578,579,580,577,578,579,580,577,578,579,580,577,578,579,580,577,578,579,580,577,578,579,580,577,578,579,580,577,578,579,580,1657,1585,1585,1586,1658,3221227852,3221227851,3221227850,
649,650,651,652,649,650,651,652,649,650,651,2593,2594,2595,2596,2593,2594,2593,2594,2595,2596,650,651,652,649,650,651,652,649,650,651,652,649,650,651,652,649,650,651,652,649,650,651,652,649,650,651,652,649,650,651,652,649,650,651,652,649,1657,1585,1586,1658,3221227780,3221227779,3221227778,
721,722,723,724,721,722,723,724,721,722,723,2665,2593,2594,2595,2596,2594,2665,2666,2667,2668,722,723,724,721,722,723,724,721,722,723,724,721,722,723,724,721,722,723,724,721,722,723,724,721,722,723,724,721,722,723,724,721,722,723,724,721,722,1585,1586,1658,3221227996,3221227995,3221227994,
793,794,795,796,793,794,795,796,793,794,795,2737,2665,2666,2667,2668,2596,2737,2738,2739,2740,794,795,796,793,794,795,796,793,794,795,796,793,794,795,796,793,794,795,796,793,794,795,796,793,794,795,796,793,794,795,796,793,794,795,796,793,794,1585,1586,1658,3221227924,3221227923,3221227922,
577,578,579,580,577,578,579,580,577,578,579,2809,2737,2738,2739,2740,2668,2809,2810,2811,2812,578,579,580,577,578,579,580,577,578,579,580,577,578,579,580,577,578,579,580,577,578,579,580,577,578,579,580,577,578,579,580,577,578,579,580,577,578,1585,1586,1658,3221227852,3221227851,3221227850,
649,650,651,652,649,650,651,652,649,650,651,652,2809,2810,2811,2812,2740,2668,2740,652,649,650,651,652,649,650,651,652,649,650,651,652,649,650,651,652,649,650,651,652,649,650,651,652,649,650,651,652,649,650,651,652,649,650,651,652,649,650,1585,1585,1586,3221227780,3221227779,3221227778,
721,722,723,724,721,722,723,724,721,722,723,724,2809,2810,2811,2812,2812,2740,2812,724,721,722,723,724,721,722,723,724,721,722,723,724,721,722,723,724,721,722,723,724,721,722,723,724,721,722,723,724,721,722,723,724,721,722,723,724,721,722,1657,1585,1586,3221227996,3221227995,3221227994,
793,794,795,796,793,794,795,796,793,794,795,796,793,2809,2810,2811,2812,2812,795,796,793,794,795,796,793,794,795,796,793,794,795,796,793,794,795,796,793,794,795,796,793,794,795,796,793,794,795,796,793,794,795,796,793,794,795,796,793,794,795,1585,1586,3221227924,3221227923,3221227922,
577,578,579,580,577,578,579,580,577,578,579,580,577,578,579,580,577,578,579,580,577,578,579,580,577,578,579,580,577,578,579,580,577,578,579,580,577,578,579,580,577,578,579,580,577,578,579,580,577,578,579,580,577,578,579,580,577,578,579,1657,1658,3221227852,3221227851,3221227850,
649,650,651,652,649,650,651,652,649,650,651,652,649,650,651,652,649,650,651,652,649,650,651,652,649,650,651,652,649,650,651,652,649,650,651,652,649,650,651,652,649,650,651,652,649,650,651,652,649,650,651,652,649,650,651,652,649,650,651,1657,1658,3221227780,3221227779,3221227778,
721,722,723,724,721,722,723,724,721,722,723,724,721,722,723,724,721,722,723,724,721,722,723,724,721,722,723,724,721,722,723,724,721,722,723,724,721,722,723,724,721,722,723,724,721,722,723,724,721,722,723,724,721,722,723,724,721,722,723,1657,1658,3221227996,3221227995,3221227994,
793,794,795,796,793,794,795,796,793,794,795,796,793,794,795,796,793,794,795,796,793,794,795,796,793,794,795,796,793,794,795,796,793,794,795,796,793,794,795,796,793,794,795,796,793,794,795,796,793,794,795,796,793,794,795,796,793,794,795,1657,1658,3221227924,3221227923,3221227922,
577,578,579,580,577,578,579,580,577,578,579,580,577,578,579,580,577,578,579,580,577,578,579,580,577,578,579,580,577,578,579,580,577,578,579,580,577,578,579,580,577,578,579,580,577,578,579,580,577,578,579,580,577,578,579,580,577,578,579,1657,1658,3221227852,3221227851,3221227850,
649,650,651,652,649,650,651,652,649,650,651,652,649,650,651,652,649,650,651,652,649,650,651,652,649,650,651,652,649,650,651,652,649,650,651,652,649,650,651,652,649,650,651,652,649,650,651,652,649,650,651,652,649,650,651,652,649,650,1585,1657,1658,3221227780,3221227779,3221227778,
721,1610616050,1610616122,724,721,722,723,724,721,722,723,724,721,722,723,724,721,722,723,724,721,722,723,724,721,722,723,724,721,722,723,724,721,722,723,724,721,722,723,724,721,722,723,724,721,722,723,724,721,722,723,724,721,722,723,724,721,1585,1657,1657,1658,3221227996,3221227995,3221227994,
793,1610616049,1610616121,796,793,794,795,796,793,794,795,796,793,794,795,796,793,794,795,796,793,794,795,796,793,794,795,796,793,794,795,796,793,794,795,796,793,794,795,796,793,794,795,796,793,794,795,796,793,794,795,796,793,794,795,796,793,1657,1657,1658,1658,1586,3221227923,3221227922,
3221228571,3221228570,3221228569,2881,2881,578,579,580,577,578,579,580,577,578,579,580,577,578,579,580,577,578,579,580,577,578,579,580,577,578,579,580,577,578,579,580,577,578,579,580,577,578,579,580,577,578,579,580,577,578,579,580,577,578,579,580,1585,1585,1585,1585,1657,1658,3221227851,3221227850,
3221228499,3221228498,3221228497,2881,2953,2881,2881,2881,2881,2881,2881,652,649,650,651,652,649,650,651,652,649,650,651,652,649,650,651,652,649,650,651,652,649,650,651,652,649,650,651,652,649,650,651,652,649,650,651,652,649,650,651,652,649,650,651,652,1657,1657,1657,1657,1657,1658,3221227779,3221227778,
3221228427,3221228426,3221228425,2881,3025,2953,2953,2953,2953,2953,2953,2881,2882,2883,723,724,721,722,723,724,721,722,723,724,721,722,723,724,721,722,723,724,721,722,723,724,721,722,723,724,721,722,723,724,721,722,723,724,721,722,723,724,721,722,723,2019,2020,1610615044,1610615116,1610615188,1610615260,1610614756,1610614828,724,
3221228355,3221228354,3221228353,2881,3097,3025,3025,3025,3025,3025,2881,2953,2954,2955,795,796,793,794,795,796,793,794,795,796,793,794,795,796,793,794,795,796,793,794,795,796,793,794,795,796,793,794,795,796,793,794,795,796,793,794,795,796,793,794,795,2091,2092,1610615043,1610615115,1610615187,1610615259,1610614755,1610614827,796,
3221228571,3221228570,3221228569,2881,3097,3097,3097,3097,3097,3097,2953,3025,3026,3027,579,580,577,578,579,580,577,578,579,580,577,578,579,580,577,578,579,580,577,578,579,580,577,578,579,580,577,578,579,580,577,578,579,580,577,578,579,580,577,578,579,580,577,1610615042,1610615114,1610615186,1610615258,578,579,580,
3221228499,3221228498,3221228497,2881,2881,2881,2881,2881,2881,2881,3025,3097,3098,3099,651,652,649,650,651,652,649,650,651,652,649,650,651,652,649,650,651,652,649,650,651,652,649,650,651,652,649,650,651,652,649,650,651,652,649,650,651,652,649,650,651,652,649,650,651,652,649,650,651,652,
3221228427,3221228426,3221228425,2953,2953,2953,2953,2953,2953,2953,3097,3025,3026,3027,723,724,721,722,723,724,721,722,723,724,721,722,723,724,721,722,723,724,721,722,723,724,721,722,723,724,721,722,723,724,721,722,723,724,721,722,723,724,721,722,723,724,721,722,723,724,721,722,723,724,
3221228355,3221228354,3221228353,3025,3025,3025,3025,3025,3025,3025,3097,3097,3098,3099,795,796,793,794,795,796,793,794,795,796,793,794,795,796,793,794,795,796,793,794,795,796,793,794,795,796,793,794,795,796,793,794,795,796,793,794,795,796,793,794,795,796,793,794,795,796,793,794,795,796,
577,3221228858,3221228857,3097,3097,3097,3097,3097,3097,3097,3097,2684357945,2684357873,578,579,580,577,578,579,580,577,578,579,580,577,578,579,580,577,578,579,580,577,578,579,580,577,578,579,580,577,578,579,580,577,578,579,580,577,578,579,580,577,578,579,580,577,578,579,580,577,578,579,580,
649,3221228786,3221228785,2684357658,2684357586,2684357514,2684357442,2684357658,2684357586,2684357514,2684357442,2684357946,2684357874,650,651,652,649,650,651,652,649,650,651,652,649,650,651,652,649,650,651,652,649,650,651,652,649,650,651,652,649,650,651,652,649,650,651,652,649,650,651,652,649,650,651,652,649,650,651,652,649,650,651,652,
721,722,723,2684357659,2684357587,2684357515,2684357443,2684357659,2684357587,2684357515,2684357443,2684357947,2684357875,722,723,724,721,722,723,724,721,722,723,724,721,722,723,724,721,722,723,724,721,722,723,724,721,722,723,724,721,722,723,724,721,722,723,724,721,722,723,724,721,722,723,724,721,722,723,724,721,722,723,724,
793,794,795,796,793,794,795,796,793,794,795,796,793,794,795,796,793,794,795,796,793,794,795,796,793,794,795,796,793,794,795,796,793,794,795,796,793,794,795,796,793,794,795,796,793,794,795,796,793,794,795,796,793,794,795,796,793,794,795,796,793,794,795,796
</data>
 </layer>
 <layer id="2" name="track" width="64" height="64">
  <data encoding="csv">
0,0,0,0,0,0,0,0,0,0,0,0,0,0,0,0,0,0,0,0,0,0,0,0,0,0,0,0,0,0,0,0,0,0,0,0,0,0,0,0,0,0,0,0,0,0,0,0,0,0,0,0,0,0,0,0,0,0,0,0,0,0,0,0,
0,0,0,0,0,0,0,0,0,0,0,0,0,0,0,0,0,0,0,0,0,0,0,0,0,0,0,0,0,0,0,0,0,0,0,0,0,0,0,0,0,0,0,0,0,0,0,0,0,0,0,0,0,0,0,0,0,0,0,0,0,0,0,0,
0,0,0,0,0,0,0,0,0,0,0,0,0,0,0,0,1610615352,1610615424,1610615496,1610615568,2903,2904,2901,2902,2903,2904,2901,2902,2903,2904,2901,2902,2903,2904,2901,2902,2903,2904,2901,2902,2903,2904,2901,3478,3479,2684357965,2684357893,2684357821,2684357749,0,0,0,0,2040,0,0,0,0,0,0,0,0,0,0,
0,0,0,0,0,0,0,0,0,0,0,0,0,0,0,0,1610615351,1610615423,1610615495,1610615567,2975,2976,2973,2974,2975,2976,2973,2974,2975,2976,2973,2974,2975,2976,2973,2974,2975,2976,2973,2974,2975,2976,2963,2964,2964,2684357966,2684357894,2684357822,2684357750,0,0,0,0,0,0,0,0,0,0,0,0,0,0,0,
0,0,0,0,0,0,0,0,0,0,0,0,0,0,0,0,1610615350,1610615422,1610615494,1610615566,3047,3048,3045,3046,3047,3048,3045,3046,3047,3048,3045,3046,3047,3048,3045,3046,3047,3048,3045,3046,3047,3048,2963,2964,3036,2684357967,2684357895,2684357823,2684357751,0,0,0,0,0,0,0,0,0,0,0,0,0,0,0,
0,0,0,0,0,0,0,0,0,0,0,0,0,0,0,0,1610615349,1610615421,1610615493,2963,2964,3120,3117,3118,3119,3120,3117,3118,3119,3120,3117,3118,3119,3120,3117,3118,3119,3120,3117,3118,3119,3120,2963,2963,2963,2964,2684357896,2684357824,2684357752,0,0,0,0,0,0,0,0,0,0,0,0,0,0,0,
0,0,0,0,0,0,0,0,0,0,0,0,0,0,0,0,2684357669,2684357597,2684357525,1242,1243,1243,1243,1243,1243,1243,1243,2894,2895,2896,2893,2894,2895,2896,2893,2894,2895,2896,2893,2894,2895,2896,3035,3035,2963,2964,1610616286,1610616358,1610616430,0,0,0,0,0,0,0,0,0,0,0,0,0,0,0,
0,0,0,0,0,0,0,0,0,0,0,0,0,0,0,0,2684357670,2684357598,2684357526,1314,1315,1315,1315,1315,1315,1315,1315,2966,2967,2968,2965,2966,2967,2968,2965,2966,2967,2968,2965,2966,2967,2968,2963,2964,2964,2963,2964,1610616357,1610616429,0,0,0,0,0,0,0,0,0,0,0,0,0,0,0,
0,0,0,0,0,0,0,0,0,0,0,0,0,0,0,0,2684357671,2684357599,2684357527,1386,1242,2962,2963,2964,2964,1387,1387,3038,3039,3040,3037,3038,3039,3040,3037,3038,3039,3040,3037,3038,3039,2890,2890,2891,2892,2964,2964,1610616358,1610616430,0,0,0,0,0,0,0,0,0,0,0,0,0,0,0,
0,0,0,0,0,0,0,0,0,0,0,0,0,0,0,0,2684357672,2684357600,2684357528,2684357456,2962,2963,2964,2964,3036,3221229084,3221229083,3221229082,3221229081,3221229084,3221229083,3221229082,3221229081,3221229084,3221229083,3221229082,3221229081,3221229084,3221229083,3221229082,3221229081,2962,2890,2891,2892,2964,3036,1610616357,1610616429,0,0,0,0,0,0,0,0,0,0,0,0,0,0,0,
0,0,2684357373,2684357301,3477,3478,3479,3480,3477,3478,3479,3480,3477,3478,3479,3480,3749,2962,2963,2964,2964,2964,2964,3036,3108,3221229012,3221229011,3221229010,3221229009,3221229012,3221229011,3221229010,3221229009,3221229012,3221229011,3221229010,3221229009,3221229012,3221229011,3221229010,2890,3034,2890,2891,2892,2964,1610616288,1610616360,1610616432,0,0,0,0,0,0,0,0,0,0,0,0,0,0,0,
0,0,2684357374,2684357302,3549,3550,3551,3552,3549,3550,3551,3552,3549,3550,3551,3552,2962,2962,2963,2964,3036,3036,3036,3108,3104,3221228940,3221228939,3221228938,3221228937,3221228940,3221228939,3221228938,3221228937,3221228940,3221228939,3221228938,3221228937,3221228940,3221228939,3105,2962,3034,2890,2891,2892,2964,1610616287,1610616359,1610616431,0,0,0,0,0,0,0,0,0,0,0,0,0,0,0,
0,0,2684357375,2684357303,3621,3622,3623,3624,3621,3622,3623,3624,3621,3622,3623,3624,3034,3034,3035,3036,3108,3108,3108,1610616360,1610616432,0,0,0,0,0,0,0,0,0,0,0,0,0,0,1610616204,3034,3034,2890,2891,2892,2964,1610616286,1610616358,1610616430,0,0,0,3221226137,0,0,0,0,0,0,0,0,0,0,0,
0,0,2684357376,2684357304,2962,2962,2962,2962,2962,2962,2962,2962,2962,2962,2962,2963,2964,3106,3107,2962,2963,2964,1610616287,1610616359,1610616431,0,0,0,0,0,0,0,0,0,0,0,0,0,0,1610616203,1610616275,1610616347,2890,2891,2892,2964,1610616285,1610616357,1610616429,0,0,0,3221226065,0,0,0,0,0,0,0,0,0,0,0,
0,0,3221228300,3221228299,3034,3034,3034,3034,3034,3034,3034,3034,3034,3034,3034,3035,3036,2964,2964,2964,2964,2964,1610616286,1610616358,1610616430,0,0,0,0,0,0,0,0,0,0,0,0,0,593,1610616202,1610616274,1610616346,2890,2891,2892,2964,1610616288,1610616360,1610616432,0,0,0,0,0,0,0,0,0,0,0,0,0,0,0,
0,0,3221228228,3221228227,3106,3106,3106,3106,3106,3106,3106,3106,3106,3106,3106,3107,3108,3036,3036,3036,3036,3036,1610616285,1610616357,1610616429,0,0,0,0,0,0,0,0,0,0,0,0,0,665,1610616201,1610616273,1610616345,2890,2891,2892,2964,1610616287,1610616359,1610616431,0,0,0,0,0,0,0,0,0,0,0,0,0,0,0,
0,0,3221228156,3221228155,3106,3107,3108,3108,3036,3036,3036,3036,3036,3036,3036,3108,3108,3108,3108,3108,3108,3108,2034,2035,2036,0,0,0,0,0,0,0,0,0,0,0,0,0,0,1610616204,1610616276,1610616348,2890,2891,2892,2964,1610616286,1610616358,1610616430,0,3221226137,0,0,0,0,0,0,0,0,0,0,0,0,0,
0,0,3221228084,3221228083,3221228082,3106,3107,3108,3108,3108,3108,3108,3108,3108,3108,1610616635,1610616707,1610616491,1610616563,1610616635,1610616707,2105,2106,2107,2108,0,0,0,0,0,0,0,0,0,0,0,0,0,0,1610616203,1610616275,1610616347,2962,2963,2964,2964,1610616285,1610616357,1610616429,0,3221226065,0,0,0,0,0,0,0,0,0,0,0,0,0,
0,0,3221228300,3221228299,3221228298,3221228297,2962,2963,2964,2964,2964,3901,3902,1610616490,1610616562,1610616634,1610616706,1610616490,1610616562,1610616634,1610616706,2177,2178,2179,2180,0,0,0,0,0,0,0,0,0,0,0,0,0,0,1610616202,1610616274,2890,3034,3035,3036,2964,1610616288,1610616360,1610616432,0,0,0,0,0,0,0,0,0,0,0,0,0,0,0,
0,0,3221228228,3221228227,3221228226,3221228225,2962,2963,2964,3036,3036,2684358316,3974,1610616489,1610616561,1610616633,1610616705,1610616489,1610616561,1610616633,1610616705,2249,2250,2251,2252,0,0,0,0,0,0,0,0,0,0,0,0,0,0,1610616201,1610616273,2962,2963,2964,2963,2964,1610616287,1610616359,1610616431,0,0,0,0,0,0,0,0,0,0,0,0,0,0,0,
0,0,3221228156,3221228155,3221228154,3221228153,2962,2963,2964,3108,3108,3221229441,0,0,0,0,0,0,0,0,0,0,0,0,0,0,0,0,0,0,0,0,0,0,0,0,0,0,0,1610616204,1610616276,3034,3035,3036,2963,2964,1610616286,1610616358,1610616430,0,0,0,0,0,0,0,0,0,0,0,0,0,0,0,
0,0,3221228084,3221228083,3221228082,3221228081,2962,2963,2964,3221229371,3221229370,3221229369,0,0,0,0,0,0,0,0,0,0,0,0,0,0,0,0,0,0,0,0,0,0,0,0,0,0,0,1610616203,1610616275,3034,3035,3036,2963,2964,1610616285,1610616357,1610616429,0,0,0,0,0,0,0,0,0,0,0,0,0,0,0,
0,0,3221228300,3221228299,3221228298,3221228297,2962,2963,2964,3221229299,3221229298,3221229297,0,0,0,0,0,0,0,0,0,0,0,0,0,0,0,0,0,0,0,0,0,0,0,0,0,0,0,1610616202,1610616274,3034,3035,3036,2963,2964,1610616288,1610616360,1610616432,0,0,0,0,0,0,0,0,0,0,0,0,0,0,0,
0,0,3221228228,3221228227,3221228226,3221228225,2962,2963,2964,3221229227,3221229226,3221229225,0,0,0,0,0,0,0,0,0,0,0,0,0,0,0,0,0,0,0,0,0,0,0,0,0,0,0,1610616201,1610616273,3034,3035,3036,2963,2964,1610616287,1610616359,1610616431,0,0,0,0,0,0,0,0,0,0,0,0,0,0,0,
0,0,3221228156,3221228155,3221228154,3221228153,2962,2963,2964,3221229443,3221229442,3221229441,0,0,0,0,0,0,0,0,0,0,0,0,0,0,0,0,0,0,0,0,0,0,0,0,0,0,0,1610616204,1610616276,3034,3035,3036,2963,2964,1610616286,1610616358,1610616430,0,0,0,0,0,0,0,0,0,0,0,0,0,0,0,
0,0,3221228084,3221228083,3221228082,3221228081,2962,2963,2964,3221229371,3221229370,3221229369,0,0,0,0,0,0,0,0,0,0,0,0,0,0,0,0,0,0,0,0,0,0,0,0,0,0,0,1610616203,1610616275,3034,3035,3036,2963,2964,1610616285,1610616357,1610616429,0,0,0,0,0,0,0,0,0,0,0,0,0,0,0,
0,0,3221228300,3221228299,3221228298,3221228297,2962,2962,2963,2964,3221229298,3221229297,0,0,0,0,0,0,0,0,2684357957,2684357957,2684357885,2684357813,2684357741,3477,3478,3479,3480,3477,3478,3479,3480,3477,3478,3479,3480,3467,3468,3177,1610616274,3034,3035,3036,2892,2964,1610616288,1610616360,1610616432,0,0,0,0,0,0,0,0,0,0,0,0,0,0,0,
0,0,3221228228,3221228227,3221228226,3221228225,3034,2962,2963,2964,3221229226,3221229225,0,0,0,0,0,0,0,0,0,2684357958,2684357886,2684357814,2684357742,3549,3550,3551,3552,3549,3550,3551,3552,3549,3550,3551,3552,3539,2890,2890,2890,3034,3035,3036,2964,3036,1610616287,1610616359,1610616431,0,0,0,0,0,0,0,0,0,0,0,0,0,0,0,
0,0,3221228156,3221228155,3221228154,2962,2963,2964,2963,2964,3221229442,3221229441,0,0,0,0,0,0,0,0,0,2684357959,2684357887,2684357815,2684357743,2962,2963,2964,3624,3621,3622,3623,3624,3621,3622,3623,3624,3611,2962,2962,2962,3034,3035,3036,3036,2963,1610616286,1610616358,1610616430,0,0,0,0,0,0,0,0,0,0,0,0,0,0,0,
0,0,3221228084,3221228083,3221228082,3034,3035,3036,2963,2964,3221229370,3221229369,0,0,0,0,0,0,0,0,0,2684357960,2684357888,2890,2962,2963,2964,2964,2964,2964,2964,2964,2964,2964,2964,2891,2892,2963,3034,3034,3034,3034,3034,3035,3036,3035,1610616285,1610616357,1610616429,0,0,0,0,0,0,0,0,0,0,0,0,0,0,0,
0,0,3221228300,3221228299,3221228298,3106,3107,3108,2963,2964,3221229298,3221229297,0,0,0,0,0,0,0,0,0,1610616202,1610616274,2962,2962,2963,2964,3036,3036,3036,3036,3036,3036,3036,3036,2963,2964,3035,3035,3035,3035,3035,3035,3035,3035,3035,3035,1610616064,1610616136,0,0,0,0,0,0,0,0,0,0,0,0,0,0,0,
0,0,3221228228,3221228227,3221228226,3106,3107,3108,2962,2963,2964,3221229225,0,0,0,0,0,0,0,0,0,1610616201,1610616273,3034,2962,2963,2964,3108,3108,3108,2962,2963,2964,2964,3108,3035,3036,1314,1315,1315,2963,3035,3035,3221228518,3221228517,1610615919,1610615991,1610616063,1610616135,0,0,0,0,0,0,0,0,0,0,0,0,0,0,0,
0,0,3221228156,3221228155,3221228154,3106,3107,3108,3034,3035,3036,2684358037,0,0,0,0,0,0,0,0,0,3329,3330,3331,2962,2963,2964,2962,2963,2964,2964,2964,2964,3036,2964,1386,1387,1386,1387,1387,3035,3035,3221228447,3221228446,3221228445,1610615918,1610615990,1610616062,1610616134,0,0,0,0,0,0,0,0,0,0,0,0,0,0,0,
0,0,3221228084,3221228083,3221228082,3106,3107,3108,3106,3107,3108,2684358038,0,0,0,0,0,0,0,0,0,3401,3402,3403,2962,2963,2964,2962,2963,2962,2684357164,2684357092,2684357020,2684357092,2684357020,2684357092,2684357020,2684357092,2684357020,2684357092,2684357020,2684357092,2684357020,3221228374,3221228373,1610615917,1610615989,1610616061,1610616133,0,0,0,0,0,0,0,0,0,0,0,0,0,0,0,
0,0,3753,3754,3755,3106,3107,3108,3907,4118,4119,2684358039,0,0,0,0,0,0,0,0,0,3185,3186,3187,2962,2962,2963,2962,2962,3034,2684357165,2684357093,2684357021,2684357093,2684357021,2684357093,2684357021,2684357093,2684357021,2684357093,2684357021,2684357093,2684357021,3473,3474,3473,3474,3473,3474,3473,3474,3473,3474,3473,3474,2684357965,2684357893,2684357821,2684357749,0,0,0,0,0,
0,0,3825,3826,3827,3041,3042,3978,4118,4119,4119,2684358040,0,0,0,0,0,0,0,0,0,3257,3258,3259,3034,2962,2963,3034,2962,3106,3107,3108,3108,3036,3108,3036,2969,1386,1387,1387,1243,3545,3546,3545,3546,3545,3546,3545,3546,3545,3546,3545,3546,3545,3546,2684357966,2684357894,2684357822,2684357750,0,0,0,0,0,
0,0,3897,3898,3899,3041,3042,3906,4118,4119,4191,2684358037,0,0,0,0,0,0,0,0,0,3329,3330,3331,3106,2962,2962,3106,3034,3034,3106,3107,3108,3108,3108,3108,3041,2969,2970,1314,1315,3617,3618,3617,3618,3617,3618,3617,3618,3617,3618,3617,3618,3617,3618,2684357967,2684357895,2684357823,2684357751,0,0,0,0,0,
0,0,3969,3970,3971,3041,3042,3978,4118,4119,4119,2684358038,0,0,0,0,0,0,0,0,0,3401,3402,3403,3404,3034,3034,2962,3106,3106,3106,3106,3107,3108,3107,3108,2969,3041,2969,1386,1387,2971,2971,3043,3043,3043,3043,3043,3043,3043,3043,3043,3043,3043,3043,2971,2684357896,2684357824,2684357752,0,0,0,0,0,
0,0,3753,3754,3755,3041,3042,3906,4118,4118,4119,2684358039,0,0,0,0,0,0,0,0,0,2321,2322,2323,2324,3106,3106,3034,3034,3034,3034,3034,3106,3107,3108,2324,3041,3041,3041,3042,3043,3043,3043,2970,2969,3041,3042,3043,3043,3043,3043,3043,3043,3043,3043,2971,3462,3463,3464,0,0,0,0,0,
0,0,3825,3826,3827,3041,3042,3978,4190,4118,4119,2684358040,0,0,0,0,0,0,0,0,0,2393,2394,2395,2396,3221229096,3221229095,3106,3106,3106,3106,3106,3106,3107,3108,3221229094,3221229093,3221229096,3221229095,3221229094,3221229093,3221229096,3221229095,3221229094,3221229093,3221229096,3221229095,3221229094,3221229093,3832,2969,2969,3041,3042,3043,2971,2971,3535,3536,0,0,0,0,0,
0,0,3897,3898,3899,3041,3042,3906,4118,4118,4119,2684358037,0,0,0,0,0,0,0,0,0,2465,2466,2467,2468,3221229024,3221229023,3221229022,3221229021,3221229024,3221229023,3221229022,3221229021,3221229024,3221229023,3221229022,3221229021,3221229024,3221229023,3221229022,3221229021,3221229024,3221229023,3221229022,3221229021,3221229024,3221229023,3221229022,3221229021,3904,3041,2969,3041,3042,3043,3043,2971,3607,3608,0,0,0,0,0,
0,0,3969,3970,3971,3041,3042,3978,4190,4118,4119,2684358038,0,0,0,0,0,0,0,0,2537,2537,2538,2539,2540,3221228952,3221228951,3221228950,3221228949,3221228952,3221228951,3221228950,3221228949,3221228952,3221228951,3221228950,3221228949,3221228952,3221228951,3221228950,3221228949,3221228952,3221228951,3221228950,3221228949,3221228952,3221228951,3221228950,3221228949,3976,3677,3041,2969,3041,3042,3043,2971,3679,3680,0,0,0,0,0,
0,0,3753,3754,3755,3041,3042,3906,4190,4118,4119,2684358039,0,0,0,0,0,0,0,0,0,0,0,0,0,0,0,0,0,0,0,0,0,0,0,0,0,0,0,0,0,0,0,0,0,0,0,0,0,0,3753,3754,2969,3041,3042,3043,3043,3463,3464,0,0,0,0,0,
0,0,3825,3826,3827,3041,3042,3978,4190,4118,4119,2684358040,0,0,0,0,0,0,0,0,0,0,0,0,0,0,0,0,0,0,0,0,0,0,0,0,0,0,0,0,0,0,0,0,0,0,0,0,0,0,3825,3826,3041,2969,2969,2970,3534,3535,3536,0,0,0,0,0,
0,0,3897,3898,3899,3041,3042,3906,4190,4190,4191,2604,3477,3478,3477,3478,3479,3480,3477,3478,3479,3480,3477,3478,3479,3480,3477,3478,3479,3480,3477,3478,3479,3480,3477,3478,3479,3480,3477,3478,3479,3480,3477,3478,3479,3480,3477,3478,3479,3480,2605,3898,2969,3041,2969,2970,3606,3607,3608,0,0,0,0,0,
0,0,3969,3970,3971,3041,3042,4118,4119,4190,4191,4119,3549,3550,3551,3552,4119,4119,4119,4119,4119,4119,4119,4119,4119,4119,4119,4119,4119,4119,4119,4119,4119,4119,4119,4119,4119,2684359317,2684359245,4119,4119,4119,3549,3550,3551,3552,3549,3550,3551,3552,4119,4119,3041,3042,2969,2970,3678,3679,3680,0,0,0,0,0,
0,0,3753,3754,2969,3041,3042,4190,4191,4191,4191,4191,4191,4191,4191,4191,4191,4191,4191,4191,655,656,4191,4191,4191,4191,4191,4191,4191,655,656,4191,4191,4191,4191,4191,4191,2684359318,2684359246,4191,4191,4191,4191,4191,4191,4191,4191,4191,4191,4191,4191,4191,1167,3041,3041,2969,3462,3463,3464,0,0,0,0,0,
0,0,3825,3826,2969,3041,3042,2970,2969,2970,2970,2974,2975,2976,2973,2974,4118,4118,4118,4118,727,728,4118,4118,4118,4118,4118,4118,4119,727,728,4119,4119,4119,4119,4119,4119,2684359319,2684359247,4119,4119,4119,4119,2974,2975,2976,2973,2974,2975,2976,1237,1238,1239,1240,2969,2970,3534,3535,3536,0,0,0,0,0,
0,0,3897,3898,3041,3041,3042,3042,2969,2970,3042,3046,3047,3048,3045,3046,4190,4190,4190,4190,4190,4190,4190,4190,4190,4190,4190,4190,4191,4191,4191,4191,4191,4191,4191,4191,4191,2684359320,2684359248,4191,4191,4191,4191,3046,3047,3048,3045,3046,3047,3048,1309,1310,1311,1312,3041,3042,3606,3607,3608,0,0,0,0,0,
0,0,3969,3970,3971,3246,3041,3042,2969,2970,3178,3179,3119,3120,3117,3118,3119,3120,3117,4190,4191,4191,4191,4191,4191,4191,4191,4191,4191,4191,4190,4190,4190,4190,4190,4190,4190,2684359317,2684359245,4190,4190,4191,3117,3118,3119,3120,3117,3118,3119,3120,1381,1382,1383,1384,2969,2970,3678,3679,3680,0,0,0,0,0,
0,0,3181,3182,3183,3318,3041,3042,2969,2970,3250,3251,2893,2894,2895,2896,2893,2894,2895,2896,2893,2894,2895,655,656,1527,1526,1527,2893,2894,1526,1527,655,656,2895,2896,2896,2684359318,2684359246,4324,3221228592,3221228591,3221228590,3221228589,3221228592,3221228591,3221228590,3221228592,3221228591,3221228590,3221228589,3221228592,3221228591,3221228590,3041,3042,2606,2607,2608,0,0,0,0,0,
0,0,3253,3254,3255,3256,3545,3546,3041,3042,3545,3546,2965,2966,2967,2968,2965,2966,2967,2968,2965,2966,2967,727,728,1599,1598,1599,2965,2966,1598,1599,727,728,2967,2968,2968,2684359319,2684359247,4396,3221228520,3221228519,3221228518,3221228517,3221228520,3221228519,3221228518,3221228520,3221228519,3221228518,3221228517,3221228520,3221228519,3221228518,3221228517,2677,2678,2679,2680,0,0,0,0,0,
0,0,3325,3326,3327,3328,3617,3618,3617,3618,3617,3618,3037,3038,3039,3040,3037,3038,3039,3040,3037,3038,3039,3040,3037,3038,3039,3040,3037,3038,3039,3040,3037,3038,3039,3040,3040,2684359320,2684359248,4468,3221228448,3221228447,3221228446,3221228445,3221228448,3221228447,3221228446,3221228448,3221228447,3221228446,3221228445,3221228448,3221228447,3221228446,3221228445,2749,2750,2751,2752,0,0,0,0,0,
0,0,3397,3398,3399,3400,3689,3690,3689,3690,3689,3690,3109,3110,3111,3112,3109,3110,3111,3112,3109,3110,3111,3112,3109,3110,3111,3112,3109,3110,3111,3112,3109,3110,3111,3112,3221228952,3221228951,3221228950,3221228949,3221228376,3221228375,3221228374,3221228373,3221228376,3221228375,3221228374,3221228376,3221228375,3221228374,3221228373,3221228376,3221228375,3221228374,3221228373,2821,2822,2823,2824,0,0,0,0,0,
0,0,0,0,0,0,0,0,0,0,0,0,0,0,0,0,0,0,0,0,0,0,0,0,0,0,0,0,0,0,0,0,0,0,0,0,0,0,0,0,0,0,0,0,0,0,0,0,0,0,0,0,0,0,0,0,0,0,0,0,0,0,0,0,
0,0,0,0,0,0,0,0,0,0,0,0,0,0,0,0,0,0,0,0,0,0,0,0,0,0,0,0,0,0,0,0,0,0,0,0,0,0,0,0,0,0,0,0,0,0,0,0,0,0,0,0,0,0,0,0,0,0,0,0,0,0,0,0,
0,0,0,0,0,0,0,0,0,0,0,0,0,0,0,0,0,0,0,0,0,0,0,0,0,0,0,0,0,0,0,0,0,0,0,0,0,0,0,0,0,0,0,0,0,0,0,0,0,0,0,0,0,0,0,0,0,0,0,0,0,0,0,0,
0,0,0,0,0,0,0,0,0,0,0,0,0,0,0,0,0,0,0,0,0,0,0,0,0,0,0,0,0,0,0,0,0,0,0,0,0,0,0,0,0,0,0,0,0,0,0,0,0,0,0,0,0,0,0,0,0,0,0,0,0,0,0,0,
0,0,0,0,0,0,0,0,0,0,0,0,0,0,0,0,0,0,0,0,0,0,0,0,0,0,0,0,0,0,0,0,0,0,0,0,0,0,0,0,0,0,0,0,0,0,0,0,0,0,0,0,0,0,0,0,0,0,0,0,0,0,0,0,
0,0,0,0,0,0,0,0,0,0,0,0,0,0,0,0,0,0,0,0,0,0,0,0,0,0,0,0,0,0,0,0,0,0,0,0,0,0,0,0,0,0,0,0,0,0,0,0,0,0,0,0,0,0,0,0,0,0,0,0,0,0,0,0,
0,0,0,0,0,0,0,0,0,0,0,0,0,0,0,0,0,0,0,0,0,0,0,0,0,0,0,0,0,0,0,0,0,0,0,0,0,0,0,0,0,0,0,0,0,0,0,0,0,0,0,0,0,0,0,0,0,0,0,0,0,0,0,0,
0,0,0,0,0,0,0,0,0,0,0,0,0,0,0,0,0,0,0,0,0,0,0,0,0,0,0,0,0,0,0,0,0,0,0,0,0,0,0,0,0,0,0,0,0,0,0,0,0,0,0,0,0,0,0,0,0,0,0,0,0,0,0,0,
0,0,0,0,0,0,0,0,0,0,0,0,0,0,0,0,0,0,0,0,0,0,0,0,0,0,0,0,0,0,0,0,0,0,0,0,0,0,0,0,0,0,0,0,0,0,0,0,0,0,0,0,0,0,0,0,0,0,0,0,0,0,0,0,
0,0,0,0,0,0,0,0,0,0,0,0,0,0,0,0,0,0,0,0,0,0,0,0,0,0,0,0,0,0,0,0,0,0,0,0,0,0,0,0,0,0,0,0,0,0,0,0,0,0,0,0,0,0,0,0,0,0,0,0,0,0,0,0
</data>
 </layer>
 <layer id="3" name="scenery" width="64" height="64">
  <data encoding="csv">
0,0,0,0,0,0,0,0,0,0,0,0,0,0,0,0,0,0,0,0,0,0,0,0,0,0,0,0,0,0,0,0,0,0,0,0,0,0,0,0,0,0,0,0,0,0,0,0,0,0,0,0,0,0,0,0,0,0,0,0,0,0,0,0,
0,0,0,0,0,0,0,0,0,0,0,0,0,0,0,0,0,0,0,0,0,0,0,0,0,0,0,0,0,0,0,0,0,0,0,0,0,0,0,0,0,0,0,0,0,0,0,0,0,0,0,0,0,0,0,0,0,0,0,0,0,0,0,0,
0,0,0,0,0,0,0,0,0,0,0,0,0,0,0,0,0,0,0,0,0,0,0,0,0,0,0,0,0,0,0,0,0,0,0,0,0,0,0,0,0,0,0,0,0,0,0,0,0,0,0,0,0,0,0,2684360165,2684360137,2684360109,2684360081,2684360053,2684360025,2684359997,0,0,
0,0,0,0,0,0,0,0,0,0,0,0,0,0,0,0,0,0,0,0,0,0,0,0,0,0,0,0,0,0,0,0,0,0,0,0,0,0,0,0,0,0,0,0,0,0,0,0,0,0,0,0,0,0,0,2684360166,2684360138,2684360110,2684360082,2684360054,2684360026,2684359998,0,0,
0,0,0,0,0,0,0,0,0,0,0,0,0,0,0,0,0,0,0,0,0,0,0,0,0,0,0,0,0,0,0,0,0,0,0,0,0,0,0,0,0,0,0,0,0,0,0,0,0,0,0,0,0,0,0,2684360167,2684360139,2684360111,2684360083,2684360055,2684360027,2684359999,0,0,
0,0,0,0,0,0,0,0,0,0,0,0,0,0,0,0,0,0,0,0,0,0,0,0,0,0,0,0,0,0,0,0,0,0,0,0,0,0,0,0,0,0,0,0,0,0,0,0,0,0,0,0,0,0,0,2684360168,2684360140,2684360112,2684360084,2684360056,2684360028,2684360000,0,0,
0,0,0,0,0,0,0,0,0,0,0,0,0,0,0,0,0,0,0,0,0,0,0,0,0,0,0,0,0,0,0,0,0,0,0,0,0,0,0,0,0,0,0,0,0,0,0,0,0,0,0,0,0,0,0,2684360169,2684360141,2684360113,2684360085,2684360057,2684360029,2684360001,0,0,
0,0,0,0,0,0,0,0,0,0,0,0,0,0,0,0,0,0,0,0,0,0,0,0,0,0,0,0,0,0,0,0,0,0,0,0,0,0,0,0,0,0,0,0,0,0,0,0,0,0,0,0,0,0,0,2684360170,2684360142,2684360114,2684360086,2684360058,2684360030,2684360002,0,0,
0,0,0,0,0,0,0,0,0,0,0,0,0,0,0,0,0,0,0,0,0,0,0,0,0,0,0,0,0,0,0,0,0,0,0,0,0,0,0,0,0,0,0,0,0,0,0,0,0,0,0,0,0,0,0,2684360171,2684360143,2684360115,2684360087,2684360059,2684360031,2684360003,0,0,
0,0,0,0,0,0,0,0,0,0,0,0,0,0,0,0,0,0,0,0,0,0,0,0,0,0,0,0,0,0,0,0,0,0,0,0,0,0,0,0,0,0,0,0,0,0,0,0,0,0,0,0,0,0,0,2684360172,2684360144,2684360116,2684360088,2684360060,2684360032,2684360004,0,0,
0,0,0,0,0,0,0,0,0,0,0,0,0,0,0,0,0,0,0,0,0,0,0,0,0,0,0,0,0,0,0,0,0,0,0,0,0,0,0,0,0,0,0,0,0,0,0,0,0,0,0,0,0,0,0,2684360173,2684360145,2684360117,2684360089,2684360061,2684360033,2684360005,0,0,
0,0,0,0,0,0,0,0,0,0,0,0,0,0,0,0,0,0,0,0,0,0,0,0,0,0,0,0,0,0,0,0,0,0,0,0,0,0,0,0,0,0,0,0,0,0,0,0,0,0,0,0,0,0,0,2684360174,2684360146,2684360118,2684360090,2684360062,2684360034,2684360006,0,0,
0,0,0,0,0,0,0,0,0,0,0,0,0,0,0,0,0,0,0,0,0,0,0,0,0,0,0,0,0,0,0,0,0,0,0,0,0,0,0,0,0,0,0,0,0,0,0,0,0,0,0,0,0,0,0,2684360175,2684360147,2684360119,2684360091,2684360063,2684360035,2684360007,0,0,
0,0,0,0,0,0,0,0,0,0,0,0,0,0,0,0,0,0,0,0,0,0,0,0,0,0,0,0,0,0,5423,5424,5425,5426,5427,5428,5429,5430,0,0,0,0,0,0,0,0,0,0,0,0,0,0,0,0,0,2684360176,2684360148,2684360120,2684360092,2684360064,2684360036,2684360008,0,0,
0,0,0,0,0,0,0,0,0,0,0,0,0,0,0,0,0,0,0,0,0,0,0,0,0,0,0,0,0,0,5451,5452,5453,5454,5455,5456,5457,5458,0,0,0,0,0,0,0,0,0,0,0,0,0,0,0,0,0,2684360177,2684360149,2684360121,2684360093,2684360065,2684360037,2684360009,0,0,
0,0,0,0,0,0,0,0,0,0,0,0,0,0,0,0,0,0,0,0,0,0,0,0,0,0,0,0,0,0,5479,5480,5481,5482,5483,5484,5485,5486,0,0,0,0,0,0,0,0,0,0,0,0,0,0,0,0,0,2684360178,2684360150,2684360122,2684360094,2684360066,2684360038,2684360010,0,0,
0,0,0,0,0,0,0,0,0,0,0,0,0,0,0,0,0,0,0,0,0,0,0,0,0,0,0,0,0,0,5507,5508,5509,5510,5511,5512,5513,5514,0,0,0,0,0,0,0,0,0,0,0,0,0,0,0,0,0,0,0,0,0,0,0,0,0,0,
0,0,0,0,0,0,0,0,0,0,0,0,0,0,0,0,0,0,0,0,0,0,0,0,0,0,0,0,0,0,5535,5536,5537,5538,5539,5540,5541,5542,0,0,0,0,0,0,0,0,0,0,0,0,0,0,0,0,0,0,0,0,0,0,0,0,0,0,
0,0,0,0,0,0,0,0,0,0,0,0,0,0,0,0,0,0,0,0,0,0,0,0,0,0,0,0,0,0,5563,5564,5565,5566,5567,5568,5569,5570,0,0,0,0,0,0,0,0,0,0,0,0,0,0,0,0,0,0,0,0,0,0,0,0,0,0,
0,0,0,0,0,0,0,0,0,0,0,0,0,0,0,0,0,0,0,0,0,0,0,0,0,0,0,0,0,0,5591,5592,5593,5594,5595,5596,5597,5598,0,0,0,0,0,0,0,0,0,0,0,0,0,0,0,0,0,0,0,0,0,0,0,0,0,0,
0,0,0,0,0,0,0,0,0,0,0,0,0,0,0,0,0,0,0,0,0,0,0,0,0,0,0,0,0,0,5619,5620,5621,5622,5623,5624,5625,5626,0,0,0,0,0,0,0,0,0,0,0,0,0,0,0,0,0,0,0,0,0,0,0,0,0,0,
0,0,0,0,0,0,0,0,0,0,0,0,0,0,0,0,0,0,0,0,0,0,0,0,0,0,0,0,0,0,0,0,0,0,0,0,0,0,0,0,0,0,0,0,0,0,0,0,0,0,0,0,0,0,0,0,0,0,0,0,0,0,0,0,
0,0,0,0,0,0,0,0,0,0,0,0,0,0,0,0,0,0,0,0,0,0,0,0,0,0,0,0,0,0,0,0,0,0,0,0,0,0,0,0,0,0,0,0,0,0,0,0,0,0,0,0,0,0,0,0,0,0,0,0,0,0,0,0,
0,0,0,0,0,0,0,0,0,0,0,0,0,0,5941,5942,5943,5944,5945,5946,5835,5836,5837,5838,5839,5840,5841,5829,5830,5831,5832,5833,5834,0,0,0,0,0,0,0,0,0,0,0,0,0,0,0,0,0,0,0,0,0,0,0,0,0,0,0,0,0,0,0,
0,0,0,0,0,0,0,0,0,0,0,0,0,0,5969,5970,5971,5972,5973,5974,5863,5864,5865,5866,5867,5868,5869,5857,5858,5859,5860,5861,5862,0,0,0,0,0,0,0,0,0,0,0,0,0,0,0,0,0,0,0,0,0,0,0,0,0,0,0,0,0,0,0,
0,0,0,0,0,0,0,0,0,0,0,0,0,0,0,0,0,0,0,0,0,0,0,0,0,0,0,0,0,0,0,0,0,0,0,0,0,0,0,0,0,0,0,0,0,0,0,0,0,0,0,0,0,0,0,0,0,0,0,0,0,0,0,0,
0,0,0,0,0,0,0,0,0,0,0,0,0,0,0,0,0,0,0,0,0,0,0,0,0,0,0,0,0,0,0,0,0,0,0,0,0,0,0,0,0,0,0,0,0,0,0,0,0,0,0,0,0,0,0,0,0,0,0,0,0,0,0,0,
0,0,0,0,0,0,0,0,0,0,0,0,0,0,0,0,0,0,0,0,0,0,0,0,0,0,0,0,0,0,0,0,0,0,0,0,0,0,0,0,0,0,0,0,0,0,0,0,0,0,0,0,0,0,0,0,0,0,0,0,0,0,0,0,
0,0,0,0,0,0,0,0,0,0,0,0,0,0,0,0,0,0,0,0,0,0,0,0,0,0,0,0,0,0,0,0,0,0,0,0,0,0,0,0,0,0,0,0,0,0,0,0,0,0,0,0,0,0,0,0,0,0,0,0,0,0,0,0,
0,0,0,0,0,0,0,0,0,0,0,0,2684360165,2684360137,2684360109,2684360081,2684360053,2684360025,2684359997,0,0,0,0,0,0,0,0,0,0,0,0,0,0,0,0,0,0,0,0,0,0,0,0,0,0,0,0,0,0,0,0,0,0,0,0,0,0,0,0,0,0,0,0,0,
0,0,0,0,0,0,0,0,0,0,0,0,2684360166,2684360138,2684360110,2684360082,2684360054,2684360026,2684359998,0,0,0,0,0,0,0,0,0,0,0,0,0,0,0,0,0,0,0,0,0,0,0,0,0,0,0,0,0,0,0,0,0,0,0,0,0,0,0,0,0,0,0,0,0,
0,0,0,0,0,0,0,0,0,0,0,0,2684360167,2684360139,2684360111,2684360083,2684360055,2684360027,2684359999,0,0,0,0,0,0,0,0,0,0,0,0,0,0,0,0,0,0,0,0,0,0,0,0,0,0,0,0,0,0,0,0,0,0,0,0,0,0,0,0,0,0,0,0,0,
0,0,0,0,0,0,0,0,0,0,0,0,2684360168,2684360140,2684360112,2684360084,2684360056,2684360028,2684360000,0,0,0,0,0,0,0,0,0,0,0,0,0,0,0,0,0,0,0,0,0,0,0,0,0,0,0,0,0,0,0,0,0,0,0,0,0,0,0,0,0,0,0,0,0,
0,0,0,0,0,0,0,0,0,0,0,0,2684360169,2684360141,2684360113,2684360085,2684360057,2684360029,2684360001,0,0,0,0,0,0,0,0,0,0,0,0,0,0,0,0,0,0,0,0,0,0,0,0,0,0,0,0,0,0,0,0,0,0,0,0,0,0,0,0,0,0,0,0,0,
0,0,0,0,0,0,0,0,0,0,0,0,2684360170,2684360142,2684360114,2684360086,2684360058,2684360030,2684360002,0,0,0,0,0,0,0,0,0,0,0,0,0,0,0,0,0,0,0,0,0,0,0,0,0,0,0,0,0,0,0,0,0,0,0,0,0,0,0,0,0,0,0,0,0,
0,0,0,0,0,0,0,0,0,0,0,0,2684360171,2684360143,2684360115,2684360087,2684360059,2684360031,2684360003,0,0,0,0,0,0,0,0,0,0,0,0,0,0,0,0,0,0,0,0,0,0,0,0,0,0,0,0,0,0,0,0,0,0,0,0,0,0,0,0,0,0,0,0,0,
0,0,0,0,0,0,0,0,0,0,0,0,2684360172,2684360144,2684360116,2684360088,2684360060,2684360032,2684360004,0,0,0,0,0,0,0,0,0,0,0,0,0,0,0,0,0,0,0,0,0,0,0,0,0,0,0,0,0,0,0,0,0,0,0,0,0,0,0,0,0,0,0,0,0,
0,0,0,0,0,0,0,0,0,0,0,0,2684360173,2684360145,2684360117,2684360089,2684360061,2684360033,2684360005,0,0,0,0,0,0,0,0,0,0,0,0,0,0,0,0,0,0,0,0,0,0,0,0,0,0,0,0,0,0,0,0,0,0,0,0,0,0,0,0,0,0,0,0,0,
0,0,0,0,0,0,0,0,0,0,0,0,2684360174,2684360146,2684360118,2684360090,2684360062,2684360034,2684360006,0,0,0,0,0,0,0,0,0,0,0,0,0,0,0,0,0,0,0,0,0,0,0,0,0,0,0,0,0,0,0,0,0,0,0,0,0,0,0,0,0,0,0,0,0,
0,0,0,0,0,0,0,0,0,0,0,0,2684360175,2684360147,2684360119,2684360091,2684360063,2684360035,2684360007,0,0,0,0,0,0,0,0,0,0,0,0,0,0,0,0,0,0,0,0,0,0,0,0,0,0,0,0,0,0,0,0,0,0,0,0,0,0,0,0,0,0,0,0,0,
0,0,0,0,0,0,0,0,0,0,0,0,2684360176,2684360148,2684360120,2684360092,2684360064,2684360036,2684360008,0,0,0,0,0,0,0,0,0,0,0,0,0,0,0,0,0,0,0,0,0,0,0,0,0,0,0,0,0,0,0,0,0,0,0,0,0,0,0,0,0,0,0,0,0,
0,0,0,0,0,0,0,0,0,0,0,0,2684360177,2684360149,2684360121,2684360093,2684360065,2684360037,2684360009,0,0,0,0,0,0,0,0,0,0,0,0,0,0,0,0,0,0,0,0,0,0,0,0,0,0,0,0,0,0,0,0,0,0,0,0,0,0,0,0,0,0,0,0,0,
0,0,0,0,0,0,0,0,0,0,0,0,2684360178,2684360150,2684360122,2684360094,2684360066,2684360038,2684360010,0,0,0,0,5829,5830,5831,5832,5833,5834,5835,5885,5886,5887,5888,5889,5890,5829,5830,5831,5832,5833,5834,5835,5836,5837,5838,5839,5840,5841,0,0,0,0,0,0,0,0,0,0,0,0,0,0,0,
0,0,0,0,0,0,0,0,0,0,0,0,0,0,0,0,0,0,0,0,0,0,0,5857,5858,5859,5860,5861,5862,5863,5913,5914,5915,5916,5917,5918,5857,5858,5859,5860,5861,5862,5863,5864,5865,5866,5867,5868,5869,0,0,0,0,0,0,0,0,0,0,0,0,0,0,0,
0,0,0,0,0,0,0,0,0,0,0,0,0,0,0,0,0,0,0,0,0,0,0,0,0,0,0,0,0,0,0,0,0,0,0,0,0,0,0,0,0,0,0,0,0,0,0,0,0,0,0,0,0,0,0,0,0,0,0,0,0,0,0,0,
0,0,0,0,0,0,0,0,0,0,0,0,0,0,0,0,0,0,0,0,0,0,0,0,0,0,0,0,0,0,0,0,0,0,0,0,0,0,0,0,0,0,0,0,0,0,0,0,0,0,0,0,0,0,0,0,0,0,0,0,0,0,0,0,
0,0,0,0,0,0,0,0,0,0,0,0,0,0,0,0,0,0,0,0,0,0,0,0,0,0,0,0,0,0,0,0,0,0,0,0,0,0,0,0,0,0,0,0,0,0,0,0,0,0,0,0,0,0,0,0,0,0,0,0,0,0,0,0,
0,0,0,0,0,0,0,0,0,0,0,0,0,0,0,0,0,0,0,0,0,0,0,0,0,0,0,0,0,0,0,0,0,0,0,0,0,0,0,0,0,0,0,0,0,0,0,0,0,0,0,0,0,0,0,0,0,0,0,0,0,0,0,0,
0,0,0,0,0,0,0,0,0,0,0,0,0,0,0,0,0,0,0,0,0,0,0,0,0,0,0,0,0,0,0,0,0,0,0,0,0,0,0,0,0,0,0,0,0,0,0,0,0,0,0,0,0,0,0,0,0,0,0,0,0,0,0,0,
0,0,0,0,0,0,0,0,0,0,0,0,0,0,0,0,0,0,0,0,0,0,0,0,0,0,0,0,0,0,0,0,0,0,0,0,0,0,0,0,0,0,0,0,0,0,0,0,0,0,0,0,0,0,0,0,0,0,0,0,0,0,0,0,
0,0,0,0,0,0,0,0,0,0,0,0,0,0,0,0,0,0,0,0,0,0,0,0,0,0,0,0,0,0,0,0,0,0,0,0,0,0,0,0,0,0,0,0,0,0,0,0,0,0,0,0,0,0,0,0,0,0,0,0,0,0,0,0,
0,0,0,0,0,0,0,0,0,0,0,0,0,0,0,0,0,0,0,0,0,0,0,0,0,0,0,0,0,0,0,0,0,0,0,0,0,0,0,0,0,0,0,0,0,0,0,0,0,0,0,0,0,0,0,0,0,0,0,0,0,0,0,0,
0,0,0,0,0,0,0,0,0,0,0,0,0,0,0,0,0,0,0,0,0,0,0,0,0,0,0,0,0,0,0,0,0,0,0,0,0,0,0,0,0,0,0,0,0,0,0,0,0,0,0,0,0,0,0,0,0,0,0,0,0,0,0,0,
0,0,0,0,0,0,0,0,0,0,0,0,0,0,0,0,0,0,0,0,0,0,0,0,0,0,0,0,0,0,0,0,0,0,0,0,0,0,0,0,0,0,0,0,0,0,0,0,0,0,0,0,0,0,0,0,0,0,0,0,0,0,0,0,
0,0,0,0,0,0,0,0,0,0,0,0,0,0,0,0,0,0,0,0,0,0,0,0,0,0,0,0,0,0,0,0,0,0,0,0,0,0,0,0,0,0,0,0,0,0,0,0,0,0,0,0,0,0,0,0,0,0,0,0,0,0,0,0,
0,0,0,0,0,0,0,0,0,0,0,0,0,0,0,0,0,0,0,0,0,0,0,0,0,0,0,0,0,0,0,0,0,0,0,0,0,0,0,0,0,0,0,0,0,0,0,0,0,0,0,0,0,0,0,0,0,0,0,0,0,0,0,0,
0,0,0,0,0,0,0,0,0,0,0,0,0,0,0,0,0,0,0,0,0,0,0,0,0,0,0,0,0,0,0,0,0,0,0,0,0,0,0,0,0,0,0,0,0,0,0,0,0,0,0,0,0,0,0,0,0,0,0,0,0,0,0,0,
0,0,0,0,0,0,0,0,0,0,0,0,0,0,0,0,3221231090,3221231089,3221231088,3221231087,3221231086,3221231085,3221231084,3221231083,3221231082,3221231081,3221231080,3221231079,3221231078,3221231077,3221231090,3221231089,3221231088,3221231087,3221231086,3221231085,3221231084,3221231083,3221231082,3221231081,3221231080,3221231079,3221231078,3221231077,0,0,0,0,0,0,0,0,0,0,0,0,0,0,0,0,0,0,0,0,
0,0,0,0,0,0,0,0,0,0,0,0,0,0,0,0,3221231062,3221231061,3221231060,3221231059,3221231058,3221231057,3221231056,3221231055,3221231054,3221231053,3221231052,3221231051,3221231050,3221231049,3221231062,3221231061,3221231060,3221231059,3221231058,3221231057,3221231056,3221231055,3221231054,3221231053,3221231052,3221231051,3221231050,3221231049,0,0,0,0,0,0,0,0,0,0,0,0,0,0,0,0,0,0,0,0,
0,0,0,0,0,0,0,0,0,0,0,0,0,0,0,0,3221231034,3221231033,3221231032,3221231031,3221231030,3221231029,3221231028,3221231027,3221231026,3221231025,3221231024,3221231023,3221231022,3221231021,3221231034,3221231033,3221231032,3221231031,3221231030,3221231029,3221231028,3221231027,3221231026,3221231025,3221231024,3221231023,3221231022,3221231021,0,0,0,0,0,0,0,0,0,0,0,0,0,0,0,0,0,0,0,0,
0,0,0,0,0,0,0,0,0,0,0,0,0,0,0,0,3221231006,3221231005,3221231004,3221231003,3221231002,3221231001,3221231000,3221230999,3221230998,3221230997,3221230996,3221230995,3221230994,3221230993,3221231006,3221231005,3221231004,3221231003,3221231002,3221231001,3221231000,3221230999,3221230998,3221230997,3221230996,3221230995,3221230994,3221230993,0,0,0,3221231461,3221231460,3221231459,3221231458,0,0,0,0,0,0,0,0,0,0,0,0,0,
0,0,0,0,0,0,0,0,0,0,0,0,0,0,0,0,3221230978,3221230977,3221230976,3221230975,3221230974,3221230973,3221230972,3221230971,3221230970,3221230969,3221230968,3221230967,3221230966,3221230965,3221230978,3221230977,3221230976,3221230975,3221230974,3221230973,3221230972,3221230971,3221230970,3221230969,3221230968,3221230967,3221230966,3221230965,0,0,0,3221231433,3221231432,3221231431,3221231430,0,0,0,0,0,0,0,0,0,0,0,0,0,
0,0,0,0,0,0,0,0,0,0,0,0,0,0,0,0,3221230950,3221230949,3221230948,3221230947,3221230946,3221230945,3221230944,3221230943,3221230942,3221230941,3221230940,3221230939,3221230938,3221230937,3221230950,3221230949,3221230948,3221230947,3221230946,3221230945,3221230944,3221230943,3221230942,3221230941,3221230940,3221230939,3221230938,3221230937,0,0,0,3221231405,3221231404,3221231403,3221231402,0,0,0,0,0,0,0,0,0,0,0,0,0,
0,0,0,0,0,0,0,0,0,0,0,0,0,0,0,0,3221230922,3221230921,3221230920,3221230919,3221230918,3221230917,3221230916,3221230915,3221230914,3221230913,3221230912,3221230911,3221230910,3221230909,3221230922,3221230921,3221230920,3221230919,3221230918,3221230917,3221230916,3221230915,3221230914,3221230913,3221230912,3221230911,3221230910,3221230909,0,0,0,3221231377,3221231376,3221231375,3221231374,0,0,0,0,0,0,0,0,0,0,0,0,0
</data>
 </layer>
 <layer id="5" name="scenery-2" width="64" height="64">
  <data encoding="csv">
0,0,0,0,0,0,0,0,0,0,0,0,0,0,0,0,0,0,0,0,0,0,0,0,0,0,0,0,0,0,0,0,0,0,0,0,0,0,0,0,0,0,0,0,0,0,0,0,0,0,0,0,0,0,0,0,0,0,0,0,0,0,0,0,
0,0,0,0,0,0,0,0,0,0,0,0,0,0,0,0,0,0,0,0,0,0,0,0,0,0,0,0,0,0,0,0,0,0,0,0,0,0,0,0,0,0,0,0,0,0,0,0,0,0,0,0,0,0,0,0,0,0,0,0,0,0,0,0,
0,0,0,0,0,0,0,0,0,0,0,0,0,0,0,0,0,0,0,0,0,0,0,0,0,0,0,0,0,0,0,0,0,0,0,0,0,0,0,0,0,0,0,0,0,0,0,0,0,0,0,0,0,0,0,0,0,0,0,0,0,0,0,0,
0,0,0,0,0,0,0,0,0,0,0,0,0,0,0,0,0,0,0,0,0,0,0,0,0,0,0,0,0,0,0,0,0,0,0,0,0,0,0,0,0,0,0,0,0,0,0,0,0,0,0,0,0,0,0,0,0,0,0,0,0,0,0,0,
0,0,0,0,0,0,0,0,0,0,0,0,0,0,0,0,0,0,0,0,0,0,0,0,0,0,0,0,0,0,0,0,0,0,0,0,0,0,0,0,0,0,0,0,0,0,0,0,0,0,0,0,0,0,0,0,0,0,0,0,0,0,0,0,
0,0,0,0,0,0,0,0,0,0,0,0,0,0,0,0,0,0,0,0,0,0,0,0,0,0,0,0,0,0,0,0,0,0,0,0,0,0,0,0,0,0,0,0,0,0,0,0,0,0,0,0,0,0,0,0,0,0,0,0,0,0,0,0,
0,0,0,0,0,0,0,0,0,0,0,0,0,0,0,0,0,0,0,0,0,0,0,0,0,0,0,0,0,0,0,0,0,0,0,0,0,0,0,0,0,0,0,0,0,0,0,0,0,0,0,0,0,0,0,0,0,0,0,0,0,0,0,0,
0,0,0,0,0,0,0,0,0,0,0,0,0,0,0,0,0,0,0,0,0,0,0,0,0,0,0,0,0,0,0,0,0,0,0,0,0,0,0,0,0,0,0,0,0,0,0,0,0,0,0,0,0,0,0,0,0,0,0,0,0,0,0,0,
0,0,0,0,0,0,0,0,0,0,0,0,0,0,0,0,0,0,0,0,0,0,0,0,0,0,0,0,0,0,0,0,0,0,0,0,0,0,0,0,0,0,0,0,0,0,0,0,0,0,0,0,0,0,0,0,0,0,0,0,0,0,0,0,
0,0,0,0,0,0,0,0,0,0,0,0,0,0,0,0,0,0,0,0,0,0,0,0,0,0,0,0,0,0,0,0,0,0,0,0,0,0,0,0,0,0,0,0,0,0,0,0,0,0,0,0,0,0,0,0,0,0,0,0,0,0,0,0,
0,0,0,0,0,0,0,0,0,0,0,0,0,0,0,0,0,0,0,0,0,0,0,0,0,0,0,0,0,0,0,0,0,0,0,0,0,0,0,0,0,0,0,0,0,0,0,0,0,0,0,0,0,0,0,0,0,0,0,0,0,0,0,0,
0,0,0,0,0,0,0,0,0,0,0,0,0,0,0,0,0,0,0,0,0,0,0,0,0,0,0,0,0,0,0,0,0,0,0,0,0,0,0,0,0,0,0,0,0,0,0,0,0,0,0,0,0,0,0,0,0,0,0,0,0,0,0,0,
0,0,0,0,0,0,0,0,0,0,0,0,0,0,0,0,0,0,0,0,0,0,0,0,0,0,0,0,0,0,0,0,0,0,0,0,0,0,0,0,0,0,0,0,0,0,0,0,0,0,0,0,0,0,0,0,0,0,0,0,0,0,0,0,
0,0,0,0,0,0,0,0,0,0,0,0,0,0,0,0,0,0,0,0,0,0,0,0,0,0,0,0,0,0,0,0,0,0,0,0,0,0,0,0,0,0,0,0,0,0,0,0,0,0,0,0,0,0,0,0,0,0,0,0,0,0,0,0,
0,0,0,0,0,0,0,0,0,0,0,0,0,0,0,0,0,0,0,0,0,0,0,0,0,0,0,0,0,0,0,0,0,0,0,0,0,0,0,0,0,0,0,0,0,0,0,0,0,0,0,0,0,0,0,0,0,0,0,0,0,0,0,0,
0,0,0,0,0,0,0,0,0,0,0,0,0,0,0,0,0,0,0,0,0,0,0,0,0,0,0,0,0,0,0,0,0,0,0,0,0,0,0,0,0,0,0,0,0,0,0,0,0,0,0,0,0,0,0,0,0,0,0,0,0,0,0,0,
0,0,0,0,0,0,0,0,0,0,0,0,0,0,0,0,0,0,0,0,0,0,0,0,0,0,0,0,0,0,0,0,0,0,0,0,0,0,0,0,0,0,0,0,0,0,0,0,0,0,0,0,0,0,0,0,0,0,0,0,0,0,0,0,
0,0,0,0,0,0,0,0,0,0,0,0,0,0,0,0,0,0,0,0,0,0,0,0,0,0,0,0,0,0,0,0,0,0,0,0,0,0,0,0,0,0,0,0,0,0,0,0,0,0,0,0,0,0,0,0,0,0,0,0,0,0,0,0,
0,0,0,0,0,0,0,0,0,0,0,0,0,0,0,0,0,0,0,0,0,0,0,0,0,0,0,0,0,0,0,0,0,0,0,0,0,0,0,0,0,0,0,0,0,0,0,0,0,0,0,0,0,0,0,0,0,0,0,0,0,0,0,0,
0,0,0,0,0,0,0,0,0,0,0,0,0,0,0,0,0,0,0,0,0,0,0,0,0,0,0,0,0,0,0,0,0,0,0,0,0,0,0,0,0,0,0,0,0,0,0,0,0,0,0,0,0,0,0,0,0,0,0,0,0,0,0,0,
0,0,0,0,0,0,0,0,0,0,0,0,0,0,0,0,0,0,0,0,0,0,0,0,0,0,0,0,0,0,0,0,0,0,0,0,0,0,0,0,0,0,0,0,0,0,0,0,0,0,0,0,0,0,0,0,0,0,0,0,0,0,0,0,
0,0,0,0,0,0,0,0,0,0,0,0,0,0,0,0,0,0,0,0,0,0,0,0,0,0,0,0,0,0,0,0,0,0,0,0,0,0,0,0,0,0,0,0,0,0,0,0,0,0,0,0,0,0,0,0,0,0,0,0,0,0,0,0,
0,0,0,0,0,0,0,0,0,0,0,0,0,0,0,0,0,0,0,0,0,0,0,0,0,0,0,0,0,0,0,0,0,0,0,0,0,0,0,0,0,0,0,0,0,0,0,0,0,0,0,0,0,0,0,0,0,0,0,0,0,0,0,0,
0,0,0,0,0,0,0,0,0,0,0,0,0,0,0,0,0,0,0,0,0,0,0,0,0,0,0,0,0,0,0,0,0,0,0,0,0,0,0,0,0,0,0,0,0,0,0,0,0,0,0,0,0,0,0,0,0,0,0,0,0,0,0,0,
0,0,0,0,0,0,0,0,0,0,0,0,0,0,0,0,0,0,0,0,0,0,0,0,0,0,0,0,0,0,0,0,0,0,0,0,0,0,0,0,0,0,0,0,0,0,0,0,0,0,0,0,0,0,0,0,0,0,0,0,0,0,0,0,
0,0,0,0,0,0,0,0,0,0,0,0,0,0,0,0,0,0,0,0,0,0,0,0,0,0,0,0,0,0,0,0,0,0,0,0,0,0,0,0,0,0,0,0,0,0,0,0,0,0,0,0,0,0,0,0,0,0,0,0,0,0,0,0,
0,0,0,0,0,0,0,0,0,0,0,0,0,0,0,0,0,0,0,0,0,0,0,0,0,0,0,0,0,0,0,0,0,0,0,0,0,0,0,0,0,0,0,0,0,0,0,0,0,0,0,0,0,0,0,0,0,0,0,0,0,0,0,0,
0,0,0,0,0,0,0,0,0,0,0,0,0,0,0,0,0,0,0,0,0,0,0,0,0,0,0,0,0,0,0,0,0,0,0,0,0,0,0,0,0,0,0,0,0,0,0,0,0,0,0,0,0,0,0,0,0,0,0,0,0,0,0,0,
0,0,0,0,0,0,0,0,0,0,0,0,0,0,0,0,0,0,0,0,0,0,0,0,0,0,0,0,0,0,0,0,0,0,0,0,0,0,0,0,0,0,0,0,0,0,0,0,0,0,0,0,0,0,0,0,0,0,0,0,0,0,0,0,
0,0,0,0,0,0,0,0,0,0,0,0,0,0,2684359857,2684359829,2684359801,2684359773,2684359745,0,0,0,0,0,0,0,0,0,0,0,0,0,0,0,0,0,0,0,0,0,0,0,0,0,0,0,0,0,0,0,0,0,0,0,0,0,0,0,0,0,0,0,0,0,
0,0,0,0,0,0,0,0,0,0,0,0,0,0,2684359858,2684359830,2684359802,2684359774,2684359746,0,0,0,0,0,0,0,0,0,0,0,0,0,0,0,0,0,0,0,0,0,0,0,0,0,0,0,0,0,0,0,0,0,0,0,0,0,0,0,0,0,0,0,0,0,
0,0,0,0,0,0,0,0,0,0,0,0,0,0,2684359859,2684359831,2684359803,2684359775,2684359747,0,0,0,0,0,0,0,0,0,0,0,0,0,0,0,0,0,0,0,0,0,0,0,0,0,0,0,0,0,0,0,0,0,0,0,0,0,0,0,0,0,0,0,0,0,
0,0,0,0,0,0,0,0,0,0,0,0,0,0,2684359860,2684359832,2684359804,2684359776,2684359748,0,0,0,0,0,0,0,0,0,0,0,0,0,0,0,0,0,0,0,0,0,0,0,0,0,0,0,0,0,0,0,0,0,0,0,0,0,0,0,0,0,0,0,0,0,
0,0,0,0,0,0,0,0,0,0,0,0,0,0,2684359861,2684359833,2684359805,2684359777,2684359749,0,0,0,0,0,0,0,0,0,0,0,0,0,0,0,0,0,0,0,0,0,0,0,0,0,0,0,0,0,0,0,0,0,0,0,0,0,0,0,0,0,0,0,0,0,
0,0,0,0,0,0,0,0,0,0,0,0,0,0,2684359862,2684359834,2684359806,2684359778,2684359750,0,0,0,0,0,0,0,0,0,0,0,0,0,0,0,0,0,0,0,0,0,0,0,0,0,0,0,0,0,0,0,0,0,0,0,0,0,0,0,0,0,0,0,0,0,
0,0,0,0,0,0,0,0,0,0,0,0,0,0,2684359863,2684359835,2684359807,2684359779,2684359751,0,0,0,0,0,0,0,0,0,0,0,0,0,0,0,0,0,0,0,0,0,0,0,0,0,0,0,0,0,0,0,0,0,0,0,0,0,0,0,0,0,0,0,0,0,
0,0,0,0,0,0,0,0,0,0,0,0,0,0,2684359864,2684359836,2684359808,2684359780,2684359752,0,0,0,0,0,0,0,0,0,0,0,0,0,0,0,0,0,0,0,0,0,0,0,0,0,0,0,0,0,0,0,0,0,0,0,0,0,0,0,0,0,0,0,0,0,
0,0,0,0,0,0,0,0,0,0,0,0,0,0,2684359865,2684359837,2684359809,2684359781,2684359753,0,0,0,0,0,0,0,0,0,0,0,0,0,0,0,0,0,0,0,0,0,0,0,0,0,0,0,0,0,0,0,0,0,0,0,0,0,0,0,0,0,0,0,0,0,
0,0,0,0,0,0,0,0,0,0,0,0,0,0,2684359866,2684359838,2684359810,2684359782,2684359754,0,0,0,0,0,0,0,0,0,0,0,0,0,0,0,0,0,0,0,0,0,0,0,0,0,0,0,0,0,0,0,0,0,0,0,0,0,0,0,0,0,0,0,0,0,
0,0,0,0,0,0,0,0,0,0,0,0,0,0,2684359867,2684359839,2684359811,2684359783,2684359755,0,0,0,0,0,0,0,0,0,0,0,0,0,0,0,0,0,0,0,0,0,0,0,0,0,0,0,0,0,0,0,0,0,0,0,0,0,0,0,0,0,0,0,0,0,
0,0,0,0,0,0,0,0,0,0,0,0,0,0,2684359868,2684359840,2684359812,2684359784,2684359756,0,0,0,0,0,0,0,0,0,0,0,0,0,0,0,0,0,0,0,0,0,0,0,0,0,0,0,0,0,0,0,0,0,0,0,0,0,0,0,0,0,0,0,0,0,
0,0,0,0,0,0,0,0,0,0,0,0,0,0,2684359869,2684359841,2684359813,2684359785,2684359757,0,0,0,0,0,0,0,0,0,0,0,0,0,0,0,0,0,0,0,0,0,0,0,0,0,0,0,0,0,0,0,0,0,0,0,0,0,0,0,0,0,0,0,0,0,
0,0,0,0,0,0,0,0,0,0,0,0,0,0,2684359870,2684359842,2684359814,2684359786,2684359758,0,0,0,0,0,0,0,0,0,0,0,0,0,0,0,0,0,0,0,0,0,0,0,0,0,0,0,0,0,0,0,0,0,0,0,0,0,0,0,0,0,0,0,0,0,
0,0,0,0,0,0,0,0,0,0,0,0,0,0,0,0,0,0,0,0,0,0,0,0,0,0,0,0,0,0,0,0,0,0,0,0,0,0,0,0,0,0,0,0,0,0,0,0,0,0,0,0,0,0,0,0,0,0,0,0,0,0,0,0,
0,0,0,0,0,0,0,0,0,0,0,0,0,0,0,0,0,0,0,0,0,0,0,0,0,0,0,0,0,0,0,0,0,0,0,0,0,0,0,0,0,0,0,0,0,0,0,0,0,0,0,0,0,0,0,0,0,0,0,0,0,0,0,0,
0,0,0,0,0,0,0,0,0,0,0,0,0,0,0,0,0,0,0,0,0,0,0,0,0,0,0,0,0,0,0,0,0,0,0,0,0,0,0,0,0,0,0,0,0,0,0,0,0,0,0,0,0,0,0,0,0,0,0,0,0,0,0,0,
0,0,0,0,0,0,0,0,0,0,0,0,0,0,0,0,0,0,0,0,0,0,0,0,0,0,0,0,0,0,0,0,0,0,0,0,0,0,0,0,0,0,0,0,0,0,0,0,0,0,0,0,0,0,0,0,0,0,0,0,0,0,0,0,
0,0,0,0,0,0,0,0,0,0,0,0,0,0,0,0,0,0,0,0,0,0,0,0,0,0,0,0,0,0,0,0,0,0,0,0,0,0,0,0,0,0,0,0,0,0,0,0,0,0,0,0,0,0,0,0,0,0,0,0,0,0,0,0,
0,0,0,0,0,0,0,0,0,0,0,0,0,0,0,0,0,0,0,0,0,0,0,0,0,0,0,0,0,0,0,0,0,0,0,0,0,0,0,0,0,0,0,0,0,0,0,0,0,0,0,0,0,0,0,0,0,0,0,0,0,0,0,0,
0,0,0,0,0,0,0,0,0,0,0,0,0,0,0,0,0,0,0,0,0,0,0,0,0,0,0,0,0,0,0,0,0,0,0,0,0,0,0,0,0,0,0,0,0,0,0,0,0,0,0,0,0,0,0,0,0,0,0,0,0,0,0,0,
0,0,0,0,0,0,0,0,0,0,0,0,0,0,0,0,0,0,0,0,0,0,0,0,0,0,0,0,0,0,0,0,0,0,0,0,0,0,0,0,0,0,0,0,0,0,0,0,0,0,0,0,0,0,0,0,0,0,0,0,0,0,0,0,
0,0,0,0,0,0,0,0,0,0,0,0,0,0,0,0,0,0,0,0,0,0,0,0,0,0,0,0,0,0,0,0,0,0,0,0,0,0,0,0,0,0,0,0,0,0,0,0,0,0,0,0,0,0,0,0,0,0,0,0,0,0,0,0,
0,0,0,0,0,0,0,0,0,0,0,0,0,0,0,0,0,0,0,0,0,0,0,0,0,0,0,0,0,0,0,0,0,0,0,0,0,0,0,0,0,0,0,0,0,0,0,0,0,0,0,0,0,0,0,0,0,0,0,0,0,0,0,0,
0,0,0,0,0,0,0,0,0,0,0,0,0,0,0,0,0,0,0,0,0,0,0,0,0,0,0,0,0,0,0,0,0,0,0,0,0,0,0,0,0,0,0,0,0,0,0,0,0,0,0,0,0,0,0,0,0,0,0,0,0,0,0,0,
0,0,0,0,0,0,0,0,0,0,0,0,0,0,0,0,0,0,0,0,0,0,0,0,0,0,0,0,0,0,0,0,0,0,0,0,0,0,0,0,0,0,0,0,0,0,0,0,0,0,0,0,0,0,0,0,0,0,0,0,0,0,0,0,
0,0,0,0,0,0,0,0,0,0,0,0,0,0,0,0,0,0,0,0,0,0,0,0,0,0,0,0,0,0,0,0,0,0,0,0,0,0,0,0,0,0,0,0,0,0,0,0,0,0,0,0,0,0,0,0,0,0,0,0,0,0,0,0,
0,0,0,0,0,0,0,0,0,0,0,0,0,0,0,0,0,0,0,0,0,0,0,0,0,0,0,0,0,0,0,0,0,0,0,0,0,0,0,0,0,0,0,0,0,0,0,0,0,0,0,0,0,0,0,0,0,0,0,0,0,0,0,0,
0,0,0,0,0,0,0,0,0,0,0,0,0,0,0,0,0,0,0,0,0,0,0,0,0,0,0,0,0,0,0,0,0,0,0,0,0,0,0,0,0,0,0,0,0,0,0,0,0,0,0,0,0,0,0,0,0,0,0,0,0,0,0,0,
0,0,0,0,0,0,0,0,0,0,0,0,0,0,0,0,0,0,0,0,0,0,0,0,0,0,0,0,0,0,0,0,0,0,0,0,0,0,0,0,0,0,0,0,0,0,0,0,0,0,0,0,0,0,0,0,0,0,0,0,0,0,0,0,
0,0,0,0,0,0,0,0,0,0,0,0,0,0,0,0,0,0,0,0,0,0,0,0,0,0,0,0,0,0,0,0,0,0,0,0,0,0,0,0,0,0,0,0,0,0,0,0,0,0,0,0,0,0,0,0,0,0,0,0,0,0,0,0,
0,0,0,0,0,0,0,0,0,0,0,0,0,0,0,0,0,0,0,0,0,0,0,0,0,0,0,0,0,0,0,0,0,0,0,0,0,0,0,0,0,0,0,0,0,0,0,0,0,0,0,0,0,0,0,0,0,0,0,0,0,0,0,0,
0,0,0,0,0,0,0,0,0,0,0,0,0,0,0,0,3221230782,3221230781,3221230780,3221230779,3221230778,3221230777,3221230776,3221230775,3221230774,3221230773,3221230772,3221230771,3221230770,3221230769,3221230782,3221230781,3221230780,3221230779,3221230778,3221230777,3221230776,3221230775,3221230774,3221230773,3221230772,3221230771,3221230770,3221230769,0,0,0,0,0,0,0,0,0,0,0,0,0,0,0,0,0,0,0,0,
0,0,0,0,0,0,0,0,0,0,0,0,0,0,0,0,3221230754,3221230753,3221230752,3221230751,3221230750,3221230749,3221230748,3221230747,3221230746,3221230745,3221230744,3221230743,3221230742,3221230741,3221230754,3221230753,3221230752,3221230751,3221230750,3221230749,3221230748,3221230747,3221230746,3221230745,3221230744,3221230743,3221230742,3221230741,0,0,0,0,0,0,0,0,0,0,0,0,0,0,0,0,0,0,0,0,
0,0,0,0,0,0,0,0,0,0,0,0,0,0,0,0,3221230726,3221230725,3221230724,3221230723,3221230722,3221230721,3221230720,3221230719,3221230718,3221230717,3221230716,3221230715,3221230714,3221230713,3221230726,3221230725,3221230724,3221230723,3221230722,3221230721,3221230720,3221230719,3221230718,3221230717,3221230716,3221230715,3221230714,3221230713,0,0,0,0,0,0,0,0,0,0,0,0,0,0,0,0,0,0,0,0
</data>
 </layer>
 <objectgroup id="4" name="terrains">
  <object id="6" name="grass-1" type="surface" x="418.666" y="1730.67" width="1341.34" height="314.667">
   <properties>
    <property name="terrainType" value="grass"/>
   </properties>
  </object>
  <object id="25" name="gravel-1" type="surface" x="1481.33" y="1085.33">
   <properties>
    <property name="terrainType" value="graveltrap"/>
   </properties>
   <polygon points="0,0 321.333,2.66667 378.667,32 405.333,104 406.667,162.667 406.667,556 370.667,609.333 324,640 281.333,644 288,689.333 353.333,713.333 473.333,708 538.667,656 530.667,-282.667 501.333,-318.667 89.3333,-313.333 84,-105.333 70.6667,-60 44,-22.6667"/>
  </object>
  <object id="26" name="gravel-2" type="surface" x="514.667" y="318.667">
   <properties>
    <property name="terrainType" value="graveltrap"/>
   </properties>
   <polygon points="0,0 -2.66667,-180 33.3333,-232 56,-244 44,-278.667 -6.66667,-286.667 -222.667,-286.667 -261.333,-249.333 -261.333,-136 -290.667,-102.667 -385.333,-96 -417.333,-58.6667 -424,10.6667 -382.667,-2.66667"/>
  </object>
  <object id="27" name="gravel-3" type="surface" x="68" y="1609.33">
   <properties>
    <property name="terrainType" value="graveltrap"/>
   </properties>
   <polygon points="0,0 -32,25.3333 -36,313.333 -4,370.667 305.333,374.667 342.667,344 350.667,117.333 77.3333,116 28,88 6.66667,45.3333"/>
  </object>
  <object id="28" name="track-0" type="surface" x="192" y="1408" width="1566.67" height="318.667">
   <properties>
    <property name="terrainType" value="tarmac"/>
   </properties>
  </object>
  <object id="30" name="track-1" type="surface" x="800.665" y="1089.67" width="958.67" height="251.667">
   <properties>
    <property name="terrainType" value="tarmac"/>
   </properties>
  </object>
  <object id="31" name="track-2" type="surface" x="1601.66" y="1216.67" width="285.67" height="382.667">
   <properties>
    <property name="terrainType" value="tarmac"/>
   </properties>
  </object>
  <object id="32" name="track-3" type="surface" x="672.165" y="957.667" width="319.67" height="256.667">
   <properties>
    <property name="terrainType" value="tarmac"/>
   </properties>
  </object>
  <object id="33" name="track-4" type="surface" x="801.165" y="832.666" width="641.003" height="256.667">
   <properties>
    <property name="terrainType" value="tarmac"/>
   </properties>
  </object>
  <object id="34" name="track-5" type="surface" x="1248.17" y="192.333" width="318.336" height="766.334">
   <properties>
    <property name="terrainType" value="tarmac"/>
   </properties>
  </object>
  <object id="35" name="track-6" type="surface" x="640.165" y="64.833" width="800.336" height="317.667">
   <properties>
    <property name="terrainType" value="tarmac"/>
   </properties>
  </object>
  <object id="36" name="track-7" type="surface" x="513.832" y="189.166" width="283.669" height="323">
   <properties>
    <property name="terrainType" value="tarmac"/>
   </properties>
  </object>
  <object id="37" name="track-8" type="surface" x="128.165" y="320.5" width="543.002" height="317.667">
   <properties>
    <property name="terrainType" value="tarmac"/>
   </properties>
  </object>
  <object id="38" name="track-9" type="surface" x="65.1657" y="383.166" width="317.002" height="1218.33">
   <properties>
    <property name="terrainType" value="tarmac"/>
   </properties>
  </object>
  <object id="39" name="track-11" type="surface" x="1442.67" y="958.5">
   <properties>
    <property name="terrainType" value="tarmac"/>
   </properties>
   <polygon points="0,0 0.666667,125.333 53,118.333 95.6667,92.6667 120.333,51 128.333,-0.666667"/>
  </object>
  <object id="40" name="track-13" type="surface          " x="1440.52" y="193.046" rotation="270">
   <properties>
    <property name="terrainType" value="tarmac"/>
   </properties>
   <polygon points="0,0 0.666667,125.333 53,118.333 95.6667,92.6667 120.333,51 128.333,-0.666667"/>
  </object>
  <object id="41" name="track-12" type="surface" x="1760.33" y="1217.33" rotation="270">
   <properties>
    <property name="terrainType" value="tarmac"/>
   </properties>
   <polygon points="0,0 0.666667,125.333 53,118.333 95.6667,92.6667 120.333,51 128.333,-0.666667"/>
  </object>
  <object id="42" name="track-14" type="surface" x="1758.67" y="1600.33">
   <properties>
    <property name="terrainType" value="tarmac"/>
   </properties>
   <polygon points="0,0 0.666667,125.333 53,118.333 95.6667,92.6667 120.333,51 128.333,-0.666667"/>
  </object>
  <object id="43" name="track-15" type="surface" x="671" y="513">
   <properties>
    <property name="terrainType" value="tarmac"/>
   </properties>
   <polygon points="0,0 0.666667,125.333 53,118.333 95.6667,92.6667 120.333,51 128.333,-0.666667"/>
  </object>
  <object id="44" name="track-16" type="surface          " x="641" y="190" rotation="180">
   <properties>
    <property name="terrainType" value="tarmac"/>
   </properties>
   <polygon points="0,0 0.666667,125.333 53,118.333 95.6667,92.6667 120.333,51 128.333,-0.666667"/>
  </object>
  <object id="45" name="track-17" type="surface          " x="802" y="958" rotation="180">
   <properties>
    <property name="terrainType" value="tarmac"/>
   </properties>
   <polygon points="0,0 0.666667,125.333 53,118.333 95.6667,92.6667 120.333,51 128.333,-0.666667"/>
  </object>
  <object id="46" name="track-18" type="surface          " x="801" y="1214.33" rotation="90">
   <properties>
    <property name="terrainType" value="tarmac"/>
   </properties>
   <polygon points="0,0 0.666667,125.333 53,118.333 95.6667,92.6667 120.333,51 128.333,-0.666667"/>
  </object>
  <object id="47" name="track-19" type="surface          " x="193" y="1600" rotation="90">
   <properties>
    <property name="terrainType" value="tarmac"/>
   </properties>
   <polygon points="0,0 0.666667,125.333 53,118.333 95.6667,92.6667 120.333,51 128.333,-0.666667"/>
  </object>
  <object id="48" name="track-20" type="surface          " x="128.333" y="383.011" rotation="180">
   <properties>
    <property name="terrainType" value="tarmac"/>
   </properties>
   <polygon points="0,0 0.315151,60.6769 25.0545,57.288 45.2241,44.8623 56.8845,24.6904 60.6663,-0.322751"/>
  </object>
  <object id="49" name="grass-2" type="surface" x="1763.33" y="1793.67" width="284.34" height="251.667">
   <properties>
    <property name="terrainType" value="grass"/>
   </properties>
  </object>
  <object id="50" name="grass-3" type="surface" x="2016.83" y="767.167" width="32.34" height="1025.67">
   <properties>
    <property name="terrainType" value="grass"/>
   </properties>
  </object>
  <object id="51" name="grass-4" type="surface" x="1567.83" y="-0.8335" width="479.84" height="771.667">
   <properties>
    <property name="terrainType" value="grass"/>
   </properties>
  </object>
  <object id="52" name="grass-5" type="surface" x="564.413" y="2.1665" width="1004.51" height="62.667">
   <properties>
    <property name="terrainType" value="grass"/>
   </properties>
  </object>
  <object id="53" name="grass-6" type="surface" x="1.745" y="1.33317" width="563.177" height="31.3337">
   <properties>
    <property name="terrainType" value="grass"/>
   </properties>
  </object>
  <object id="54" name="grass-7" type="surface" x="0.4115" y="34.9998" width="252.51" height="180">
   <properties>
    <property name="terrainType" value="grass"/>
   </properties>
  </object>
  <object id="55" name="grass-8" type="surface" x="1.07833" y="216.667" width="100.51" height="116">
   <properties>
    <property name="terrainType" value="grass"/>
   </properties>
  </object>
  <object id="56" name="grass-9" type="surface" x="-0.921667" y="332.667" width="66.51" height="1270.67">
   <properties>
    <property name="terrainType" value="grass"/>
   </properties>
  </object>
  <object id="57" name="grass-10" type="surface" x="-0.255" y="1604" width="34.51" height="444.003">
   <properties>
    <property name="terrainType" value="grass"/>
   </properties>
  </object>
  <object id="58" name="grass-11" type="surface" x="33.4117" y="1981.21" width="385.783" height="67.4575">
   <properties>
    <property name="terrainType" value="grass"/>
   </properties>
  </object>
  <object id="59" name="grass-12" type="surface" x="384.108" y="640.938" width="289.783" height="767.457">
   <properties>
    <property name="terrainType" value="grass"/>
   </properties>
  </object>
  <object id="60" name="grass-13" type="surface" x="674.442" y="1324.94" width="59.783" height="80.7903">
   <properties>
    <property name="terrainType" value="grass"/>
   </properties>
  </object>
  <object id="61" name="grass-14" type="surface" x="675.442" y="640.272" width="572.45" height="191.457">
   <properties>
    <property name="terrainType" value="grass"/>
   </properties>
  </object>
  <object id="62" name="grass-15" type="surface" x="798.442" y="382.271" width="449.117" height="260.79">
   <properties>
    <property name="terrainType" value="grass"/>
   </properties>
  </object>
  <object id="63" name="grass-16" type="surface" x="752.775" y="604.938" width="54.4503" height="40.1233">
   <properties>
    <property name="terrainType" value="grass"/>
   </properties>
  </object>
  <object id="64" name="grass-17" type="surface" x="658.108" y="830.605" width="54.4503" height="40.1233">
   <properties>
    <property name="terrainType" value="grass"/>
   </properties>
  </object>
 </objectgroup>
 <objectgroup id="6" name="grid">
  <object id="12" name="pos-1" x="991.667" y="1631.33">
   <point/>
  </object>
  <object id="13" name="pos-2" x="896.333" y="1503">
   <point/>
  </object>
  <object id="14" name="pos-3" x="703.667" y="1631.33">
   <point/>
  </object>
  <object id="15" name="pos-4" x="608" y="1503.33">
   <point/>
  </object>
 </objectgroup>
 <objectgroup id="7" name="checkpoints">
  <object id="16" name="finish-line" type="finish" x="1210" y="1416" width="11" height="298"/>
  <object id="17" name="checkpoint-1" type="checkpoint" x="1571" y="1366" width="472" height="20"/>
  <object id="18" name="checkpoint-3" type="checkpoint" x="1219" y="409" width="537" height="20"/>
  <object id="19" name="checkpoint-2" type="checkpoint" x="611" y="1075" width="378" height="20"/>
  <object id="20" name="checkpoint-4" type="checkpoint" x="782.5" y="2" width="15" height="410"/>
  <object id="21" name="checkpoint-5" type="checkpoint" x="2.5" y="634" width="413" height="14"/>
  <object id="22" name="checkpoint-6" type="checkpoint" x="-1.5" y="1390" width="413" height="14"/>
  <object id="73" x="-152" y="486"/>
 </objectgroup>
 <objectgroup id="8" name="obstacles">
  <object id="65" name="obstacle-6" type="obstacle" x="1764" y="65.3333" width="216" height="444"/>
  <object id="66" name="obstacle-5" type="obstacle" x="964" y="421.333" width="249.333" height="246.667"/>
  <object id="67" name="obstacle-4" type="obstacle" x="450.667" y="740" width="605.333" height="49.3333"/>
  <object id="68" name="obstacle-3" type="obstacle" x="390.667" y="934.667" width="213.333" height="437.333"/>
  <object id="69" name="obstacle-2" type="obstacle" x="741.333" y="1349.33" width="825.333" height="49.3333"/>
  <object id="70" name="obstacle-1" type="obstacle" x="516" y="1828" width="886.667" height="230.667"/>
  <object id="71" name="obstacle-0" type="obstacle" x="1546.67" y="1974.67" width="37.3333" height="44"/>
  <object id="72" x="1478.67" y="2261.33" width="1.33333" height="1.33333"/>
 </objectgroup>
</map>
